mjoo-man/Modeling_RoboBall_with_Drake/roboball_plant/data/data2-conv.csv
timestamp,ball_roll.position,ball_roll.velocity,drive_shaft.position,drive_shaft.velocity,ball_yaw.position,ball_yaw.velocity,pitch_joint.position,pitch_joint.velocity,roll_joint.position,roll_joint.velocity
1765208426656,-0.007566967715459155,-0.0008840413018531847,13.083510691681811,0.0,2.901798297441815,-0.001136999714044567,-0.07591519083429686,-6.08594889503085e-05,-0.021381355259269295,-0.0007573009274805069
1765208753216,-0.007556931873769749,-0.00040261472011247554,13.083510691681811,0.0,2.901800880254202,-0.0007006827559536545,-0.07591588564480974,-0.00041063368833466274,-0.02138247878035417,-0.0007620938128377059
1765208906848,-0.007556358465787858,2.7188556429231424e-05,13.083510691681811,0.0,2.901802803833303,-0.0007127789062837686,-0.07591381289041624,4.817483292644478e-05,-0.021379857231156124,-0.0006151674584795842
1765210221472,-0.007539449533440385,-4.9965337403748685e-05,13.083510691681811,0.0,2.9018071863476664,-0.001193517368383927,-0.07589022872895265,0.0007580009881404788,-0.021380606245212708,-0.0006480227641778017
1765210341824,-0.007540664628632122,-0.000647893939703432,13.083510691681811,0.0,2.901811392939447,-0.0005299129766027989,-0.07588432063748789,0.00063177974391218,-0.021377610188986367,-0.0005363783423109294
1765210445216,-0.007540664628632122,-0.0008804789158322654,13.083510691681811,0.0,2.901811392939447,-0.00027178113439324227,-0.07588432063748789,0.0005826816325944066,-0.021378359203042954,-0.0006102209552950146
1765210561344,-0.007551444573020812,-0.0007536278746458956,13.083510691681811,0.0,2.9018041772600744,-0.00043788304124372515,-0.0758841590943074,0.00042289244702126594,-0.02138247878035417,-0.0007315681870371501
1765211008960,-0.007545037486316192,-0.0006664688484356016,13.083510691681811,0.0,2.9018024751142604,-0.0009917418152324481,-0.07587395968686383,0.0005550322022954197,-0.02138397680846734,-0.000768746421374126
1765211143840,-0.0075423326475164195,0.0006093795781327487,13.083510691681811,0.0,2.901802582391367,-0.0007959136742768495,-0.0758685249330657,0.0005531293750819935,-0.021385474836580508,-0.0007776245054676784
1765211500416,-0.007533731924203672,5.4519379667619986e-05,13.083510691681811,0.0,2.9018058936342412,-0.000858471100859837,-0.07588199162845362,0.00015691915827421868,-0.021385100329552216,-0.000755391805100754
1765217473632,-0.007533731924203672,-0.00016131265365292415,13.083510691681811,0.0,2.9018058936342412,-0.0008828049720152312,-0.07588199162845362,2.7995134473785045e-06,-0.021381355259269295,-0.000560035544871231
1765227320032,-0.007532055199718224,-0.0006111826758871832,13.083510691681811,0.0,2.901803788674303,-0.0010170514200454651,-0.07588415393119771,6.608699321628507e-05,-0.021384725822523924,-0.0007563902438325919
1765242388448,-0.007517464490452133,1.335516677908506e-06,13.083510691681811,0.0,2.9018086719173857,-0.00041251649278601645,-0.07588583915184183,0.0002708352520425286,-0.021385100329552216,-0.0007230412032826216
1765250529216,-0.007521101907116281,8.159189861098848e-05,13.083510691681811,0.0,2.901809218139437,-0.0003161222036874063,-0.0758807468388339,8.7779546677097e-05,-0.021382478780354174,-0.0005586000707922593
1765257372544,-0.007517378402855267,0.00029525741616164594,13.083510691681811,0.0,2.901801128161995,-0.0008554696314536138,-0.07587774338140095,-0.00026337516296796014,-0.021382853287382462,-0.0005985615039177791
1765269454560,-0.007517378402855267,0.00037836999700815814,13.083510691681811,0.0,2.901801128161995,-0.0010652674369602954,-0.07587774338140095,-0.00039996891253304306,-0.021381729766297583,-0.0005620360853446287
1765277864480,-0.007523244382402975,-7.098694828336035e-05,13.083510691681811,0.0,2.901789064661434,-0.0014669993336957267,-0.07587862511615341,-0.0007865539610298136,-0.02138210427332588,-0.0006485256308385023
1765292465760,-0.007521386715599063,0.00047867036860593413,13.083510691681811,0.0,2.901784657994842,-0.0018981117188325153,-0.07587279968402585,-0.0005085493845056927,-0.02138734737172197,-0.0008603013207174621
1765297789312,-0.007523761930769998,0.0002554227386414255,13.083510691681811,0.0,2.9017744083241106,-0.0017036217625024594,-0.07587525176414982,-0.0008943655611148919,-0.021383227794410757,-0.0006008180664840961
1765310695808,-0.0075314103304548845,-0.00028848328166773283,13.083510691681811,0.0,2.9017737700930732,-0.0011934026600414825,-0.07588143422162384,-0.00047860691805222524,-0.021382853287382462,-0.0005503876344256065
1765320524992,-0.0075314103304548845,-0.0005000543091505927,13.083510691681811,0.0,2.9017737700930732,-0.0009949353224531,-0.07588143422162384,-0.0003168832378332607,-0.02138247878035417,-0.0005658982233610366
1765327378112,-0.007532899650808846,0.00016045805729154454,13.083510691681811,0.0,2.9017724173788286,-0.0008277535778986759,-0.07587573942770134,-0.0006640607256843838,-0.02137948272412783,-0.0003824757145058735
1765341185056,-0.007523306393360949,0.00014235934183840323,13.083510691681811,0.0,2.901781943837904,-0.0005658002462762108,-0.07587904822666074,-0.00024326331194045114,-0.021381355259269295,-0.0005199698988333966
1765347990016,-0.007517346955668768,0.0004627125669362957,13.083510691681811,0.0,2.901774594706308,-0.0008024557653273704,-0.07589100946034198,-0.0003268591204136472,-0.021383602301439045,-0.0006469292393423888
1765357434240,-0.007519753139988592,-0.00039431152982256435,13.083510691681811,0.0,2.9017785440778514,-0.00015762152130680451,-0.07588678176329815,-0.00046995363384082515,-0.021380980752241,-0.0005664614239634595
1765371030176,-0.007519753139988592,-0.0007276806449976052,13.083510691681811,0.0,2.9017785440778514,9.32090238046799e-05,-0.07588678176329815,-0.0005256151858415545,-0.021385474836580508,-0.0008017059771290626
1765377875744,-0.007509213323645985,-0.00010704360806573069,13.083510691681811,0.0,2.9017739145158625,-0.0003661191353977792,-0.07589036650788739,0.0001958130415713912,-0.021383602301439045,-0.0006313839082455224
1765390205024,-0.007510243579032086,0.00037198895808547843,13.083510691681811,0.0,2.9017772904722543,-0.0008890476683422685,-0.07589123670082909,-0.00028062934583013895,-0.021380980752241,-0.0005166563808120708
1765401066848,-0.007513256329945207,0.0004895707986828589,13.083510691681811,0.0,2.901782098858319,-0.0008334616763194278,-0.07588006702822381,0.00045869648314576144,-0.021380606245212708,-0.0004726719201113046
1765436611808,-0.007497739068747658,0.0006425303425657542,13.083510691681811,0.0,2.901787437208963,-0.00020658006005623417,-0.07588440299612338,5.4213962761793686e-05,-0.021379108217099537,-0.00042343191192446177
1765445681344,-0.007497739068747658,0.0007020292387982672,13.083510691681811,0.0,2.901787437208963,3.7267190591097044e-05,-0.07588440299612338,-0.00010312348018074016,-0.021379857231156124,-0.0004461254286290935
1765455731360,-0.007509736539780506,0.00020841965520333614,13.083510691681811,0.0,2.901786078192689,5.1517434005574624e-05,-0.07587242101435933,-0.00012900651667701758,-0.02138247878035417,-0.0005674488833093904
1765460397696,-0.0074999582678220034,0.0004970425591460188,13.083510691681811,0.0,2.9017819389651085,-0.0009712904859709567,-0.07586738303869307,0.00034474857867617086,-0.02138247878035417,-0.0005380113131878638
1765461154144,-0.007506811726437266,0.00036216778712255696,13.083510691681811,0.0,2.9017901853942734,-0.00041187196812090263,-0.0758721549735507,-0.00040554285758272727,-0.021381355259269295,-0.0004980224560628817
1765461380864,-0.007501722475236098,-0.00012319563998770534,13.083510691681811,0.0,2.901793748096447,-0.00037893088735748283,-0.0758731750911917,0.0006253231777549166,-0.021380980752241,-0.0004692230841320142
1765469128192,-0.007501722475236098,-0.0003119945043906984,13.083510691681811,0.0,2.901793748096447,-0.0003661173165506159,-0.0758731750911917,0.0010263141176411817,-0.02137948272412783,-0.0003634175263701256
1765477788256,-0.007496932429930635,-0.0006361376778913743,13.083510691681811,0.0,2.901792857416948,-0.0007667003093683146,-0.07587111352986273,0.00044428184804270137,-0.021381729766297583,-0.00048428017221302766
1765488143712,-0.0074840313345026195,-8.35527844074294e-06,13.083510691681811,0.0,2.9017986090842967,-0.0002768101222808769,-0.07587267955663965,9.857633975596479e-05,-0.02138397680846734,-0.0005183149670417018
1765497685472,-0.007481472503804776,0.00032184872570329413,13.083510691681811,0.0,2.9017863759140834,-0.0006779359017420026,-0.07586135482630006,5.9767852898857455e-05,-0.02138210427332588,-0.00035802120730606194
1765508969024,-0.007481472503804776,0.00045029297494326173,13.083510691681811,0.0,2.9017863759140834,-0.0008339676243955135,-0.07586135482630006,4.467195189238167e-05,-0.0213858493436088,-0.0004834700927556809
1765519084672,-0.007492648672925658,0.0005466928246563411,13.083510691681811,0.0,2.901790461594548,-0.0012797113023190066,-0.07587049104293024,-0.0006648882287994927,-0.021384725822523924,-0.0004378416778633382
1765534883328,-0.007496785374352832,0.0003230368401942931,13.083510691681811,0.0,2.9017930885231014,-0.0008169853207434546,-0.07587004803998618,-0.0002606578131789014,-0.021385100329552216,-0.0004343288401109742
1765539767840,-0.007486978937271179,-6.593368542852097e-05,13.083510691681811,0.0,2.901797694989655,-0.00043332926234309753,-0.07588175075818221,-0.00011763061021554533,-0.021384725822523924,-0.0004301119844620104
1765547995648,-0.007470116754770217,2.0311205210086705e-05,13.083510691681811,0.0,2.901796724571454,-0.00039570760182452405,-0.07588513138013765,-0.00013733607157871512,-0.02138397680846734,-0.0003897464152168849
1765563904960,-0.007470116754770217,5.385913342971826e-05,13.083510691681811,0.0,2.901796724571454,-0.00038107335790311714,-0.07588513138013765,-0.00014500119119857131,-0.02138135525926929,-0.00026260968160447216
1765595669024,-0.007473874539363067,0.0001044026587435361,13.083510691681811,0.0,2.901794056645117,-0.0007518323065324268,-0.0758837134174934,2.280228163540461e-05,-0.021380606245212708,-0.0002594132060477206
1765601216160,-0.007463472797932953,-8.54300689385102e-05,13.083510691681811,0.0,2.901794491439767,-0.0006132884123411114,-0.07589327848134846,-0.00027721959621488176,-0.021384725822523924,-0.00046275881861940866
1765608285120,-0.007443272746060424,0.0002335238813490852,13.083510691681811,0.0,2.901799440506427,-0.0005770838419586548,-0.0759031428570327,-0.0002810564718886411,-0.02138360230143905,-0.0003286384891121955
1765614509568,-0.007443272746060424,0.00035759203368118637,13.083510691681811,0.0,2.901799440506427,-0.0005630008241773145,-0.0759031428570327,-0.0002825489571679175,-0.02138397680846734,-0.0003263965714416113
1765623295104,-0.007436773101018242,-0.0003702169600334339,13.083510691681811,0.0,2.90179046545236,-0.0011586015825127082,-0.0758997254528446,0.00021360792278148582,-0.02138210427332588,-0.0002988534770183161
1765628204256,-0.007451392405508746,-0.0012819140287082327,13.083510691681811,0.0,2.901792101887904,-0.0007826637436004525,-0.07590756998748892,1.9006245505970954e-05,-0.021384351315495632,-0.00039414247618761256
1765632710368,-0.007443950548089253,5.23737637490064e-05,13.083510691681811,0.0,2.9017858577422824,-0.001079273427838083,-0.07591209494259343,-0.0004366137772606584,-0.021387347371721974,-0.0005535950708853522
1765643283264,-0.007460610096013003,0.00012224745837502703,13.083510691681811,0.0,2.9017874365415346,-0.0005282459395455718,-0.07591870519167966,-0.0002780889070791544,-0.021384725822523924,-0.00042903308094991994
1765651145536,-0.00746270744332484,5.0034542564769645e-05,13.083510691681811,0.0,2.901790214774685,0.00012281655083846158,-0.07592635210545075,-0.0004747175283724662,-0.02138210427332588,-0.00027155543708823836
1765661272224,-0.00746270744332484,2.1944835473781312e-05,13.083510691681811,0.0,2.901790214774685,0.0003760697874321734,-0.07592635210545075,-0.0005512030201416471,-0.021381729766297583,-0.00026105534257429836
1765668268928,-0.007459871092730912,-0.00014661416283853434,13.083510691681811,0.0,2.9017927288219587,-2.14119838509407e-05,-0.07592791166247563,-0.0003943140797807653,-0.021380606245212708,-0.0001885878668702005
1765677276480,-0.007463163606320207,-0.0004500058303393784,13.083510691681811,0.0,2.9017934674177015,-0.0005739699956933301,-0.07593891546731574,-2.283698741027042e-05,-0.021381355259269295,-0.0002622530953226508
1765691306336,-0.0074589511650923306,-0.0005591936543192533,13.083510691681811,0.0,2.901792396107409,-0.0006918735172051956,-0.07593136122685289,-0.0002871594394139014,-0.02138247878035417,-0.00034278490693870887
1765697542208,-0.007452829972113642,7.169734910075524e-05,13.083510691681811,0.0,2.9017900719388354,-0.0009925700380218584,-0.07592218840154896,-6.662767804105411e-05,-0.021380231738184416,-0.00029301826252963923
1765711103776,-0.007451800992846823,-0.0001310047530206421,13.083510691681811,0.0,2.9017972352850774,-0.0002661519735766138,-0.07592020901161325,-0.0009937683871658403,-0.021382853287382465,-0.00042445596743762715
1765719586752,-0.007451800992846823,-0.00020985273487306416,13.083510691681811,0.0,2.9017972352850774,1.6413415549679052e-05,-0.07592020901161325,-0.0013544117798225761,-0.02137910821709954,-0.0003068720967402992
1765730709760,-0.007440815732924265,-9.48625247499921e-05,13.083510691681811,0.0,2.9017956186871605,-0.0005073566318763801,-0.07592227680575649,-0.0010421759019580683,-0.021381355259269295,-0.0003935134256994205
1765740568384,-0.00746062126048477,-0.00013546045896839195,13.083510691681811,0.0,2.9018071393476146,6.83068573922568e-05,-0.07591626514770888,-0.0004944486910287427,-0.021380606245212708,-0.0003585368887862655
1765750431808,-0.007479115412119502,-0.0007636419918814164,13.083510691681811,0.0,2.9018055676549324,-3.929799360848416e-05,-0.07591544846284674,-0.000891318999461735,-0.021379482724127832,-0.00030651917061093786
1765760235552,-0.00750226874091321,-0.000745114733163307,13.083510691681811,0.0,2.9018081861730805,-0.0007146650872476276,-0.07591809135694419,-0.0006077969910615018,-0.021380231738184416,-0.000357275113371112
1765773444512,-0.00750226874091321,-0.0007379079161451702,13.083510691681811,0.0,2.9018081861730805,-0.0009773724385068179,-0.07591809135694419,-0.0004975113159789837,-0.021380606245212708,-0.0004371120346136253
1765779753664,-0.007507300390692244,8.569447373835533e-05,13.083510691681811,0.0,2.9018142929220447,-0.0007072881940152044,-0.07592373623295279,-4.218017575154234e-05,-0.02137648666790149,-0.0002669289243754135
1765790908384,-0.007512470919988379,-0.0003131429438302765,13.083510691681811,0.0,2.9018280490475497,-0.00018151490185787709,-0.07592824974618863,-4.7501411417552144e-05,-0.021380606245212708,-0.00047207576135032786
1765800147904,-0.007513202834967951,-0.0009843605453936479,13.083510691681811,0.0,2.901822007878016,-0.000275431765656725,-0.07593386688742151,-0.0003998742966185493,-0.02138210427332588,-0.0005109326995406287
1765811870272,-0.007517284375162046,-0.0006890024439693424,13.083510691681811,0.0,2.9018131826399105,-0.0009471130509210816,-0.07592960624927425,0.00018598087028430337,-0.021379482724127832,-0.000379452931451969
1765820208128,-0.007517284375162046,-0.0005741127118089814,13.083510691681811,0.0,2.9018131826399105,-0.0012083866797432314,-0.07592960624927425,0.0004138694668240608,-0.02138135525926929,-0.0004518180200340894
1765829403296,-0.007535261650888335,-0.0007734079513442723,13.083510691681811,0.0,2.9018165406468404,-0.0015403299717779639,-0.0759377135022171,-0.00020699751565643698,-0.021377610188986367,-0.00025244238952451797
1765839947072,-0.007535261650888335,-0.0008509307163560611,13.083510691681811,0.0,2.9018165406468404,-0.0016694507771000166,-0.0759377135022171,-0.0004485051668107992,-0.021378733710071245,-0.0003202321882417364
1765849509984,-0.007519365325583734,-0.00011858378907505249,13.083510691681811,0.0,2.901820352093941,-0.0012089970153253216,-0.07594242526557582,-0.000490105497585522,-0.021380231738184416,-0.0003631414077258186
1765858817280,-0.0075261543234844755,0.00034635400612163477,13.083510691681811,0.0,2.9018165880836606,-0.0006754668597178003,-0.07594243258308737,-0.0004483265579809405,-0.02138210427332588,-0.0004690822820170409
1765868898240,-0.007526770837536665,9.884220804505949e-05,13.083510691681811,0.0,2.901819816560813,-0.0008794506763995546,-0.07593101169559396,0.00017710537499139549,-0.021379857231156124,-0.0003326066429731601
1765879295264,-0.007527381909597107,0.00032285839079141754,13.083510691681811,0.0,2.9018117040163878,-0.0009525016816342118,-0.07593384153475259,0.0005485113186502192,-0.021383602301439045,-0.0004831464107015956
1765890639712,-0.007524237861497842,0.00047207435806448123,13.083510691681811,0.0,2.901815796573112,-0.0006790281783880781,-0.07593169231524909,-7.238656697553422e-05,-0.021379857231156124,-0.0002741776948872298
1765897641664,-0.007515984086378115,-0.00035454862602231027,13.083510691681811,0.0,2.9018111115105287,-1.2849619090392447e-05,-0.07593502493784765,0.0002610605313424809,-0.02137910821709954,-0.00026189284317384564
1765907532000,-0.007511946624436761,-0.0002333534217493911,13.083510691681811,0.0,2.90181428616779,-0.0006178699739703784,-0.07593839453701001,2.114221199668554e-06,-0.0213761121608732,-0.00016509155672599958
1765921023296,-0.007511946624436761,-0.00018621036221965487,13.083510691681811,0.0,2.90181428616779,-0.000853213532141043,-0.07593839453701001,-9.861188745540716e-05,-0.0213761121608732,-0.0001501204131177755
1765928604128,-0.00750038754703822,3.40433060052078e-05,13.083510691681811,0.0,2.9018152097720566,-0.0009619694199985353,-0.07593524219201246,-1.5449085154274505e-05,-0.021379857231156124,-0.0003281575462218507
1765937583168,-0.00748437376336859,-0.00010500641773866163,13.083510691681811,0.0,2.901814887658278,-0.0007628501487076407,-0.07593052755080504,-0.00012319269392530537,-0.021379482724127832,-0.00029536441525631745
1765950018880,-0.00749101391099124,-0.0012783173405217733,13.083510691681811,0.0,2.9018188925765824,-0.0009280614192709853,-0.0759274981346167,-0.00010461224538748225,-0.021380231738184416,-0.0003004681685624144
1765960105792,-0.007495084463770511,-0.00034479044722858054,13.083510691681811,0.0,2.9018143512886496,-0.001179130487960018,-0.07593772328305158,-0.00011321598787850928,-0.021379857231156124,-0.0002261976463256198
1765971696576,-0.007495084463770511,1.8337072273150542e-05,13.083510691681811,0.0,2.9018143512886496,-0.0012767924715532686,-0.07593772328305158,-0.0001165627106045969,-0.021378359203042954,-0.00012939818995400372
1765980981152,-0.00748896752199832,8.515930978289128e-05,13.083510691681811,0.0,2.901808843421274,-0.001127023343356323,-0.07593749178242384,-0.0003528205010642766,-0.02138135525926929,-0.00027445932947558365
1765990564512,-0.007507798756515748,-0.000955200534440988,13.083510691681811,0.0,2.9018043784291243,-0.0008397490047458462,-0.07595167421769819,-0.00041716010008479036,-0.021379857231156124,-0.00019677289352370027
1766000476096,-0.007501871453779231,-0.0006522917456921834,13.083510691681811,0.0,2.9017952536415215,-0.0009874920446773553,-0.07595933855072018,-0.0007805297856615723,-0.021379482724127832,-0.00017426589315965127
1766010343328,-0.007501871453779231,-0.0005344649129743805,13.083510691681811,0.0,2.9017952536415215,-0.0010449618015739297,-0.07595933855072018,-0.0009218749718941231,-0.02138135525926929,-0.00025986671306310816
1766020325792,-0.007489643649442908,-0.0003721574962878701,13.083510691681811,0.0,2.901800949313081,-0.00044090246124220547,-0.07595293319347504,-0.00040750260850532416,-0.02138135525926929,-0.00022843958399703702
1766030618560,-0.007484404557945812,-0.00023592746663126743,13.083510691681811,0.0,2.901800386647081,-0.0006289046291782312,-0.07595925144944192,-0.00035934031637569884,-0.021381729766297583,-0.0002444420734220969
1766039922112,-0.0074863674392422995,-0.0002714087462103402,13.083510691681811,0.0,2.9018004312523744,-0.0008918342192491029,-0.07595480673381191,0.00024638988126508246,-0.02138360230143905,-0.0002990637829212582
1766048051552,-0.007475231635208659,-0.0001707756876350236,13.083510691681811,0.0,2.901795989005762,-0.0009125910395587326,-0.07596637169511532,-0.0003552348266641932,-0.02138247878035417,-0.0002418380849555251
1766061359808,-0.007472443627450969,-0.0002596618611929772,13.083510691681811,0.0,2.9018009772977256,-0.0006523866085540836,-0.07594982151159264,0.0006480847502929074,-0.02137910821709954,-7.770597962309864e-05
1766068259104,-0.007472443627450969,-0.0002942372076066587,13.083510691681811,0.0,2.9018009772977256,-0.0005511711103473255,-0.07594982151159264,0.0010383605440225394,-0.02137761018898637,-2.7908253919368277e-05
1766080236320,-0.007467892146126896,-4.577343612108419e-06,13.083510691681811,0.0,2.9017909645797664,-0.001155724914762671,-0.07593903569950822,0.0012629766515809431,-0.021375363146816616,7.294898147503163e-05
1766087770976,-0.007470552056746591,0.0004406908823612854,13.083510691681811,0.0,2.9017926433237293,-0.0012206712920802688,-0.07593774645667214,0.00014912460829850992,-0.021377984696014662,-9.844466061526222e-05
1766097667616,-0.00746660239960322,0.00017870428728345607,13.083510691681811,0.0,2.9017906559876017,-0.0005958386981941212,-0.07595621971818967,0.0002192973970284908,-0.02138210427332588,-0.00032904993482198934
1766109016448,-0.007457977584676819,-8.658042913158269e-05,13.083510691681811,0.0,2.901796390682098,-0.0008093806383809103,-0.07595039535511351,4.8946512765871486e-05,-0.021377235681958078,-6.25830525496269e-05
1766120140160,-0.007457977584676819,-0.0001897720797691805,13.083510691681811,0.0,2.901796390682098,-0.0008924451495446629,-0.07595039535511351,-1.7317345824202737e-05,-0.021380231738184416,-0.00019515086595974155
1766127945632,-0.007463628194163853,-0.0008107813956761527,13.083510691681811,0.0,2.9017940543081675,-0.0009369510267178816,-0.07594794430742319,0.0003873417821469522,-0.021377610188986367,-8.489255897297481e-05
1766144289408,-0.007479541286234964,0.0001370121302479082,13.083510691681811,0.0,2.9018010881356653,-0.0011466841759994691,-0.0759513001293348,-0.00044052085183690626,-0.021378733710071245,-0.0001148293545321019
1766150394528,-0.007488305546287987,6.850254389886024e-05,13.083510691681811,0.0,2.901799785103583,-0.001004822352474849,-0.07593696952877149,-0.0002720624045155774,-0.021375737653844908,1.73142126350253e-05
1766158813120,-0.007480965370116169,0.00025102179282486406,13.083510691681811,0.0,2.901800040829185,-0.0008394901574635212,-0.07592263811189183,0.0002834999429544241,-0.021379108217099537,-0.00013964226666091735
1766168670048,-0.007480965370116169,0.0003220189570201144,13.083510691681811,0.0,2.901800040829185,-0.0007751784913513117,-0.07592263811189183,0.0004996051013753717,-0.021376861174929783,-0.0001059530876571009
1766178026848,-0.007464123954928612,0.0001559458410325159,13.083510691681811,0.0,2.9017983186582756,-0.0007435802005885503,-0.07591694553072888,-0.0003176210215809675,-0.021384351315495632,-0.00043068799702667435
1766187560992,-0.0074481094612921595,0.00038866885580432004,13.083510691681811,0.0,2.901793210276685,-0.0013370073136866594,-0.07589315419422876,2.9792238002542264e-05,-0.021382478780354174,-0.00024349117381331138
1766198034752,-0.007475662044083729,-0.0005213958351383771,13.083510691681811,0.0,2.9017951972291773,-0.0009256506761119742,-0.07590176513414845,0.00016419958452327214,-0.021383602301439045,-0.00027434413610588886
1766211090880,-0.00748353738372273,-0.00040025941989648903,13.083510691681811,0.0,2.9018035277540584,-0.0004908576056192775,-0.07590928462581271,0.0001785695514289008,-0.021380231738184416,-0.00013622637723255442
1766217714528,-0.00748353738372273,-0.00035313922839033695,13.083510691681811,0.0,2.9018035277540584,-0.0003217298275993173,-0.07590928462581271,0.00018415924624674902,-0.021384351315495632,-0.0003120801079605853
1766228014624,-0.007492538755464889,0.00023720376759667208,13.083510691681811,0.0,2.9017976819032736,-0.0007985082640492255,-0.07591742407437153,6.39376446354703e-05,-0.021382853287382462,-0.00014608096485854157
1766239758912,-0.00749072034862927,-0.00039870605204855045,13.083510691681811,0.0,2.901812281029622,-9.420054998129769e-05,-0.07592585458726589,-0.00012581146680528212,-0.02138360230143905,-0.00016155498655651373
1766249667136,-0.0074830485604149,0.00011163845352712024,13.083510691681811,0.0,2.9018082298718837,-0.00040087888334568546,-0.07592782546702738,0.0003220121003090277,-0.02138135525926929,-4.351578403564477e-05
1766259449152,-0.007501368200309617,-0.00011497038672987755,13.083510691681811,0.0,2.9018138667484794,-0.0003844141484129343,-0.07592389762458063,3.378277591662565e-05,-0.02138397680846734,-0.00017460421627002394
1766269939872,-0.007501368200309617,-0.00020311771987140223,13.083510691681811,0.0,2.9018138667484794,-0.0003780096212393334,-0.07592389762458063,-7.83339722630124e-05,-0.021384351315495632,-0.00012576651868031802
1766280655040,-0.007501869400741613,9.541122666842311e-05,13.083510691681811,0.0,2.9018180664506934,-0.0004387939781770841,-0.0759026202021324,0.00041177335585649866,-0.02138135525926929,-4.401554770994999e-07
1766287776480,-0.007493893976390949,0.0006723923268938749,13.083510691681811,0.0,2.9018195793919284,-0.0008193257072479881,-0.07592018426561555,-0.00021106383176754966,-0.02138210427332588,-2.1656130636195245e-05
1766297758784,-0.007508793856496837,-0.00023647486928153057,13.083510691681811,0.0,2.901821603285812,-0.00045781698736633636,-0.07592019266325772,-5.876307763099166e-05,-0.02138360230143905,-7.158187167227804e-05
1766309715264,-0.007511749165080156,-0.0014377942334655557,13.083510691681811,0.0,2.9018262725061232,-0.0008758372384982837,-0.07590299318161961,0.0005275301487536796,-0.021381729766297587,1.4821740242117012e-05
1766320734144,-0.007511749165080156,-0.0019050888813001248,13.083510691681811,0.0,2.9018262725061232,-0.0010384406492683262,-0.07590299318161961,0.0007555891436549303,-0.021377984696014662,0.00020276648032350528
1766329425440,-0.0075043154286783004,-0.001106011101820792,13.083510691681811,0.0,2.9018270412342995,-0.0006825896071246259,-0.07590764119286098,0.00010644760170270187,-0.02137910821709954,0.0001487646880749572
1766339913568,-0.007523517529553545,-0.0008685706122514181,13.083510691681811,0.0,2.9018307184516012,-0.001108174342282294,-0.07590460533293017,-7.751020697923004e-07,-0.021381729766297583,2.73845456762464e-05
1766349924192,-0.007526829167734419,-0.0002707926031400794,13.083510691681811,0.0,2.901828238740206,-0.0008542564143576604,-0.07591318038037458,-0.0007016883008992285,-0.021382853287382462,-2.2232154987064415e-05
1766359685184,-0.007526822159718714,0.0005480187594253459,13.083510691681811,0.0,2.9018151094917615,-0.0020123472293166926,-0.07589792226993002,-1.4573900759356194e-05,-0.02137910821709954,0.00018490790787085146
1766370040064,-0.007519888177754716,0.0001443133883401401,13.083510691681811,0.0,2.901809607818836,-0.001027330696639926,-0.07588808486579714,0.0005500808809935407,-0.021380231738184416,0.0001571508631070943
1766379575744,-0.007519888177754716,-1.2721755547948298e-05,13.083510691681811,0.0,2.901809607818836,-0.0006441745039808126,-0.07588808486579714,0.0007697228556873788,-0.021384351315495632,5.521224266866664e-06
1766390086944,-0.007524957724304436,0.00028072506361500655,13.083510691681811,0.0,2.901807293011299,-0.0006727402503484188,-0.0758651568466825,0.0010149675554121014,-0.021384351315495632,5.307886237624295e-05
1766400843904,-0.007506397255373331,0.00073361319721598,13.083510691681811,0.0,2.9018044239102703,0.0003016818772206873,-0.07585464059897927,0.0005841131414730083,-0.02138135525926929,0.0002033680968118183
1766410244000,-0.007503098631734688,-0.00029816708128160976,13.083510691681811,0.0,2.9018064719849255,-0.0010274288359032684,-0.07587146414550734,0.0003579615018885619,-0.021380980752241003,0.00024736902391276196
1766417981696,-0.007503098631734688,-0.0006995136476134307,13.083510691681811,0.0,2.9018064719849255,-0.0015444323414983635,-0.07587146414550734,0.0002699920127356045,-0.02138247878035417,0.00010694534327424447
1766427911840,-0.007524551220053691,-0.0002903133787780398,13.083510691681811,0.0,2.9018067798095304,-0.000597201980770051,-0.07586822351429173,0.00023608887979172718,-0.021383227794410754,8.760739777119358e-05
1766438028800,-0.007527397490077576,-0.00010253713292004347,13.083510691681811,0.0,2.9018087516525304,-0.0007736309718591965,-0.07586152010421988,-0.0002844020347639299,-0.02138360230143905,0.00010623765951066085
1766447857056,-0.007530890869224065,-0.0006718280654084408,13.083510691681811,0.0,2.9018045117643485,-0.0007422284484914132,-0.07586828500341884,0.00015837301277572843,-0.021382478780354174,0.00020191433072091106
1766458542464,-0.0075372815914605635,-0.0001619517389898548,13.083510691681811,0.0,2.9018137210615818,-0.0003896479629620994,-0.0758608320497878,-0.0006586800953328452,-0.021383227794410757,0.0001403638788618191
1766469393920,-0.0075372815914605635,3.638226402090371e-05,13.083510691681811,0.0,2.9018137210615818,-0.000252499608635295,-0.0758608320497878,-0.0009765011142881751,-0.02138360230143905,0.00010394086776863712
1766478066560,-0.007532065680847526,0.0003427136579642549,13.083510691681811,0.0,2.901809765861089,-0.00035038655328816973,-0.07585138620813794,-0.0002369683119925146,-0.02138135525926929,0.00020725763882685548
1766488728896,-0.007543762182694638,0.0001478211742525343,13.083510691681811,0.0,2.901804586901789,-0.0012521747637228907,-0.07584331957625842,-0.00021889652580232713,-0.021383602301439045,7.241681645107947e-05
1766499714688,-0.007537078287943166,0.0007633167502266562,13.083510691681811,0.0,2.901804829043148,-0.0009420102291661646,-0.0758463530280179,9.832716763555848e-05,-0.021384351315495632,0.00010447301243459844
1766511173760,-0.007545432229572857,-0.00037849713071841227,13.083510691681811,0.0,2.9018046163179463,-0.0008620015530108064,-0.0758419818201404,8.296251055074279e-06,-0.021385100329552216,6.985670981236194e-05
1766518041792,-0.007545432229572857,-0.0008226450661437784,13.083510691681811,0.0,2.9018046163179463,-0.0008308794157487278,-0.0758419818201404,-2.6724382684794535e-05,-0.021381355259269295,0.0002490751464081835
1766530083552,-0.007551444083381317,-0.0005277760119116952,13.083510691681811,0.0,2.9018007223006017,-0.00048671873449735207,-0.07583698258108039,2.6486072601753606e-05,-0.02138135525926929,0.0002207237992107731
1766539879872,-0.00755685268574156,-0.00011951979555854336,13.083510691681811,0.0,2.9018076739353478,-0.0007377965005965269,-0.07582207214042817,0.00013350965211117943,-0.021380231738184416,0.00027525407115119307
1766550387104,-0.007555831634838084,-8.006787041951835e-05,13.083510691681811,0.0,2.9018008376870816,-0.0013275886992258454,-0.07584495897273245,-0.0005034853828768852,-0.021382853287382465,0.00014540728536851532
1766557591168,-0.00757278490854343,-0.00047060044065359407,13.083510691681811,0.0,2.901800183952815,-0.0012019708195477952,-0.07584397124217371,-0.0008736921252210338,-0.02138360230143905,0.00012391700735503325
1766573438752,-0.00757278490854343,-0.0006225115687984544,13.083510691681811,0.0,2.901800183952815,-0.0011531074077058068,-0.07584397124217371,-0.0010176968207644176,-0.021380980752241,0.0002212010653408231
1766578177664,-0.007562512686444141,0.00016876410480128263,13.083510691681811,0.0,2.9017979429862106,-0.0007154469771458817,-0.07584724482214937,0.0001666268831620214,-0.021379108217099537,0.0003482737870011668
1766587821312,-0.007543457773300488,0.00015170116536150071,13.083510691681811,0.0,2.901800810609965,-0.0010516971692262973,-0.07584315336204281,0.00017826222655254468,-0.021379857231156124,0.0003295155199297636
1766600266848,-0.007564922977737245,-0.0007497821506653815,13.083510691681811,0.0,2.901791129722801,-0.00120749132756466,-0.07583587902557445,0.0009498228815103369,-0.02138135525926929,0.00029626339484528294
1766607660320,-0.007559376477037368,-0.00017001982521142766,13.083510691681811,0.0,2.901793917653325,-0.001022901532979406,-0.07583521359418985,0.00038438627874787934,-0.021384351315495632,0.0002288374977145977
1766620377824,-0.007559376477037368,5.549875026310791e-05,13.083510691681811,0.0,2.901793917653325,-0.0009510989585547768,-0.07583521359418985,0.00016444018777636804,-0.02138247878035417,0.0003323919826031227
1766627940064,-0.0075682966815615186,-0.0001539080864629885,13.083510691681811,0.0,2.901788112771665,-0.0016010168548014504,-0.07584508317656558,-0.0004490101419478664,-0.02138360230143905,0.00028392733528460076
1766637668672,-0.007552517844420846,0.0004704428425426939,13.083510691681811,0.0,2.901784554740817,-0.0013902334197527337,-0.07583660540080825,-0.00012643588087606322,-0.021383602301439045,0.0003173586749295113
1766648500096,-0.007557969937309144,0.00011448585203107181,13.083510691681811,0.0,2.901779147608839,-0.001509177530290371,-0.07585062716583979,-0.000748323060932697,-0.02138622385063709,0.0002157169511911703
1766660402208,-0.007552311118992937,3.989183380055504e-06,13.083510691681811,0.0,2.9017816252707855,-0.0005576922492787264,-0.07584266160012472,-0.0006117813568987396,-0.021385100329552216,0.0002706915839624311
1766671707456,-0.007552311118992937,-3.899231130286884e-05,13.083510691681811,0.0,2.9017816252707855,-0.00018757919477709064,-0.07584266160012472,-0.0005586687463777075,-0.02138659835766539,0.0002024025680222401
1766677747648,-0.00757131137539447,-0.0002491702541780778,13.083510691681811,0.0,2.901790444102454,-0.00045541678869557856,-0.07583998699288115,0.00026881382573384243,-0.02138135525926929,0.00044427231143932437
1766689047808,-0.0075770062914943806,0.00024098752489523518,13.083510691681811,0.0,2.9017947578779246,-0.0014233044206212436,-0.07583940417772153,0.0005633813859883338,-0.02137761018898637,0.0005534553736378298
1766699920224,-0.00757571619794975,0.0005250333753246655,13.083510691681811,0.0,2.901799653665021,-0.0007917620203729296,-0.07582087181290299,1.4477522098373964e-05,-0.021378359203042954,0.0004773068303167759
1766710944960,-0.007582716249212221,0.000549773406531316,13.083510691681811,0.0,2.901804577632014,-0.00015467831059762105,-0.0758055533802131,0.0006989722124715148,-0.021377984696014662,0.0004564255026685208
1766719802816,-0.007582716249212221,0.0005593968959337203,13.083510691681811,0.0,2.901804577632014,9.313739659594856e-05,-0.0758055533802131,0.000965230057653099,-0.021378359203042957,0.0004439687516519836
1766730839136,-0.00758088630830275,0.0004107604452878057,13.083510691681811,0.0,2.901794560761255,-0.0008662074788778247,-0.07579605583763696,0.00022144807910813867,-0.021376861174929783,0.0004928265624902014
1766740042592,-0.007562857191872752,0.0004487066561541681,13.083510691681811,0.0,2.9018021670942424,-0.00045647958327223675,-0.07579664278886392,-0.00017347394863541604,-0.021376861174929783,0.00047026470841270363
1766747760224,-0.0075373540393189244,0.001172815804123215,13.083510691681811,0.0,2.901806680022338,-0.0005415411089662973,-0.07581427345932158,-0.00047560690599028025,-0.021379857231156124,0.000288158848686976
1766760164192,-0.007551529347103903,0.0010957774053201514,13.083510691681811,0.0,2.9018111486602822,-0.0007480150763139348,-0.07580892531111937,-9.706091470888142e-05,-0.021377235681958078,0.0004380494350886892
1766767808032,-0.007551529347103903,0.0010658106599968802,13.083510691681811,0.0,2.9018111486602822,-0.0008283302553872827,-0.07580892531111937,5.0187619659979117e-05,-0.021378359203042954,0.0003909690611449954
1766778012384,-0.007568155461113679,0.0003531946036761783,13.083510691681811,0.0,2.901796684859224,-0.0016583009869516477,-0.07579614274002183,0.0004491386361858094,-0.021377610188986367,0.00040225729705961686
1766790763200,-0.007551655689421045,0.001100723833723993,13.083510691681811,0.0,2.901791967059317,-0.002014426725238657,-0.07580075126975207,-0.00046260492806269866,-0.021377984696014665,0.000391316488473881
1766799945792,-0.007536935589016355,0.0004730646333686394,13.083510691681811,0.0,2.9017843278960855,-0.0009912068776196422,-0.07579645422664293,0.0002707373031045525,-0.021379482724127832,0.0003595473994495193
1766814093312,-0.007521725138812066,0.00012376227389783312,13.083510691681811,0.0,2.9017924440289176,-0.0007361628184000455,-0.0757818059859769,0.00041306382611237623,-0.021378359203042954,0.0004446179144065037
1766824972896,-0.007521725138812066,-1.2110940105974754e-05,13.083510691681811,0.0,2.9017924440289176,-0.0006369546249849066,-0.0757818059859769,0.00046842664172105854,-0.021375363146816616,0.000571738192333471
1766830191872,-0.007527664991881015,-0.0003088346734507896,13.083510691681811,0.0,2.901799590594556,-0.0002065916707873443,-0.07578110550522546,-9.408331779599201e-05,-0.021376112160873203,0.00059349909876257
1766840467840,-0.007540390934795732,0.0003496987408683991,13.083510691681811,0.0,2.901795292446313,-0.001351879561346653,-0.07578484186564237,-0.0004740320227791417,-0.021377984696014662,0.0004813554575297787
1766849079328,-0.007525486720192293,0.0004317178829354383,13.083510691681811,0.0,2.9017955846479615,-0.0004773781528798921,-0.07578637778876109,-0.0012204247514848207,-0.021379482724127832,0.0004555111824405562
1766861757856,-0.0075264189140792585,0.00032334818383186005,13.083510691681811,0.0,2.9018049310709806,-0.00019868708803595024,-0.07578223239042543,-0.0005522858209034438,-0.02137910821709954,0.000479300064771563
1766868644160,-0.0075264189140792585,0.00028119404739792225,13.083510691681811,0.0,2.9018049310709806,-9.028057526043375e-05,-0.07578223239042543,-0.0002923901132515002,-0.021379108217099537,0.0005127862538914645
1766882013088,-0.007522156540261068,0.0002499848523078717,13.083510691681811,0.0,2.9017992072661754,-0.0008638561291197005,-0.07577293509434835,0.0002522137546512184,-0.021379857231156124,0.0005370085228461924
1766887727584,-0.007506137520518737,0.00022138569144654292,13.083510691681811,0.0,2.901810478928379,-0.0004632670477270939,-0.07577414200450622,0.00015948516256485818,-0.021380606245212708,0.0005769370431721905
1766898761472,-0.0075091339589166434,-0.0005193340758123002,13.083510691681811,0.0,2.901799394079764,-0.0015310107893332476,-0.07577592950865245,-0.00033019739750716424,-0.02137948272412783,0.0006282873021165906
1766907729760,-0.0075163222178932405,0.00020122335942517131,13.083510691681811,0.0,2.9018002668188365,-0.0007754845519805457,-0.07578255611178326,0.00013110154809249067,-0.021376861174929783,0.0006984598250838381
1766918253440,-0.0075163222178932405,0.0004815090544556353,13.083510691681811,0.0,2.9018002668188365,-0.0004815965339069229,-0.07578255611178326,0.0003105397014738488,-0.021379857231156124,0.0006055224567265469
1766929479520,-0.007524558732542739,6.408235961040864e-05,13.083510691681811,0.0,2.9018060760516358,-0.00023086969421154136,-0.07578783833069044,-0.0003876677096159287,-0.021379108217099537,0.000675075068157705
1766940941440,-0.007544959876408982,-0.00028865853322977616,13.083510691681811,0.0,2.901810572238315,-3.989867164916363e-06,-0.0758039245223148,-0.00012190419459543017,-0.0213761121608732,0.0007792567906017633
1766948400608,-0.007554006611782523,-0.0005421300964745431,13.083510691681811,0.0,2.9018108789489703,4.830026474270384e-05,-0.07581263092843035,-0.0004616977445593368,-0.021377235681958075,0.0007370223420817431
1766958806272,-0.007566513564899604,5.844865194089277e-05,13.083510691681811,0.0,2.9018092555020236,-0.000601075658333336,-0.07582343842040878,-0.00022266449481114233,-0.02137648666790149,0.0006704211600180364
1766968129984,-0.007566513564899604,0.0002920644939100614,13.083510691681811,0.0,2.9018092555020236,-0.0008536728463360277,-0.07582343842040878,-0.0001296842585875261,-0.021379482724127832,0.0005244658289640757
1766978445248,-0.00756174923354203,-0.0004002354676326478,13.083510691681811,0.0,2.9018124360894593,-0.0002043878465101189,-0.07581230384647462,0.00021351331769565497,-0.021379482724127832,0.000512082230280341
1766991898592,-0.007565520101116635,-0.0017529075506305851,13.083510691681811,0.0,2.901810539112812,-0.0007849382668932038,-0.07581037763916958,0.0009430038809092021,-0.02137761018898637,0.0005993416392706907
1766998250656,-0.00755839069512036,-0.0005311117659646514,13.083510691681811,0.0,2.901805205568928,-0.0015592727930524382,-0.07580093156613858,0.00016565668945599205,-0.021380606245212708,0.0004566321405615328
1767007319648,-0.007575524096343974,-0.0003804734650835471,13.083510691681811,0.0,2.9018048432738035,-0.0011367464989294,-0.0757954228366246,0.00024370729904425427,-0.021380606245212708,0.0005370652052072403
1767018011680,-0.007575524096343974,-0.00032187749646828514,13.083510691681811,0.0,2.9018048432738035,-0.0009723903071458929,-0.0757954228366246,0.0002740677787037109,-0.021380980752241,0.000559435057001358
1767028357024,-0.007591979673961307,-0.0002764847764232816,13.083510691681811,0.0,2.9017871761537832,-0.0016840445292204047,-0.07581109036740766,5.230997658911149e-05,-0.0213761121608732,0.0008046091609154631
1767040172032,-0.007597001750302316,-0.0004909191482221333,13.083510691681811,0.0,2.9017832414586797,-0.0012118050236990972,-0.07581113914654132,-0.00017044406197394985,-0.021377984696014662,0.0006769201792997044
1767049249344,-0.007607931590420476,-4.3927203399197714e-05,13.083510691681811,0.0,2.9017834174012953,-0.0008367619635404486,-0.07581563202248866,0.00040715097291695176,-0.02137948272412783,0.0006881773282051416
1767059341824,-0.007599337482169009,0.0002558671874914207,13.083510691681811,0.0,2.9017770028860763,-0.0013568338809069372,-0.07581772745884258,0.00028939384634351414,-0.021378359203042957,0.0007521653707068108
1767067948800,-0.007599337482169009,0.00037248256762321936,13.083510691681811,0.0,2.9017770028860763,-0.0015591338110670528,-0.07581772745884258,0.00024358814585060515,-0.021379482724127832,0.0006483804801383752
1767079133888,-0.007600442451348363,0.00037881104836792767,13.083510691681811,0.0,2.901773648979553,-0.0010247788132297353,-0.07581701709799638,0.0004571826607535866,-0.021378359203042954,0.0006634832767416357
1767087931520,-0.007616637538659653,-0.0004238899715771139,13.083510691681811,0.0,2.901776589466407,-0.001035078163073748,-0.07580799618034335,0.000426946614321215,-0.02137948272412783,0.000619010567131914
1767103082624,-0.0076106355968621675,-0.000808519477209056,13.083510691681811,0.0,2.901768663784358,-0.0010784676970059216,-0.07580398291309882,0.0010692340032813841,-0.021379857231156124,0.0005661845945752614
1767108095552,-0.007611969166179518,-5.2049804858700604e-05,13.083510691681811,0.0,2.9017704225130583,-0.00016316958890565851,-0.0757906561620584,0.00025262256307718393,-0.021378359203042954,0.0006493990300762291
1767118047360,-0.007611969166179518,0.00024220519483373823,13.083510691681811,0.0,2.9017704225130583,0.0001928672151617402,-0.0757906561620584,-6.502665389610252e-05,-0.021380980752241,0.0005864277184969124
1767128012416,-0.007608812881550884,0.00030316821830808323,13.083510691681811,0.0,2.901771416442155,-0.00020596391884265174,-0.07579031252382983,0.00011379090695524746,-0.021378359203042957,0.000600970955709689
1767141330752,-0.007594883079816809,-4.839779250198819e-05,13.083510691681811,0.0,2.9017772769850074,-0.0003644649579718641,-0.07578862507565552,8.604175009160344e-05,-0.021377235681958075,0.000679544285747128
1767165066368,-0.007592224188266158,-0.00044112444617888197,13.083510691681811,0.0,2.9017756430297985,-0.0005688720835780825,-0.07578150917606628,0.00023878305204229038,-0.021377984696014662,0.0006940856914550436
1767166046080,-0.007588799792388013,0.0004411753897822446,13.083510691681811,0.0,2.9017793074743623,-0.00028360243063060343,-0.07577788781520801,-2.6593847264371015e-05,-0.021378359203042954,0.0007021079827585343
1767173182432,-0.007588799792388013,0.0007843763764823933,13.083510691681811,0.0,2.9017793074743623,-0.0001726369488558823,-0.07577788781520801,-0.00012982135562070827,-0.021379482724127832,0.000682356751469043
1767177254592,-0.007578540299555885,0.0005906676048257776,13.083510691681811,0.0,2.9017798267013575,0.00010425226652703145,-0.07578285306612075,-0.00022558172719277394,-0.021382853287382465,0.0004347743158096823
1767188186656,-0.007584665531367959,0.0002336241757662517,13.083510691681811,0.0,2.9017802032309317,-0.0006306044338829207,-0.07578629685524953,-0.00021897155773529018,-0.021380606245212708,0.0005335779763787335
1767197895232,-0.007585194479880414,0.00022034945059208312,13.083510691681811,0.0,2.9017727463714458,-0.0006664930986365364,-0.07577235664196229,8.160648006705366e-05,-0.021390717934976607,2.2946454204779677e-05
1767210722400,-0.0075638928533730025,-0.0002971444637436852,13.083510691681811,0.0,2.901767453249387,-0.0013521667516321562,-0.07577750602672399,0.0003085009017015463,-0.021390717934976603,3.085167366747253e-05
1767219988896,-0.0075638928533730025,-0.0004984415906074637,13.083510691681811,0.0,2.901767453249387,-0.0016188831950349181,-0.07577750602672399,0.0003967593215808722,-0.02139858258257074,-0.00022477496277942526
1767239209760,-0.007555501265945407,-2.7257144795170198e-05,13.083510691681811,0.0,2.901765473585492,-0.0008455262712914593,-0.07579090554576672,0.000374565696372934,-0.021396710047429282,-3.4948492887865875e-05
1767240993344,-0.0075444187496661146,0.0004214611940787103,13.083510691681811,0.0,2.9017700152100154,-0.0009548305659716507,-0.0757968210945268,0.00028360937906514493,-0.021392964977146357,0.00026687164198937216
1767251294656,-0.007553043420214457,-0.0001262688796158839,13.083510691681811,0.0,2.901762175363055,-0.0012348165923107884,-0.0758000275716032,-0.00022245619546947662,-0.02140120413176879,-0.00017243159961110514
1767260167520,-0.007539960913790059,-4.926824185310544e-05,13.083510691681811,0.0,2.901765886831049,-0.0003444818939087954,-0.07579873398795288,8.103489750001385e-05,-0.021421802018324873,-0.0008775689885565669
1767270045440,-0.007539960913790059,-1.9316184990328655e-05,13.083510691681811,0.0,2.901765886831049,1.8445299787029094e-06,-0.07579873398795288,0.00019908823755121252,-0.021409817793419515,-0.0001674282969177509
1767279048832,-0.007528616322240688,0.0006111011407767176,13.083510691681811,0.0,2.9017737650622033,-0.00024909679071800277,-0.07579727849730694,-9.921526753992165e-05,-0.021386598357665387,0.0009775685825124728
1767287574176,-0.007518463069388517,0.0010172539764294168,13.083510691681811,0.0,2.901775479869767,-0.0004747195750905708,-0.07580176603888919,6.651695452425965e-05,-0.021397084554457574,0.00031903238612230505
1767297646208,-0.007504757769706633,0.0008622692043855241,13.083510691681811,0.0,2.901778078393968,-0.0008284586701914715,-0.07579970137128637,0.00021490932372657538,-0.021386598357665387,0.0007357300746821902
1767308717120,-0.007504924390117926,0.0005820833913358588,13.083510691681811,0.0,2.9017763197805655,-0.0013254420704998237,-0.07580140196743426,0.00012094713672176617,-0.021398582582570744,-1.1619912587429085e-05
1767317915456,-0.007504924390117926,0.00047309544463259635,13.083510691681811,0.0,2.9017763197805655,-0.001518760924711802,-0.07580140196743426,8.439729960497085e-05,-0.021407570751249758,-0.0004340776925068113
1767327992544,-0.0075004863979715106,0.0007490751071330166,13.083510691681811,0.0,2.901775392085798,-0.0008224664847532231,-0.07580165519106664,0.00015537971475116245,-0.021392590470118066,0.0003883528964569494
1767340396832,-0.007497339073089045,0.0008564102902674355,13.083510691681811,0.0,2.9017750749767592,-0.0011260178594443906,-0.07579551325678931,0.0005513623246422924,-0.02139483751228782,6.033750472783239e-05
1767349236672,-0.0074981452293426745,0.0007779390048193954,13.083510691681811,0.0,2.9017755750905696,-0.0009728755510905731,-0.07580007054477868,0.00037700884896342795,-0.0214008296247405,-0.0001436170265113337
1767357273248,-0.007526276748663251,0.00020414329386193533,13.083510691681811,0.0,2.9017805441531284,-0.00045485306910299705,-0.07580481496644154,-0.00040498810221338175,-0.021397459061485866,9.975774959640319e-05
1767369422752,-0.007526276748663251,-1.9054360879088586e-05,13.083510691681811,0.0,2.9017805441531284,-0.00025335033759979274,-0.07580481496644154,-0.000709172818453331,-0.02139483751228782,0.00021061945314563012
1767377897568,-0.007531684586546538,0.0004088657597650906,13.083510691681811,0.0,2.901778969944621,8.075227373334293e-05,-0.07581934314576527,-0.00021191117632747553,-0.021394088498231233,0.0002614394528597478
1767389458656,-0.0075291632011828735,0.0005400053270464129,13.083510691681811,0.0,2.9017752265303587,-0.00047719536346428387,-0.07583756478089067,0.00033813825341012294,-0.02139034342794831,0.0004620109817547158
1767397232512,-0.007516153168845646,-1.3116733329439166e-05,13.083510691681811,0.0,2.9017705070239566,-0.0010332426180734342,-0.07583888441889092,-0.00043736645792305214,-0.02140607272313659,-0.0003598106447004549
1767410516768,-0.007516153168845646,-0.00022827265782286217,13.083510691681811,0.0,2.9017705070239566,-0.0012495363978698268,-0.07583888441889092,-0.000739025793301061,-0.021396710047429282,0.00017933866446093758
1767420819776,-0.007503186749082432,0.00018533202722262202,13.083510691681811,0.0,2.901769658999186,-0.001264447068946808,-0.07583693535114464,0.0001599337731076215,-0.0214008296247405,-1.6463817212642563e-05
1767430332608,-0.007485736778582849,-0.0002238379819477239,13.083510691681811,0.0,2.9017690500210547,-0.0013209815172396102,-0.07584467261079515,-9.25350754577303e-05,-0.02140307666691025,-6.299556116083773e-05
1767440064256,-0.007483211840362675,2.6061429820438932e-05,13.083510691681811,0.0,2.9017688222546973,-0.0009890924649937718,-0.0758440992686489,-0.0007922689009173921,-0.02138622385063709,0.0007216095322192038
1767447935552,-0.00747548784026611,-0.00019177208272052124,13.083510691681811,0.0,2.9017685533298057,-0.00036432451327323865,-0.07584393453477299,-0.0002833004101595166,-0.02139633554040099,0.00013906088958708576
1767459879296,-0.0074732810246933845,0.00026597373760520827,13.083510691681811,0.0,2.901762595759329,-0.0010447316922413345,-0.07584503057535678,0.0003317229966230157,-0.021399331596627328,4.953394900208627e-05
1767467798624,-0.0074732810246933845,0.0004440297802231069,13.083510691681811,0.0,2.901762595759329,-0.001309399558721595,-0.07584503057535678,0.0005709575872330403,-0.02140607272313659,-0.0002852201319919156
1767477637216,-0.007472830051923866,0.00022044288400378185,13.083510691681811,0.0,2.901760656933766,-0.00040103461908125684,-0.07585001858035781,0.00022261006588074342,-0.021407196244221466,-0.00026617111566678187
1767489628896,-0.007479357114867077,0.00017526659242675076,13.083510691681811,0.0,2.901760156285102,-0.0009458676600637321,-0.07584626541528981,0.0002745445068458133,-0.02139858258257074,0.0001255270172755517
1767497836000,-0.007483770808211732,5.0022239129852004e-05,13.083510691681811,0.0,2.90176628185095,-0.00034390884188151304,-0.07585335534306063,-0.00015061231817918496,-0.02138659835766539,0.0006893759609901511
1767507767360,-0.007490446244080474,9.099485778005955e-05,13.083510691681811,0.0,2.901767438040147,-0.0006496123977650758,-0.07585650255861734,-0.0003647093973704649,-0.021380606245212708,0.0009233075794667544
1767517235712,-0.007490446244080474,0.00010693257257417145,13.083510691681811,0.0,2.901767438040147,-0.0007685263516622692,-0.07585650255861734,-0.00044798984901876885,-0.021409817793419515,-0.0005470676161335184
1767527856384,-0.007490162148137634,-0.0002300966178726787,13.083510691681811,0.0,2.9017681059030362,-0.0005502766719834877,-0.0758671312230608,-0.0010588969082572274,-0.021406447230164882,-0.00038801728247728
1767542367488,-0.007484216786136726,0.00011620340977200838,13.083510691681811,0.0,2.90177388115416,-0.0006128990931214986,-0.07587126144048412,-0.000329201815829073,-0.021410192300447807,-0.0005473692458404636
1767551762976,-0.007484183124800445,-0.00022774699014384078,13.083510691681811,0.0,2.9017643140226976,-0.0009151404886134231,-0.07586962737441301,0.0006573454465192618,-0.021407945258278053,-0.00042332656467918326
1767559601184,-0.007481382993939101,0.0003469537504564508,13.083510691681811,0.0,2.9017669737582152,-0.0005998708329973007,-0.07585487982150427,0.00030297114804360637,-0.021391092442004895,0.0004527749056065
1767567571072,-0.007481382993939101,0.0005705034477274094,13.083510691681811,0.0,2.9017669737582152,-0.00047723581429506834,-0.07585487982150427,0.00016512502823159216,-0.021397833568514157,0.0001742518354312333
1767579472448,-0.007482196861887366,-0.00037216959966251354,13.083510691681811,0.0,2.9017653070318867,-0.0006371856180667024,-0.07586546066472788,-0.0005263673832509176,-0.021400455117712207,0.000159194752529007
1767587621472,-0.007477247949614909,8.61695365493859e-05,13.083510691681811,0.0,2.9017641489087063,-0.0008101415444177612,-0.07586950178355921,-0.00028539868608181486,-0.021397084554457574,0.0002809460825320286
1767599330976,-0.007473474090948527,0.00022826532297058724,13.083510691681811,0.0,2.9017612644297066,-0.0006965864827950749,-0.07587193620487005,-0.00027508908751190176,-0.021406447230164882,-0.00021641126582644754
1767608579840,-0.007457282636730891,8.880561202621451e-05,13.083510691681811,0.0,2.901760383358145,-0.0007868350490543954,-0.07587627441450204,-0.00018483363401105698,-0.0213959610333727,0.0002418131782037732
1767617680800,-0.007457282636730891,3.455794195962386e-05,13.083510691681811,0.0,2.901760383358145,-0.0008219403451522145,-0.07587627441450204,-0.00014972565888283303,-0.02139034342794831,0.00047489630705166343
1767629568576,-0.007460851867090904,1.0822721976391671e-05,13.083510691681811,0.0,2.90175250831714,-0.001144435045875026,-0.0758682871403278,-0.00026814771669031863,-0.0214008296247405,-6.304790619836152e-05
1767639424000,-0.007456274228007047,-0.0002781651424256887,13.083510691681811,0.0,2.9017504971316677,-0.0006356270939165042,-0.07585853705445798,-0.0004002260578268486,-0.021397084554457574,-1.1873225996092174e-05
1767649575744,-0.007464286850857316,0.00019346887170967436,13.083510691681811,0.0,2.9017385204664503,-0.0010161478477280913,-0.07584551530661501,-0.00013339130042653267,-0.021391466949033187,0.00021711375794520688
1767657806848,-0.0074668499537594146,-0.0003223659775935989,13.083510691681811,0.0,2.9017364187706596,-0.0009680709775477896,-0.07584734848830899,7.2759603486610415e-06,-0.021393713991202944,0.00018850642419207176
1767669266816,-0.0074668499537594146,-0.0005230177538260565,13.083510691681811,0.0,2.9017364187706596,-0.0009493698188137406,-0.07584734848830899,6.199334861822053e-05,-0.021398582582570744,-2.1332625018030575e-05
1767677245760,-0.007468442589820744,0.0004116308570714481,13.083510691681811,0.0,2.901729710419111,-0.0010296745811107248,-0.0758443831321187,-0.00016795815719348206,-0.021397084554457574,1.7498740321344112e-05
1767687891968,-0.0074767828429096305,-8.625578676148388e-05,13.083510691681811,0.0,2.901732342095668,-0.0013150878647478427,-0.07584343744014845,0.00015965063736460798,-0.021397459061485866,-2.758987780058211e-06
1767699100896,-0.007470957653094614,0.00027859998091422743,13.083510691681811,0.0,2.90173275193739,-0.0007448487296871034,-0.07583605354835815,-4.0187799611650764e-05,-0.02139521201931611,6.472003584927325e-05
1767708115904,-0.007454281176010137,-6.169001174937402e-05,13.083510691681811,0.0,2.9017254826117385,-0.000794704114491916,-0.07583631662135651,-0.0003483705178587779,-0.02138996892092002,0.00033952190816456966
1767717785056,-0.007454281176010137,-0.00019405755448966298,13.083510691681811,0.0,2.9017254826117385,-0.0008140970879006531,-0.07583631662135651,-0.00046824882756188436,-0.021401578638797082,-0.00014238899393027605
1767730673344,-0.007460580573926925,-0.00020511139485096367,13.083510691681811,0.0,2.9017341818978877,-0.00022813521936623494,-0.07583592548742644,-2.342405804695442e-06,-0.02137498863978832,0.0010928606763195227
1767737896000,-0.0074827044808995725,0.00035150012802448135,13.083510691681811,0.0,2.9017344557232754,-0.0003444779547756508,-0.07583094733118527,0.00010910057725642439,-0.02138734737172197,0.00042860074436993744
1767747287168,-0.00748900674873149,0.00017228399752736728,13.083510691681811,0.0,2.901729782612161,-0.0003737370992760175,-0.07581300938342926,0.0005188619230967707,-0.021379482724127832,0.0008297420135139405
1767757148736,-0.007488336515561172,4.437263040889958e-06,13.083510691681811,0.0,2.9017248720058446,-0.000500335181018666,-0.07583199239341695,0.0007007695147561773,-0.021392590470118066,3.646193021431961e-05
1767772309280,-0.007488336515561172,-6.085252002634268e-05,13.083510691681811,0.0,2.9017248720058446,-0.0005495798762997126,-0.07583199239341695,0.0007715287537372744,-0.02140270215988196,-0.0004292507028718894
1767781363744,-0.007495721024747968,-6.322670891335556e-05,13.083510691681811,0.0,2.901719957883412,-0.0009658928788214308,-0.07583272102143931,0.00022382143657950526,-0.021397833568514157,-0.00016869766122044064
1767790254752,-0.007472931216621027,0.0002023359747568779,13.083510691681811,0.0,2.901714952655353,-0.0012829446114265774,-0.07583970349784748,-0.000739026313805735,-0.021403451173938545,-0.0003722828785047695
1767798005024,-0.007475496350350064,-4.1293211220260154e-05,13.083510691681811,0.0,2.901710721755454,-0.0008584192687379406,-0.0758328758732565,-0.00038592048261986496,-0.021398957089599033,-0.00016384805350052752
1767807818720,-0.007493912146449312,0.0001788847455684506,13.083510691681811,0.0,2.901715500897582,-0.0008709602604537862,-0.07584460428333507,-0.0006193240733591548,-0.02140494920205171,-0.00040305345450848456
1767817754912,-0.007493912146449312,0.00026453056452884036,13.083510691681811,0.0,2.901715500897582,-0.0008758385122176981,-0.07584460428333507,-0.0007101144593211117,-0.021398582582570744,-1.3055995263179667e-05
1767827693088,-0.0074990748363211145,-9.849126770757e-05,13.083510691681811,0.0,2.901715811046241,-0.0005209611675541062,-0.075856018260069,-0.0002429975859396291,-0.021401578638797082,-0.00013973916926872848
1767840638720,-0.007490595966126187,-0.0003768704539407973,13.083510691681811,0.0,2.901725079320803,-0.0005892263994106215,-0.0758494792226238,-0.00038411790301759463,-0.021407570751249758,-0.0004779713494252355
1767849521696,-0.007488526322279285,-0.0005365234986564901,13.083510691681811,0.0,2.9017235405124904,-0.00045347253730467743,-0.07585482110228849,-0.00030236894727059206,-0.02139633554040099,0.00012965905796306053
1767859361088,-0.007472877948732394,0.00024815173888879894,13.083510691681811,0.0,2.9017268834426013,-0.0005089091215573843,-0.07586382201213272,-7.128916275332499e-05,-0.02140008061068391,-6.043799748518769e-05
1767870999200,-0.007472877948732394,0.0005533782670920547,13.083510691681811,0.0,2.9017268834426013,-0.0005304730952082341,-0.07586382201213272,1.859729853836451e-05,-0.02139858258257074,-3.148318568676868e-05
1767877699328,-0.007477895521510933,0.0006966810674855334,13.083510691681811,0.0,2.9017228489762847,-0.0007336640819923163,-0.07586709673936597,-0.0001455210226552228,-0.02138734737172197,0.0004165648144537167
1767888330496,-0.00748515485194883,0.0002816967224965086,13.083510691681811,0.0,2.90172550253926,-0.0005357565612614106,-0.07585908988652332,0.00039395793126505136,-0.021409817793419515,-0.0006411579525165556
1767897795424,-0.007494380974981787,6.231471570713018e-05,13.083510691681811,0.0,2.901732602864922,-0.0004784784042677075,-0.07585714356660761,0.00013964143865199393,-0.021394463005259524,0.00014464495075707594
1767910582368,-0.007497049394734314,-6.410250012381537e-05,13.083510691681811,0.0,2.9017355897898645,-0.00044827287829703134,-0.07586241679433173,-0.0005092324353675322,-0.021397084554457574,-0.00016500733036049054
1767917788832,-0.007497049394734314,-0.00011327684136326873,13.083510691681811,0.0,2.9017355897898645,-0.0004365233959845471,-0.07586241679433173,-0.0007616343340541154,-0.02138360230143905,0.00044608828422473715
1767927453760,-0.007517117412802182,-0.0003886984442949059,13.083510691681811,0.0,2.9017431091240646,0.0006002443125694433,-0.07585981648297735,-0.00047065654952713074,-0.021398582582570744,8.84065167719933e-05
1767937830144,-0.007532379898240589,-0.0004155116865968434,13.083510691681811,0.0,2.9017441794232646,-0.0005947919641902221,-0.0758538313656615,-0.00019045486414840987,-0.02140457469502342,-0.00015111888899401788
1767950419776,-0.007530477896747296,-0.0004105756159180188,13.083510691681811,0.0,2.901741484682782,-0.0004232704998344646,-0.07585775805028404,-4.066499167317084e-05,-0.021404200187995128,0.000167639960020083
1767964193088,-0.007529090935490697,-0.0007091255937491472,13.083510691681811,0.0,2.9017364311697142,-0.0007836658879135813,-0.07585834663619624,0.00013963533611726763,-0.02138510032955222,0.0008558313916698325
1767969731360,-0.007529090935490697,-0.0008252569164523117,13.083510691681811,0.0,2.9017364311697142,-0.0009238541184329684,-0.07585834663619624,0.00020976937431827332,-0.021412813849645856,-0.000660464951016254
1767983194784,-0.007535646171194885,-0.0005414434170925553,13.083510691681811,0.0,2.9017356738656908,-0.000619698251234419,-0.07585157873070504,0.0004987176105272705,-0.02139521201931611,7.726453266363228e-05
1767990658592,-0.007545471325973353,-0.00017783482887687743,13.083510691681811,0.0,2.9017380696424993,-0.00046863475559266157,-0.07585113523727129,1.1441552890635511e-05,-0.021388096385778557,0.00018594836263854025
1768000134112,-0.007544596130055684,-0.0002049120593197283,13.083510691681811,0.0,2.9017392468548415,-0.00017516046041498524,-0.07584586427177735,0.0003850157214511853,-0.021394837512287823,-0.0002834380291887521
1768007897792,-0.007534760248030106,-0.00018293062789811898,13.083510691681811,0.0,2.901735946041326,-0.0006757437573124389,-0.07583877917320199,0.0004072418548286369,-0.02140120413176879,-0.0004152140724756058
1768020007008,-0.007534760248030106,-0.00017438019113558698,13.083510691681811,0.0,2.901735946041326,-0.0008704629156059116,-0.07583877917320199,0.00041588747686636626,-0.021409068779362928,-0.0004637225959074584
1768027823488,-0.007520311892472217,8.111689674790594e-05,13.083510691681811,0.0,2.9017379508447063,-0.00046646880072668954,-0.07585763835936578,-0.0008296035096076546,-0.021398957089599033,1.0648200683156484e-06
1768038289152,-0.0075074810398588696,0.00014900531171062618,13.083510691681811,0.0,2.901740983385465,-0.0006218565164604671,-0.07584896230334047,0.00041089828494399904,-0.021374239625731737,0.0011028543497389916
1768050456512,-0.007511975633791042,-0.0001032620793991422,13.083510691681811,0.0,2.901747564853939,-0.0006029575182990911,-0.07585179162869204,0.00040428782314307576,-0.021390717934976603,0.00020137316514347826
1768060252544,-0.007488293045970158,-0.00015145755160277967,13.083510691681811,0.0,2.9017444066952756,-0.0006166465889737881,-0.07586061566233865,-1.4942914085612724e-05,-0.02136412793596784,0.001187140397734064
1768071439840,-0.007488293045970158,-0.00017020484468909138,13.083510691681811,0.0,2.9017444066952756,-0.0006219714256915081,-0.07586061566233865,-0.00017801718522064203,-0.021389594413891724,-0.00015371546000876588
1768078357824,-0.0074860416586093005,-0.00014729456999153633,13.083510691681811,0.0,2.9017458006517725,-0.0005566229195850445,-0.07586305380010115,0.00032480756144722203,-0.021395586526344403,-0.0002637048957959679
1768089543840,-0.0075060002738014725,-0.0001997055785753043,13.083510691681811,0.0,2.9017549431226515,-0.0004176435403429433,-0.0758670829068406,0.00014926582215664145,-0.021395586526344407,-0.00018790750853054476
1768100039744,-0.007498740809357017,8.951372099194549e-05,13.083510691681811,0.0,2.9017554230476894,-0.0004846447247971858,-0.07585966547428648,8.945637978247406e-05,-0.0213959610333727,-4.882604522933839e-05
1768109947968,-0.0074978540783741205,-0.0006660646175403119,13.083510691681811,0.0,2.9017596361107607,-0.00012233131833084746,-0.07585353420137524,3.8672066361910824e-05,-0.0213910924420049,0.00014448218969171
1768120232928,-0.0074978540783741205,-0.0009599729021667582,13.083510691681811,0.0,2.9017596361107607,1.8602991668749954e-05,-0.07585353420137524,1.8917754092499018e-05,-0.021389219906863433,0.0002572256516237268
1768132732512,-0.007478139791434644,-0.00046453188593778935,13.083510691681811,0.0,2.9017572489570562,-0.000198164892858626,-0.07585304856911446,7.602373157157762e-05,-0.02139371399120294,0.00012838098472618017
1768141196160,-0.007461216505236202,0.0006014785122983064,13.083510691681811,0.0,2.9017596743432112,-0.0007294777346133127,-0.07584232204379471,0.0001681475071109063,-0.021399331596627328,-0.00011223248064759527
1768151208224,-0.007466179819108121,0.00048154352437328814,13.083510691681811,0.0,2.901753677515337,-0.0011787986159860347,-0.07583219487490861,7.796000600508473e-05,-0.021391092442004895,0.00032501186376297846
1768159531904,-0.007473594584655486,-0.0001950148173266946,13.083510691681811,0.0,2.901750933294268,-0.0010221138323121316,-0.07583419663676534,-0.0002791451460757378,-0.021386598357665387,0.0005634291347993016
1768168692224,-0.007473594584655486,-0.00045818554565252507,13.083510691681811,0.0,2.901750933294268,-0.0009611658754316861,-0.07583419663676534,-0.0004180535256928964,-0.02140120413176879,-0.0002411630232650675
1768177911808,-0.007472687552139732,-0.00039453606795462914,13.083510691681811,0.0,2.9017480135079987,-0.0012678806084293792,-0.07582856094883049,0.000397544986116783,-0.021400455117712207,-7.377405084248253e-05
1768188343744,-0.007472397246454621,0.00031716712229874067,13.083510691681811,0.0,2.9017517496678638,-0.0007481535624265468,-0.07583375979262139,0.00019553139339405635,-0.02140719624422147,-0.0003717485248182222
1768201321248,-0.007467210173787918,-0.00017464275234950453,13.083510691681811,0.0,2.901748181048779,-0.00019605270363838521,-0.07584386920060668,-0.0006967141113160326,-0.021398582582570744,1.8111797286198877e-05
1768209221056,-0.007476600173306111,-1.7577750084797135e-05,13.083510691681811,0.0,2.901742855257537,-0.0009701939321165952,-0.07583931396762471,0.0002738127283593437,-0.02139034342794831,0.00035416422664733596
1768217865376,-0.007476600173306111,4.3518105945355935e-05,13.083510691681811,0.0,2.901742855257537,-0.001271322893757582,-0.07583931396762471,0.0006513326546015624,-0.02139333948417465,0.00017964722017066426
1768229177152,-0.0074847483354658914,-0.00034296674248110275,13.083510691681811,0.0,2.9017473982679314,-0.0013144002884989746,-0.075839486699188,0.00047611719985443294,-0.02139483751228782,9.74166292221997e-05
1768237951264,-0.007501266100895456,0.00037180527909136916,13.083510691681811,0.0,2.901748168899049,-0.0015639123273604402,-0.07583784755729898,2.7367155938063525e-05,-0.02140906877936293,-0.0005012643082418945
1768248368576,-0.0074834811909259774,0.00222803749110063,13.083510691681811,0.0,2.901756994962287,-0.0004129331353406422,-0.07584244877671376,-0.00030755083311262063,-0.021520671873794063,-0.004774137513418943
1768258695136,-0.007477344531381394,-3.254207756272327e-05,13.083510691681811,0.0,2.9017465088908807,-0.0008825968894045563,-0.07583995675885817,0.0005431204541537784,-0.021613175109782282,-0.006598753127411672
1768268632832,-0.007477344531381394,-0.0009118725578118911,13.083510691681811,0.0,2.9017465088908807,-0.0010652888238719827,-0.07583995675885817,0.0008740184247164487,-0.02172028411987391,-0.008135266957951566
1768278145728,-0.007543367447735042,-0.002664827203210968,13.083510691681811,0.0,2.901764867981492,-9.961379793139969e-05,-0.07584846792860002,-0.0005266119136904862,-0.021912406225387905,-0.012332894605991986
1768290682848,-0.007541618681131148,-0.00046211005697854044,13.083510691681811,0.0,2.9017678796341855,-0.0004428224732446869,-0.07586875464740157,-0.00203664821519604,-0.022104528330901905,-0.014753366445502507
1768300024608,-0.007572767283451944,-0.001301149028076579,13.083510691681811,0.0,2.9017630913131907,-0.0013252644811573891,-0.07588415754319655,-0.0012720854960476423,-0.02224197241028521,-0.01438649072937061
1768313270272,-0.007582692568065407,-0.00033102522064717727,13.083510691681811,0.0,2.901767775812357,-0.0008077853791325488,-0.07589611788855243,-0.0011404172601053241,-0.022362938180423654,-0.013516054472206652
1768320548512,-0.007582692568065407,4.633793228640782e-05,13.083510691681811,0.0,2.901767775812357,-0.0006064940140285696,-0.07589611788855243,-0.0010892003532776745,-0.022468923669430402,-0.012082692824083485
1768327865216,-0.007567669879502355,-0.0002062435331536845,13.083510691681811,0.0,2.901759126710581,-0.0007448902099429215,-0.07589227718792398,-0.00010110713698762488,-0.022554311271881067,-0.010762771329769492
1768337538944,-0.007592327343072878,6.178359609034369e-05,13.083510691681811,0.0,2.901767681329306,-8.750007164297715e-06,-0.075882585135613,0.0004644466295840011,-0.022617602959662482,-0.009169128719586618
1768347732416,-0.007577815490677093,0.0010272456245354075,13.083510691681811,0.0,2.9017744041927793,-0.00021292272906738295,-0.07587393841533432,0.0009661164737519976,-0.022666288873340493,-0.007461290724136149
1768357215584,-0.007595839679533028,0.00042410775149806724,13.083510691681811,0.0,2.901773016680858,-0.000732066916714473,-0.07585587950083905,0.001001772000490713,-0.022688010280981455,-0.005390325374402387
1768369414112,-0.007595839679533028,0.00018949644964153564,13.083510691681811,0.0,2.901773016680858,-0.0009340059743660472,-0.07585587950083905,0.0010156414487885364,-0.02268426521069853,-0.002994868336858778
1768381172864,-0.0075654562559682986,0.001164848920355735,13.083510691681811,0.0,2.9017622542081902,-0.0011111330548066842,-0.07582809131060621,0.0013859519644659876,-0.022673029999849756,-0.0011690917145053903
1768388445856,-0.007571146466222724,0.0017088598395905985,13.083510691681811,0.0,2.901763108485469,-0.0008050382361598209,-0.0758144081074333,0.00045506542323686086,-0.02265692619763318,-0.000328557480023556
1768397800480,-0.0075609626553014165,0.001307232652306296,13.083510691681811,0.0,2.9017508015465214,-0.0011667943738438596,-0.07581375161526296,-0.00035750165905049623,-0.022602997185559078,0.0019358076284435883
1768407880992,-0.00753991864130902,0.000809034579676217,13.083510691681811,0.0,2.9017612389513046,-0.000372573706865385,-0.07583639290769581,-0.0011514477723191358,-0.022564422961644962,0.0024788336762295625
1768420287360,-0.00753991864130902,0.0006152432367224948,13.083510691681811,0.0,2.9017612389513046,-6.363415428377008e-05,-0.07583639290769581,-0.0014602805277550675,-0.022538581976692784,0.0023076449226736985
1768431560800,-0.007522549062948482,0.0010237198818028983,13.083510691681811,0.0,2.901762953049607,-0.00018969935406145156,-0.07584756559072632,-0.0013632562782858056,-0.022503752823061596,0.0026246044110229197
1768438470656,-0.0074970933579959044,0.0008092817396025021,13.083510691681811,0.0,2.9017672249761337,-0.0006792066107081746,-0.07586637388802951,-0.0015128461491952835,-0.02248727451381673,0.0020683791848667577
1768448069920,-0.00748525935415493,0.0009448409338344505,13.083510691681811,0.0,2.9017569978992235,-0.0011668820850023725,-0.07586404790442917,-8.680755481849805e-05,-0.022478660852166002,0.0014833033855398477
1768459230816,-0.007465292414675602,0.0006034895929923622,13.083510691681811,0.0,2.901750867670217,-0.0016651562388637488,-0.07583713807799046,0.001697508859201325,-0.022464804092119185,0.0014494880341375874
1768467722656,-0.007465292414675602,0.0004707092022300713,13.083510691681811,0.0,2.901750867670217,-0.0018589771762394422,-0.07583713807799046,0.0023915803402526433,-0.022441210149336765,0.0016404683320907169
1768478024416,-0.007476420505905992,0.0012067347987540218,13.083510691681811,0.0,2.90174882251689,-0.0006240626122077901,-0.07583154546254228,0.0017954398950009737,-0.02243072395254458,0.0012612379070498902
1768492941888,-0.0074740024020914266,0.0005731636124656357,13.083510691681811,0.0,2.9017468032919647,-0.0006823064925949446,-0.07580132018271095,0.0014745079230783368,-0.02240301043245094,0.0019659895484988492
1768500282752,-0.007464800876017181,0.0005310252279283647,13.083510691681811,0.0,2.9017431051874536,-0.0004632327414589017,-0.07577425542468766,0.0008904071406505005,-0.022382787052923153,0.0016476695463359093
1768509748192,-0.007463407056566869,0.00035295618046335306,13.083510691681811,0.0,2.9017387055962085,-0.0009244959066465504,-0.0757655789322309,0.0008089408662928771,-0.02235956761716902,0.0016650947293075802
1768520483136,-0.007463407056566869,0.0002836900757902471,13.083510691681811,0.0,2.9017387055962085,-0.0011039201420011738,-0.0757655789322309,0.0007772517458796742,-0.022300395506698822,0.003240077819389402
1768527763360,-0.0074593511670715575,8.3265289357025e-05,13.083510691681811,0.0,2.9017304379370503,-0.0010668602750425811,-0.07577424801747853,-0.00021279128373499984,-0.02223560579080424,0.004505055859373698
1768544916800,-0.007450449207652896,0.0005830499430195838,13.083510691681811,0.0,2.9017277346199344,-0.0007252985160401738,-0.07580135418045741,-0.0012356230923040994,-0.022162576920287225,0.005728547462709957
1768550623552,-0.007455936600914279,0.0007813427993376742,13.083510691681811,0.0,2.901715987817055,-0.0005272008070166478,-0.07582119951004712,-0.001315200137845304,-0.022093667627081426,0.006251467713008763
1768560607392,-0.007473002403642024,-0.0002872489094685916,13.083510691681811,0.0,2.9017214040689625,-8.59294184857755e-05,-0.07581415711249422,-0.0008830646447842977,-0.021992550729442478,0.008064153047200309
1768570433664,-0.007473002403642024,-0.0007029145527047156,13.083510691681811,0.0,2.9017214040689625,8.57183250291769e-05,-0.07581415711249422,-0.0007149706232716074,-0.021625908348744227,0.020226780812323514
1768578158240,-0.00752638951338782,-0.008247988562004462,13.083510691681811,0.0,2.9016953641757786,-0.0033327994456487796,-0.07580183423390774,0.0018610118912411819,-0.02138135525926929,0.02163827512672731
1768587826496,-0.007533139904776663,0.012200841156741917,13.083510691681811,0.0,2.9017423180720994,3.3922008551003904e-05,-0.07577909342943878,-0.007238461562454674,-0.021249528785310372,0.018211597991870283
1768597280544,-0.007396514157078589,0.011647361502847994,13.083510691681811,0.0,2.901709903147105,-0.002321036999104366,-0.07580238595555526,-0.005341904084352358,-0.020773904859379033,0.030465380182512623
1768607662048,-0.007568132760575733,-0.009490797646905073,13.083510691681811,0.0,2.901717217730317,0.0007959448152068444,-0.07575756695870053,0.001931418739100812,-0.01987696052661875,0.05454556767612019
1768619946528,-0.007568132760575733,-0.01771321454140358,13.083510691681811,0.0,2.901717217730317,0.002008402520169128,-0.07575756695870053,0.004760628796562299,-0.018787894088344474,0.07482633748015906
1768629967680,-0.00792595095117004,-0.0224245566467653,13.083510691681811,0.0,2.90182697798629,-0.011135755180422606,-0.07560254769290432,0.004930856728074313,-0.018183814251708844,0.06977022634712132
1768638089568,-0.007544453760869056,-0.004070441393618944,13.083510691681811,0.0,2.901463571989837,-0.006920161920640211,-0.07580024647976172,0.000201333300388587,-0.017138939642773066,0.0843592324835001
1768650489888,-0.007480165035938938,-0.007222528497363998,13.083510691681811,0.0,2.9014651877893765,-0.0004159889120948458,-0.07577306375019736,0.00038071487512006055,-0.01581393377667458,0.10369412627086334
1768660069888,-0.007644387226250349,-0.005246671509539693,13.083510691681811,0.0,2.901547391348303,0.0038216831418969722,-0.07575721517050034,-0.00249613771692483,-0.014623001426704772,0.10948617004702105
1768667792128,-0.007644387226250349,-0.004478093708478464,13.083510691681811,0.0,2.901547391348303,0.005470072012622906,-0.07575721517050034,-0.0036151888693090276,-0.013469894286592494,0.11151103007056863
1768677315712,-0.007550356204463345,0.0027403014774304065,13.083510691681811,0.0,2.9016073424635676,0.0017666151568075164,-0.07582334301534624,-0.001990641576849741,-0.012211925178558345,0.11760757146741732
1768687631232,-0.007568851073853837,-0.0029249247214698255,13.083510691681811,0.0,2.9016058111352963,0.00039119949367442204,-0.0758236785538192,0.00043957629382650057,-0.010987661703070514,0.11944479176644578
1768697402720,-0.007606339991234998,-0.0036019233446213913,13.083510691681811,0.0,2.901560906532482,-0.004977407466340926,-0.07586295285010519,-0.001775039439791413,-0.009781983138861692,0.11972228977106582
1768707236064,-0.00765064892823307,-0.0049248928189534556,13.083510691681811,0.0,2.9015005316156723,-0.005021360753128509,-0.07590179934269231,-0.0018197090876095722,-0.008507301654689997,0.12307668485508529
1768724311200,-0.00765064892823307,-0.005439507477665628,13.083510691681811,0.0,2.9015005316156723,-0.005038457901716076,-0.07590179934269231,-0.001837084889555676,-0.007073454683494033,0.13142901667180235
1768730549760,-0.007762224259494594,-0.006971954145597882,13.083510691681811,0.0,2.9014894079602183,-0.003380053054189172,-0.07587628897463962,0.001047172438816827,-0.00552959627273718,0.1405641383977183
1768740212480,-0.00791316093843882,-7.471611207527599e-05,13.083510691681811,0.0,2.901537286076974,0.005217880059221394,-0.07578777496993078,0.0018993666317744804,-0.003963314253661321,0.14722857874126621
1768747384288,-0.0079011947549122,-0.0015587803085746936,13.083510691681811,0.0,2.901507902600502,-2.0774262817727096e-05,-0.0757895510122978,0.0026904125500939336,-0.002226069776169984,0.15783717496330935
1768757372224,-0.007990565074329608,-0.006221405388493562,13.083510691681811,0.0,2.9015488034983115,0.0016563373369978224,-0.07576625815578403,0.0019583783033988523,-0.00034248667737339297,0.1718923418117104
1768770186912,-0.007990565074329608,-0.00803509441213237,13.083510691681811,0.0,2.9015488034983115,0.0023087078038198532,-0.07576625815578403,0.001673628306261687,0.0018022682602786043,0.18691979912562634
1768778099328,-0.008153153160627938,-0.011590295795876691,13.083510691681811,0.0,2.9015278201248016,-0.004417314021401242,-0.07572785126675888,0.0001768167794673908,0.0039901851329413,0.19947772198494831
1768788218336,-0.008231666227592395,-0.003557851987371488,13.083510691681811,0.0,2.9014867217756453,-0.004078599808744119,-0.07572992971845316,-0.0035234215413511086,0.006316716419450718,0.21294139594386774
1768797854528,-0.008324237573579923,-0.006405085565694873,13.083510691681811,0.0,2.901464961240107,-0.0016161651062475736,-0.07572150569466832,-0.002147095472268363,0.008798855376215624,0.22728513216091273
1768807661792,-0.008483144606266915,-0.012950667445040275,13.083510691681811,0.0,2.901466501268863,-0.0005367292670532486,-0.07573710233783862,-0.0012843970022280466,0.011404394398802874,0.24036903843812676
1768821095744,-0.008483144606266915,-0.01549679753365216,13.083510691681811,0.0,2.901466501268863,-0.00011684542485868005,-0.07573710233783862,-0.0009488206436310692,0.014058712961825207,0.25066029261874295
1768830032000,-0.008584760849144559,-0.010133669804073538,13.083510691681811,0.0,2.901491180001609,0.001911117857090728,-0.07576275661613135,-0.0012251343804706685,0.016818689320204534,0.2607999065629346
1768840420832,-0.008734350529511962,-0.012723086833751047,13.083510691681811,0.0,2.901485119654039,-0.0001845086387444626,-0.07578940658764954,-0.0017598008743889952,0.019664053281034526,0.26996024314486483
1768850121216,-0.008920979786898719,-0.015180131015169953,13.083510691681811,0.0,2.9014675248995925,-0.0007767328252353807,-0.07577961767046072,0.0002818614375700351,0.022615964491413704,0.2799284850135788
1768858009056,-0.009131597235199438,-0.014684284110944943,13.083510691681811,0.0,2.901442727640581,-0.0018573764520702996,-0.07577129862721695,0.0006267526484200757,0.025595589221886518,0.28707334180268573
1768867258816,-0.009131597235199438,-0.014491407336127391,13.083510691681811,0.0,2.901442727640581,-0.0022777301049721594,-0.07577129862721695,0.0007609099938524262,0.02873587746749677,0.2976260838124624
1768878139904,-0.009328832291514556,-0.01678905783140442,13.083510691681811,0.0,2.901436793642653,-0.0021380196927145555,-0.07575505199861791,0.001542838556954611,0.03213878876669706,0.314371229314986
1768887756544,-0.009639665361855405,-0.02003580452664792,13.083510691681811,0.0,2.901425786209051,-0.00036542236091402123,-0.07571461214909207,0.0019851670286858093,0.035563374660159776,0.32582118483444955
1768899865120,-0.009860161219498967,-0.018138758050774938,13.083510691681811,0.0,2.9014441388013004,0.0018939233626240693,-0.0756855023216969,0.0017475724634408393,0.03914824956173163,0.33878624364690396
1768908127968,-0.010059354529210399,-0.01683569482007113,13.083510691681811,0.0,2.901393150679663,-0.002342939232223543,-0.07568695765031526,0.0006098598387811884,0.04295122799390527,0.3553322684438224
1768920706560,-0.010059354529210399,-0.01632882338217376,13.083510691681811,0.0,2.901393150679663,-0.0039910132358649975,-0.07568695765031526,0.00016730722860297276,0.046936497722100234,0.3725876212556712
1768930306752,-0.010378846535007775,-0.021524017046225377,13.083510691681811,0.0,2.901439947065989,0.00445652343532415,-0.07564108094598891,0.0008868530504438087,0.05112432893922285,0.39060074222589114
1768939549056,-0.010724401670407014,-0.02588703920384025,13.083510691681811,0.0,2.901408290032056,-0.0008907524055462416,-0.07562774268222291,0.0017851785556312649,0.05529849064981278,0.4078511913363383
1768949890080,-0.011023860476244948,-0.027652034902440725,13.083510691681811,0.0,2.9014335929428783,-0.0011509168959600907,-0.07564658949806392,0.0006256768975728478,0.060130099448570014,0.4314658022253829
1768960113440,-0.011370635757866933,-0.02371576785521868,13.083510691681811,0.0,2.9013996110667377,0.00026225551320229005,-0.07562050445116832,9.971677742235673e-05,0.06496770035977992,0.4527679960615469
1768970987712,-0.011370635757866933,-0.02218462086928474,13.083510691681811,0.0,2.9013996110667377,0.000811957718092334,-0.07562050445116832,-0.00010487357252816779,0.07003688705461014,0.4740409783495041
1768977908960,-0.011790677227857949,-0.029677465098205277,13.083510691681811,0.0,2.9013822442344264,-0.0011066023888207514,-0.0755651723848445,0.0023686438007889353,0.07520700339356517,0.49124639298979905
1768987730688,-0.01208258383331571,-0.03053850186038949,13.083510691681811,0.0,2.901363471906591,-0.0029808912081961993,-0.07556624484626268,0.002592028822695018,0.08053024629371325,0.5078247190179077
1768997807648,-0.012475447967756582,-0.032742840781169465,13.083510691681811,0.0,2.9014030436671523,0.001010180639050207,-0.07553653068317356,0.0006123485882159952,0.08616765377722009,0.5303632775879111
1769007522304,-0.01304430482816723,-0.03955633336198171,13.083510691681811,0.0,2.901459297607901,0.002507570595899651,-0.07545435196853711,0.0038909936305958183,0.09191366829893174,0.5476366184404626
1769020269728,-0.01304430482816723,-0.04220667656879143,13.083510691681811,0.0,2.901459297607901,0.003090032123964884,-0.07545435196853711,0.005166335830289804,0.09763117347311462,0.557330709461122
1769032794752,-0.01335982483844132,-0.030885277583117807,13.083510691681811,0.0,2.9013790725686017,-0.0054437149256918475,-0.07546229175020044,0.0028560498342959945,0.10357759606834124,0.5726078810394966
1769040550720,-0.013813917008158308,-0.038850432896585296,13.083510691681811,0.0,2.901391878994663,-0.002610827036408014,-0.07541607071096443,0.0016492712017945766,0.1095085702486508,0.5866063919965236
1769049818592,-0.014327566863850573,-0.034111120007547145,13.083510691681811,0.0,2.9013420789835647,0.0011416892502759451,-0.07537174961450649,0.0019100938728148528,0.11544787721033986,0.5895726749141137
1769059437824,-0.01477304927626108,-0.03893190448536601,13.083510691681811,0.0,2.9013638403241275,0.0040377161806457755,-0.0753597732450407,0.0024056928328386735,0.12139720223503574,0.594771183567151
1769070991328,-0.01477304927626108,-0.04080711506800641,13.083510691681811,0.0,2.9013638403241275,0.005164225854004618,-0.0753597732450407,0.002598473161197747,0.12768339633168063,0.5984701192655272
1769078610816,-0.01535930491000611,-0.047500493217328625,13.083510691681811,0.0,2.901398320059988,0.0018359652186873466,-0.07536673930650477,0.0021267909140143693,0.1335428396695863,0.5935782616485934
1769091786560,-0.015817028284959414,-0.04040718675196106,13.083510691681811,0.0,2.901397972903177,-0.0018372616783153464,-0.0753959277832463,-0.0008249664120276686,0.1397056337004089,0.6034267900050447
1769107726656,-0.015817028284959414,-0.03764800027287851,13.083510691681811,0.0,2.901397972903177,-0.0032660901151375797,-0.0753959277832463,-0.0019731543471341803,0.14296337671276732,0.6138257734730181
1769117636224,-0.0166416919751376,-0.05982145290726934,13.083510691681811,0.0,2.9014585270817417,0.0038627755669090654,-0.07529200043597631,0.005792758253466353,0.15224169471195426,0.6237798425913803
1769125639552,-0.017411746473195412,-0.05629092986513466,13.083510691681811,0.0,2.9013758461389396,-0.004563070709292923,-0.07522523192827457,0.006669224971948983,0.15884116393776576,0.6311013145543609
1769132335584,-0.017859356683387152,-0.043130158007208305,13.083510691681811,0.0,2.9013814216730074,-0.0006207101020001802,-0.07520166379127209,0.001911913180480151,0.16556880819401032,0.6478586081286148
1769143226368,-0.01856085844238112,-0.05080538940188674,13.083510691681811,0.0,2.90136237634092,-0.0031450954662675663,-0.07517010208424316,0.0025305343392540668,0.17246329533135912,0.6646455813848609
1769153176320,-0.019273852036441774,-0.056323907690084274,13.083510691681811,0.0,2.9014014891996776,-0.0005934508087991296,-0.07512464232142398,0.002321118718493189,0.1796502724578043,0.68628412934581
1769163414336,-0.020101880824998097,-0.053956823321315704,13.083510691681811,0.0,2.9014220826434864,-0.0002786516846863418,-0.07497611830425834,0.0027807573631440123,0.18692759940482495,0.7028414127602663
1769174403168,-0.020101880824998097,-0.05303606412149232,13.083510691681811,0.0,2.9014220826434864,-0.00015619969545961878,-0.07497611830425834,0.0029595496851417148,0.1942751464196505,0.7152317905378061
1769184611296,-0.02081392366705874,-0.05516582885646465,13.083510691681811,0.0,2.901445924889946,0.0007087166926389602,-0.07494448596924116,1.2882293659141142e-05,0.20181856061027298,0.7313662087039419
1769193628864,-0.02148073544780853,-0.05969589641980699,13.083510691681811,0.0,2.901409140943273,-0.002425093256286355,-0.07494797566895645,3.6242063499042555e-05,0.20955390965289528,0.7592619264668432
1769206215328,-0.022578296752945343,-0.07623294187617029,13.083510691681811,0.0,2.901398424658489,-0.002565418030433003,-0.07486800886041863,0.006237307536494395,0.21768913857497676,0.7785540708620942
1769212334912,-0.023300133221214485,-0.06332723829836391,13.083510691681811,0.0,2.901406728545441,-0.0001648565857861093,-0.07484133862691185,0.00143280297771837,0.22601780037717129,0.7906788295298174
1769221079360,-0.023300133221214485,-0.058307119262369964,13.083510691681811,0.0,2.901406728545441,0.0007689246786518086,-0.07484133862691185,-0.0004360749682704399,0.2343503008764058,0.8081116401563536
1769231724256,-0.024070054480667964,-0.06373221361080925,13.083510691681811,0.0,2.901429571635108,-0.00013490024277867653,-0.07491738431459473,-0.004697442870314162,0.24305112903796589,0.8327008353664614
1769240753632,-0.025152014519353345,-0.07494951218697952,13.083510691681811,0.0,2.90142658853684,0.002513559518678742,-0.07492135178779416,-0.0038489401378854803,0.2516628245267924,0.8435724467041399
1769251242016,-0.02587774829951558,-0.05792822417920923,13.083510691681811,0.0,2.9013575827234934,-0.006363205959311371,-0.07494891161254741,-0.004273789042246013,0.2602052362153848,0.8480834306733003
1769265751360,-0.026821997758066485,-0.07712088707571257,13.083510691681811,0.0,2.9014148148014076,0.00016075846623426386,-0.07502333684647793,-0.007611771321951943,0.2691430336990969,0.8668803129303237
1769271316448,-0.026821997758066485,-0.08458653602520813,13.083510691681811,0.0,2.9014148148014076,0.0026984796997476523,-0.07502333684647793,-0.008910194788997856,0.2781463699127602,0.8794101945759023
1769278580576,-0.028224100245616248,-0.0985505072346031,13.083510691681811,0.0,2.901409260571739,-0.001937925734095825,-0.07503822402121149,-0.0031163297426505484,0.2866096669916258,0.8655705682256282
1769288110016,-0.02907418941036926,-0.07267227550934396,13.083510691681811,0.0,2.9013816822697036,-0.0026707601387758197,-0.07507301082706198,-0.002226777294796763,0.2949463806949286,0.8533213327843762
1769297829856,-0.030102070682652072,-0.0912626927037998,13.083510691681811,0.0,2.901380764524752,0.002044740969246811,-0.07507094876512138,0.0002470255426268651,0.30306091810369695,0.8453645096478974
1769309614912,-0.030102070682652072,-0.09849407739215166,13.083510691681811,0.0,2.901380764524752,0.0038789979498072323,-0.07507094876512138,0.0012092965757848305,0.3113165510353745,0.8277657690011384
1769320068256,-0.0314260345316176,-0.1013286708498993,13.083510691681811,0.0,2.90137420534768,-0.0028696315838767084,-0.0750835960908727,0.0023125135032229147,0.3188824356476945,0.7990476572107963
1769328056256,-0.032511605611562806,-0.0911525934059712,13.083510691681811,0.0,2.901376012919555,-0.004308079765411336,-0.07508695497871963,0.001673854447986799,0.3260751240063211,0.7755368549886563
1769337762368,-0.03371242983883766,-0.10355188298689272,13.083510691681811,0.0,2.9013775179466528,-0.002110783002303487,-0.075048049561762,0.0017280450171429213,0.3335864242192675,0.7559044475515126
1769354010688,-0.035204949885571137,-0.11008643064460835,13.083510691681811,0.0,2.9014154414978566,-0.003457980748363904,-0.0750451831703659,0.0003319309945839151,0.34017063228367606,0.7255494123538829
1769362731552,-0.03636685708611408,-0.10148584252477771,13.083510691681811,0.0,2.901424609899116,-0.0021162425913496975,-0.07509779004804656,-0.002679551570325904,0.3467856435511617,0.6929761486209882
1769372731776,-0.03636685708611408,-0.09814034680028627,13.083510691681811,0.0,2.901424609899116,-0.0015943272054322925,-0.07509779004804656,-0.003850971699381535,0.35294581603278613,0.6723580152786894
1769383076544,-0.03768841918890788,-0.10650520730262777,13.083510691681811,0.0,2.9013830953943383,-0.00489855257634041,-0.07510850608755465,0.000491133831578585,0.35947366078943666,0.6546763681385421
1769394978528,-0.03926106369082879,-0.11959717816178672,13.083510691681811,0.0,2.901420936863453,-0.0013960273117383602,-0.0751162687565198,0.0012773719422569786,0.36518723363982253,0.6304641610657893
1769405825152,-0.040633200769367085,-0.10949000254418148,13.083510691681811,0.0,2.901438035623191,0.0028271364334125134,-0.07515794919876922,-0.0054756256880751294,0.3710071664862434,0.6022216263879999
1769414017472,-0.04194663896278196,-0.11138799540100636,13.083510691681811,0.0,2.901391698961818,-0.004142041808459922,-0.07522413188106306,-0.00313156474400456,0.3762793828037866,0.5779519558930933
1769420287168,-0.04194663896278196,-0.11212628525969429,13.083510691681811,0.0,2.901391698961818,-0.006852944328910135,-0.07522413188106306,-0.002219761300208219,0.3817925007672789,0.5635458876625269
1769433230560,-0.043446360637452365,-0.12518074440053645,13.083510691681811,0.0,2.9014196923832576,-0.007141406452990804,-0.07530008917113219,-0.0003343985066880852,0.38704308930393827,0.5466499562677372
1769443922816,-0.04506662839272411,-0.11952509125299735,13.083510691681811,0.0,2.9014428450426433,-0.000991503591174163,-0.07524874609139229,-0.003044614233144674,0.39195390633917937,0.5243280266069115
1769454982880,-0.04649416881983325,-0.11455872917265979,13.083510691681811,0.0,2.9014508344959973,0.003803998819452244,-0.07523716605368169,-0.003380926315460467,0.3965076309229436,0.5029184662870739
1769460622304,-0.04792178841793874,-0.11559924086703127,13.083510691681811,0.0,2.901454988216396,0.0009329303035220969,-0.07525141147322985,-0.001994054186303556,0.40098729674186306,0.4819496305194687
1769470858112,-0.04792178841793874,-0.11600398381905996,13.083510691681811,0.0,2.901454988216396,-0.00018387093273515657,-0.07525141147322985,-0.0014545823834610594,0.40533813214305,0.4566465078799893
1769477777728,-0.04927394047460634,-0.10638662364801213,13.083510691681811,0.0,2.9014618270238874,-0.0007330248544628179,-0.07531705870492325,-0.0044880624506099046,0.40954553135240085,0.4430504281315515
1769488612928,-0.05091435741178195,-0.1310563222081893,13.083510691681811,0.0,2.9015552945533214,0.01425479514254375,-0.07529515690346934,-0.001577536068694873,0.41414354139226073,0.44997536737163835
1769502682592,-0.05318973195996065,-0.16616569254752467,13.083510691681811,0.0,2.9015182806747988,-0.0020897907684087344,-0.07500568129219914,0.017478293423997482,0.4185543915447314,0.44924990044445745
1769509766144,-0.05527426282811499,-0.16194630592264364,13.083510691681811,0.0,2.901807803404302,0.010610489622588946,-0.07476236302609242,0.016569158838542646,0.42262902801255264,0.4349258258463978
1769521095616,-0.05527426282811499,-0.1603050298009598,13.083510691681811,0.0,2.901807803404302,0.015550702216883249,-0.07476236302609242,0.016215519549432452,0.42628693178464155,0.40072120949826134
1769528416384,-0.056716026559340216,-0.12470561003902,13.083510691681811,0.0,2.901917307296109,0.019869801433612215,-0.07461217932212888,0.006079172003144897,0.4291350577348052,0.3585027279118994
1769537830560,-0.05763107531063221,-0.09089062746006221,13.083510691681811,0.0,2.901994762811238,0.008046115855452278,-0.07461024894615016,0.001964464235612747,0.431609425670733,0.3150201329615704
1769547420672,-0.05826261417698836,-0.0708867988389511,13.083510691681811,0.0,2.901887206835969,-0.0072094061467867804,-0.07479837017852002,-0.011485216481677054,0.43410176994401894,0.2855079258311128
1769558584992,-0.0596750135120649,-0.12138930255537839,13.083510691681811,0.0,2.901872744926538,-0.0007375892596648589,-0.0748849440648011,-0.0010134180131530783,0.4373127932045979,0.30100411380097053
1769568733600,-0.0596750135120649,-0.14103399520957655,13.083510691681811,0.0,2.901872744926538,0.0017798473881424626,-0.0748849440648011,0.0030599495886979547,0.44066332033321576,0.3140498554713326
1769580348192,-0.0621696929972649,-0.17040142206913755,13.083510691681811,0.0,2.901777425054763,-0.011828444740548578,-0.07459354971607532,0.01906542987957189,0.4437567483869109,0.31335542581412146
1769591124256,-0.06435867543065706,-0.16866782732427227,13.083510691681811,0.0,2.901920778902081,0.00028379966524029465,-0.07440729380509814,0.02525795283039098,0.4464805380036815,0.2940306290873413
1769601232512,-0.06598268700192282,-0.12738312648926986,13.083510691681811,0.0,2.901809180564709,-0.005697254461207112,-0.07425903374738327,0.0011505737884346234,0.448239784769085,0.24944387038415997
1769609261472,-0.0665910120301906,-0.07321099052920159,13.083510691681811,0.0,2.901970858320714,0.004059048907756934,-0.07458428735982406,-0.013652068962232188,0.44952996148155233,0.20212758742533737
1769620064608,-0.0665910120301906,-0.05213886770272836,13.083510691681811,0.0,2.901970858320714,0.007854099984839954,-0.07458428735982406,-0.019410067990152765,0.450640000313411,0.16331242090356557
1769629910784,-0.06713247625857821,-0.045753126755960306,13.083510691681811,0.0,2.901989603974572,0.004570647154725042,-0.07475969505937716,-0.022780510295721878,0.45194543818728117,0.1535228657007256
1769644263488,-0.06807501693159893,-0.07754964601450667,13.083510691681811,0.0,2.9019202886148125,-0.005573953510823564,-0.07497197660926591,-0.009895229426466305,0.4538824821643665,0.169671579502332
1769650292032,-0.07000046436201726,-0.13192772189841676,13.083510691681811,0.0,2.9018962449042704,-0.0007706020592931052,-0.07492775989659119,-0.0036152867682181303,0.4564228569640309,0.2043389343939576
1769657430432,-0.07256766570897771,-0.1763675403828457,13.083510691681811,0.0,2.901878814133428,-0.006580323215360025,-0.07442504471154175,0.030992863749951704,0.45911893306070783,0.22938019469724819
1769667774432,-0.07256766570897771,-0.193653942273669,13.083510691681811,0.0,2.901878814133428,-0.00884021486664074,-0.07442504471154175,0.044454898901261045,0.4609990519694927,0.20800892772105353
1769677616960,-0.07424281405156938,-0.13148114964467078,13.083510691681811,0.0,2.901764698814765,-0.00887250739582381,-0.07454824337462672,0.006847621124994792,0.4621662031231659,0.17165350580608923
1769689411136,-0.07492808554987643,-0.08289560221783115,13.083510691681811,0.0,2.9017250892724427,-0.005204716214591235,-0.07478467529619977,-0.012416268040975356,0.46314525812187934,0.14226348159361202
1769697825536,-0.07540278771055577,-0.0543233759411941,13.083510691681811,0.0,2.9017687870798548,0.0007767934431828858,-0.07502711017088308,-0.015968621359251305,0.4637666589085735,0.11005924187204853
1769708107360,-0.07561078634600113,-0.03501489509012312,13.083510691681811,0.0,2.9018650796487875,0.005223643780771279,-0.07519113199685164,-0.018116284323716553,0.4642967736071214,0.088400827483583
1769717296992,-0.07561078634600113,-0.027504194748045246,13.083510691681811,0.0,2.9018650796487875,0.006953399767754674,-0.07519113199685164,-0.01895169199179223,0.46585210129561966,0.11748085935506351
1769729920768,-0.07665785066912027,-0.08838937225613315,13.083510691681811,0.0,2.9018496920075556,0.003367456058838973,-0.07530730434509804,-0.011174276860169845,0.46819258296893296,0.16474613328629828
1769740258144,-0.07893584027214304,-0.12087506786538714,13.083510691681811,0.0,2.9015985872584626,-0.021429900508581085,-0.0754702139806674,-0.033464620757216484,0.46959576717718754,0.15136900556094823
1769747790208,-0.07947293506700323,-0.06103379062616794,13.083510691681811,0.0,2.901643401323191,-0.007333404832219982,-0.07543757261939685,-0.009499424838146451,0.47055057284581897,0.1293413213909141
1769759426656,-0.07986434286861441,-0.04639611301670786,13.083510691681811,0.0,2.9016210701215552,-0.002879934942680075,-0.07547373810142827,-0.005491741147367643,0.47191331029501793,0.13432887725692122
1769769582336,-0.07986434286861441,-0.040702282876647955,13.083510691681811,0.0,2.9016210701215552,-0.0011476040523943378,-0.07547373810142827,-0.003932814191930714,0.4735901655141971,0.14602051854642434
1769777909536,-0.08064872124525176,-0.05000706815760525,13.083510691681811,0.0,2.9015690084049375,-0.0009639858461243196,-0.07548778167773831,-0.001929185196324058,0.47503501362934913,0.1450821736320208
1769790046624,-0.08106663060743863,-0.03218015582112626,13.083510691681811,0.0,2.901666914297804,0.004223889391212013,-0.07559633247124607,-0.0035909073672349143,0.47644596885844076,0.14387555880024125
1769797748032,-0.08143971308200469,-0.03531231054442246,13.083510691681811,0.0,2.9017385362769663,0.009530877000277724,-0.07564905388033479,-0.008430868792156149,0.47804258594680826,0.1503424174280033
1769810683872,-0.08200468179916241,-0.04502298314348186,13.083510691681811,0.0,2.9017587043496698,0.0043741551969750814,-0.0757898199477697,-0.013590921674996728,0.4797204710603153,0.1572008699672236
1769820269440,-0.08200468179916241,-0.04880028455699603,13.083510691681811,0.0,2.9017587043496698,0.0023682701917900496,-0.0757898199477697,-0.015598102418589044,0.48128665945263405,0.15697862345262137
1769829931168,-0.08227562178514441,-0.02894154163080484,13.083510691681811,0.0,2.9016059940009034,-0.009234983236766728,-0.07575239810295635,-0.0018421354349575508,0.4828289730218992,0.15870793891412305
1769837756800,-0.08246852217826289,-0.019301340803431516,13.083510691681811,0.0,2.901597701235087,-0.005371731673071385,-0.07582760536460371,-0.0012635149281995462,0.48457239686535736,0.16219635484922035
1769850570528,-0.08269020533507551,-0.014690779618694385,13.083510691681811,0.0,2.9015799413499237,0.002283012972224568,-0.07584634239272468,-0.006872798119919255,0.4862769656046302,0.16795077237237932
1769857526144,-0.08288804053266338,-0.006940053455142309,13.083510691681811,0.0,2.9015130930251076,0.011590713448686694,-0.07582354172975118,-0.00986258642271534,0.4879002663187636,0.1657128588114396
