mjoo-man/Modeling_RoboBall_with_Drake/roboball_plant/data/full_ball_uncontrolled_response.csv
timestamp,pipe_roll.position,pipe_roll.velocity,drive_shaft.position,drive_shaft.velocity,shell_yaw.position,shell_yaw.velocity,pitch_joint.position,pitch_joint.velocity,roll_joint.position,roll_joint.velocity
8088445765248,0.0177445949099581,-0.000603165485189906,263.880931551386,0,-2.75183497320665,0.000769284997258975,-0.0522011662511352,0.00058918233071858,0.0422710266779331,-0.00022212317375034
8088456058048,0.0177256022279261,-0.000517183240851389,263.880931551386,0,-2.75183631174152,0.000289665739637913,-0.0522076970829019,0.000321273768116348,0.0422688352266503,-0.00031463812165498
8088464226720,0.0177139346489606,-0.000325557303775203,263.880931551386,0,-2.7518429854337,-0.000344228370651032,-0.0521928843294775,-0.000113015734332694,0.0422709593837014,-0.000220312816913139
8088474593376,0.0177047337493484,-0.000476244306085128,263.880931551386,0,-2.75184551698439,-0.000110016992512165,-0.0521795870772977,0.000122354899143438,0.0422685104588367,-0.000345754390629624
8088484574976,0.0177047337493484,-0.000543019333795628,263.880931551386,0,-2.75184551698439,-6.22920042927002E-06,-0.0521795870772977,0.00022665640047851,0.0422703215514188,-0.000222273141425667
8088493691936,0.0177182772457684,6.53954812169686E-05,263.880931551386,0,-2.75184303801146,3.73519609746871E-05,-0.0521779750669486,0.000139116125704839,0.0422642504413899,-0.000475522550280065
8088506268160,0.0177115142858987,0.000323341266527381,263.880931551386,0,-2.75184398495561,6.73818873768128E-05,-0.0521787589212151,-0.000237608519489255,0.0422616376697003,-0.000537277796919681
8088515029088,0.0177082862121834,-0.000163760535912818,263.880931551386,0,-2.75184390913591,0.000132777733454586,-0.0521737150496614,0.000205048540302008,0.0422655934001867,-0.000315080711519196
8088523441728,0.0177082862121834,-0.000379613501710629,263.880931551386,0,-2.75184390913591,0.000161757070537777,-0.0521737150496614,0.000401206383916256,0.0422695666856899,-0.000127978967980569
8088535451040,0.0176947465429297,7.32419711894109E-05,263.880931551386,0,-2.75184637928545,0.000445148167003693,-0.0521562980642098,9.47750637228914E-05,0.0422657630986839,-0.000331313607684479
8088544864224,0.0176943360618328,0.000436069814892696,263.880931551386,0,-2.7518387755808,0.00067909676720146,-0.0521612131697134,1.89266650878895E-05,0.0422935439130091,0.000932554400348246
8088555092768,0.0176954213114011,0.000254960606414201,263.880931551386,0,-2.75183827081595,0.000378914758545774,-0.0521661688322641,0.00046224921292212,0.0422799007390019,0.000291940737646403
8088565368096,0.017709187352795,0.000550802048968546,263.880931551386,0,-2.7518354940749,0.000673424239808641,-0.0521645048229321,0.000245901648387524,0.0422666876629099,-0.000420904549506815
8088575357600,0.0176919674228487,5.51111099914245E-05,263.880931551386,0,-2.75183601586304,0.000593624005912242,-0.0521542170787934,0.000641612475254085,0.0422702747380403,-0.000190315747414789
8088584694400,0.0176919674228487,-0.000164548022373312,263.880931551386,0,-2.75183601586304,0.000558261547650734,-0.0521542170787934,0.000816966693098388,0.0422717435077919,-9.79909788604532E-05
8088594501056,0.0176805792659999,-0.000174389639268061,263.880931551386,0,-2.75183343672735,0.000784928944705025,-0.0521474841740572,0.000493154568804681,0.0422681856910231,-0.000341446142602372
8088605529632,0.0176764614639035,-0.000335312413453214,263.880931551386,0,-2.75183453951217,0.000146258055763892,-0.052137975087862,0.000292779395393463,0.0422753949513177,-1.95090784349958E-05
8088614655648,0.0176847052710147,-0.000343389933728387,263.880931551386,0,-2.75184164340449,5.28160368959092E-06,-0.0521388031798465,-9.90009103736333E-06,0.0422643938073617,-0.000566152188225407
8088624687776,0.0176847052710147,-0.000346969384058797,263.880931551386,0,-2.75184164340449,-5.71903172424336E-05,-0.0521388031798465,-0.000144028654111759,0.0422644611015933,-0.000587015228683356
8088637758048,0.0176777263342483,-0.000300455578209027,263.880931551386,0,-2.75183956357296,-7.14473485122845E-05,-0.052144075355746,-0.00035158336237836,0.0422718780962552,-0.000222788858621644
8088645284864,0.0176736034220197,-0.000370441383104225,263.880931551386,0,-2.75183752215505,-4.75524737379553E-05,-0.0521356954749331,0.000506734819482279,0.0422672816076501,-0.000447524161177633
8088657730240,0.0176783261104463,0.000284462145970443,263.880931551386,0,-2.7518439677448,0.000288395885188693,-0.0521367477632379,0.0002054671367632,0.042266743253797,-0.000419032002936306
8088666781312,0.0176944100026805,9.41583367262063E-05,263.880931551386,0,-2.75183220422159,0.000416328932022088,-0.052128919371297,0.000270031581665386,0.0422669743948535,-0.000460127189001472
8088681638528,0.0176987388854649,-4.46948188848856E-05,263.880931551386,0,-2.75182900674428,0.00052100084896262,-0.0521353094679575,-0.00021361146907143,0.0422631356978135,-0.000683417872811863
8088683873920,0.0176987388854649,-0.000106225828006369,263.880931551386,0,-2.75182900674428,0.000567384877094254,-0.0521353094679575,-0.000427931733061542,0.0422719775746846,-0.000224564474011723
8088693903872,0.017691202702157,0.000189656128925399,263.880931551386,0,-2.75182893628507,-0.000288042362625784,-0.0521350304877938,9.55277252267763E-05,0.0422688410783226,-0.000340511692250193
8088704662080,0.0176936533521182,-0.000331757445889951,263.880931551386,0,-2.75182929233334,-0.000426367081871637,-0.0521444615480066,5.00922487279099E-05,0.0422710237520969,-0.000233705882645228
8088714940448,0.017689456455129,-0.000453675099389235,263.880931551386,0,-2.7518211888665,-5.79017585867283E-05,-0.0521516015573643,0.000197126008851785,0.0422718546895659,-0.000190549782877591
8088725301952,0.017692034357028,-0.000336703629886999,263.880931551386,0,-2.75182853394202,-0.000298410426053624,-0.0521550899733986,-0.000213236908274757,0.042276969051171,4.4875810329056E-05
8088735262400,0.017692034357028,-0.000284869211538925,263.880931551386,0,-2.75182853394202,-0.000404988781774617,-0.0521550899733986,-0.000395084013482462,0.0422629455184632,-0.000618985463229093
8088744739712,0.0177014679409494,0.00054380812843531,263.880931551386,0,-2.75182195289327,0.000220476034719592,-0.0521547637101029,0.000354004956269729,0.0422750818868488,-2.77653979688445E-05
8088755102016,0.0177110745367581,0.000693062481933156,263.880931551386,0,-2.75181107477406,0.00134673544415865,-0.0521711938252143,-0.000850841316393882,0.0422712080797749,-0.00019376821979555
8088765546400,0.0177200041246431,0.00142787967787219,263.880931551386,0,-2.75181103442457,0.000601773176069384,-0.0521725583971529,-5.53684128760106E-05,0.0422778263211655,0.000171573631551863
8088775863360,0.017713599833932,0.00109212283313686,263.880931551386,0,-2.75181509817806,0.000411973615669752,-0.0521622672998154,6.24777024183447E-05,0.0422758074942161,1.58770642005959E-05
8088783917824,0.017713599833932,0.000943336459610892,263.880931551386,0,-2.75181509817806,0.000327866355515626,-0.0521622672998154,0.000114699708920076,0.0422713982591252,-0.00022290408484985
8088793805952,0.0177085590985004,-0.000169515957541385,263.880931551386,0,-2.7518154133958,-0.000157998002355886,-0.0521500418541567,0.000632218025900863,0.0422631942145367,-0.000597890213098679
8088803708032,0.0176957965710209,-0.000157214907791727,263.880931551386,0,-2.75182515902004,-0.000351254063704627,-0.0521520556870747,0.000569305932604628,0.0422680042891813,-0.000349296526745239
8088813761152,0.017703977529525,-0.000172170320905562,263.880931551386,0,-2.75182438055459,-0.00014787067506843,-0.0521425026588283,0.000135882357010256,0.0422692565470571,-0.000231824227838181
8088823917728,0.0177241940410509,-0.000391241176414555,263.880931551386,0,-2.7518286285507,-0.000308263561599451,-0.0521447806600079,-6.60769258806097E-05,0.0422880111568334,0.000594040652749039
8088835813312,0.0177241940410509,-0.000488319638544214,263.880931551386,0,-2.7518286285507,-0.00037933962840346,-0.0521447806600079,-0.000155572612334663,0.0422737477055605,-6.55708427173658E-05
8088844861312,0.0177283604296955,-0.000492965842852307,263.880931551386,0,-2.75182096445894,-1.11356955600525E-05,-0.0521416425997232,-0.000164274869999952,0.0422775981059451,4.44973049199293E-05
8088853431776,0.0177215972658902,4.53222673130103E-05,263.880931551386,0,-2.75181624073343,-6.81241655149813E-05,-0.0521376506535575,0.000542337665566718,0.0422762814796738,1.11263420282341E-06
8088864218144,0.0177090154702587,-0.000636710785756249,263.880931551386,0,-2.75181321935761,0.000577443445875799,-0.0521348239407746,0.000631300237627406,0.0422739642174362,-5.8117255816982E-05
8088873793184,0.0177101123166678,-0.00012243170476642,263.880931551386,0,-2.75180601552831,0.000723439631334661,-0.0521269926109895,0.000443980158074502,0.0422718839479275,-0.00016470912365327
8088884121312,0.0177101123166678,0.000105464526213048,263.880931551386,0,-2.75180601552831,0.000788135983244242,-0.0521269926109895,0.000360971648308333,0.042273387827713,-6.8803874528975E-05
8088894545344,0.0177171228376187,0.000168250449836395,263.880931551386,0,-2.75181524578244,0.000137697385519942,-0.0521263690400867,6.21474126656568E-05,0.0422776273643067,0.000122386697897216
8088903880992,0.0176999358512466,1.94204383814022E-05,263.880931551386,0,-2.7518177200477,0.000251909761668964,-0.0521379909861017,0.000518686968105058,0.0422748068582499,3.82872212450176E-05
8088914496896,0.0176905505212038,-0.000444118608010658,263.880931551386,0,-2.75181887659216,0.000362279473724274,-0.0521393294924014,0.000418137611715719,0.0422813461020642,0.000385750377158717
8088923821280,0.0176809691829289,-0.000493248068186722,263.880931551386,0,-2.75181336753744,0.000684261422156026,-0.0521379185052663,0.00036593311752446,0.0422710091229161,-0.000133117423446436
8088934597696,0.0176809691829289,-0.00051501916333341,263.880931551386,0,-2.75181336753744,0.000826943625658822,-0.0521379185052663,0.000342799360181114,0.0422726622203457,-7.76069926427507E-05
8088945700128,0.0176890536744507,-0.00115329817063585,263.880931551386,0,-2.7518219186102,0.000554251812926073,-0.0521449534073408,0.000200396624867856,0.0422725451868993,-3.87518956005696E-05
8088953051744,0.0176930426889621,-0.00137506712540659,263.880931551386,0,-2.75181382162403,0.000943414148963207,-0.0521595866551609,-0.000433738541563273,0.0422698329367804,-0.000128734173723634
8088962736384,0.017700052423193,-0.000609338628178523,263.880931551386,0,-2.7518050292408,0.000825183031017349,-0.0521612626730986,-0.000109696604658845,0.0422779755388096,0.000315678452131778
8088973793888,0.0177100434816545,-0.000507392805443014,263.880931551386,0,-2.75181220432494,0.000416294156900302,-0.0521628024511245,-2.89477780829483E-06,0.0422795964520414,0.00039880692048044
8088983554464,0.0177100434816545,-0.000462216811271121,263.880931551386,0,-2.75181220432494,0.00023510025509632,-0.0521628024511245,4.44330927986831E-05,0.0422749151141877,0.000139660117404472
8088994116320,0.0177140955664725,0.000349652336146806,263.880931551386,0,-2.7518216390405,-9.49459173384503E-05,-0.0521690014151371,-0.000354405617336567,0.0422649438645595,-0.000366354108690566
8089003675936,0.0176963993326463,-2.45931000216986E-05,263.880931551386,0,-2.75182313670108,0.000194641808862037,-0.052168837473484,-0.00038014803602632,0.0422728055863174,-4.95335947016139E-05
8089014336864,0.0176963993326463,-0.000190435203106884,263.880931551386,0,-2.75182313670108,0.000322968924971802,-0.052168837473484,-0.000391555461318437,0.042271597215984,-0.000109277346125809
8089025047488,0.0177041030208354,0.000208335876238806,263.880931551386,0,-2.75183034954852,6.40036681250208E-05,-0.052168848011591,-0.000220469541387599,0.0422574537239936,-0.000652263257954246
8089034682144,0.0177041030208354,0.000385046206030141,263.880931551386,0,-2.75183034954852,-5.07534903353654E-05,-0.052168848011591,-0.00014465499289216,0.0422765652857812,0.000280202608706217
8089045437376,0.0177057101584866,0.000599933141813756,263.880931551386,0,-2.75182905722338,0.000400503945566874,-0.052170108493723,0.000306486462564866,0.0422786075194198,0.000428129223836357
8089058372256,0.0177201622523146,0.000985459365476969,263.880931551386,0,-2.75183355530871,0.000313222719767985,-0.0521663166717596,-9.78789289201906E-05,0.0422768988311032,0.000365053674522263
8089065162560,0.017729308999842,9.63353692958387E-05,263.880931551386,0,-2.7518361987457,-0.000466988365857334,-0.0521723673195618,2.24363339944783E-05,0.0422610759091579,-0.000389535974308319
8089075520800,0.017729308999842,-0.00029766861626991,263.880931551386,0,-2.7518361987457,-0.000812728980933852,-0.0521723673195618,7.57525118463617E-05,0.0422713046323681,8.18473292697916E-05
8089085711296,0.017730882798397,-0.000545214668193807,263.880931551386,0,-2.75183696956785,-0.000284593208452799,-0.0521717766634787,0.000295000362953322,0.0422610115407624,-0.00040033779853337
8089093464192,0.0177362434037194,2.02061162310386E-05,263.880931551386,0,-2.75183672571074,-3.66264000957318E-05,-0.0521663160763272,0.00011460669238177,0.042270675577594,0.000114002274366607
8089104111552,0.017765021345419,-7.41738712024501E-05,263.880931551386,0,-2.75183423101976,0.000180354306487828,-0.0521612580554515,0.000303302036229212,0.0422816796473863,0.00066208822113197
8089114433152,0.0177794032280858,2.14081837093878E-05,263.880931551386,0,-2.75182888438925,0.000429074219836497,-0.0521687723145483,-7.32124537471528E-05,0.0422798597772957,0.000554741118622841
8089124410560,0.0177764517920521,8.7377694614701E-05,263.880931551386,0,-2.75183122917136,0.000526849613821529,-0.0521708287333305,9.4313351316108E-05,0.0422703566614528,-0.00022091815069915
8089134591872,0.0177764517920521,0.000116611243966823,263.880931551386,0,-2.75183122917136,0.000570177535557785,-0.0521708287333305,0.000168550280207395,0.0422535448068858,-0.000777425057159856
8089145625056,0.017774937641973,-9.89272485737418E-05,263.880931551386,0,-2.75183022611857,0.00055471170281833,-0.0521750274717844,0.0001279678460782,0.0422648443861301,-3.08047088540567E-05
8089154732768,0.0177881953627057,0.000773148345280448,263.880931551386,0,-2.75184007471511,0.000208572372220394,-0.0521985253218108,-0.000944431800998345,0.0422606545887511,-0.000224687096262289
8089164393664,0.0177563926426836,0.000382397610985992,263.880931551386,0,-2.75183425774122,0.000184738664935583,-0.0521943491090432,0.000175601297753294,0.0422647566110453,-8.77469807282411E-05
8089174143488,0.0177705257511431,0.000741401857825922,263.880931551386,0,-2.75183831869561,9.27576593794322E-05,-0.0521854180636399,0.00118186109117883,0.0422735516745379,0.000330058776844309
8089183822016,0.0177705257511431,0.00090049002179124,263.880931551386,0,-2.75183831869561,5.19974471468004E-05,-0.0521854180636399,0.00162777231484067,0.0422613070502144,-0.000267471986996151
8089193923008,0.0177641565018518,-0.000418940425597852,263.880931551386,0,-2.7518357702594,0.000310982483035665,-0.0521908584437339,0.000844344465858225,0.0422698709726504,0.000169786929449977
8089203661920,0.0177775705486012,0.00023031793123285,263.880931551386,0,-2.75184148559538,0.000256174730135042,-0.0522012416183456,0.000371732138659161,0.0422547502513831,-0.000596798676203215
8089214152320,0.0177779996293282,-0.000749614506162205,263.880931551386,0,-2.75184408176556,0.000326005710099006,-0.0522052756603104,5.75167932364174E-05,0.0422755675756511,0.000503224327027401
8089224292448,0.0177732852089023,-0.000910097203822831,263.880931551386,0,-2.75184560028204,-0.000428709468714306,-0.0522114315742806,0.000672365375292659,0.0422745464588318,0.00040114739511346
8089234725184,0.0177732852089023,-0.000981213069286155,263.880931551386,0,-2.75184560028204,-0.000763151897100676,-0.0522114315742806,0.000944827701008876,0.0422745932722103,0.000352549256520205
8089243569248,0.0177697121367434,-0.000457250848808289,263.880931551386,0,-2.75182980316664,0.000308671241342468,-0.0522066146208483,-1.19337706711628E-05,0.0422661844190907,-2.95704374416981E-05
8089253580928,0.0177740936406116,-0.000199016792219961,263.880931551386,0,-2.75183079852816,0.000649527521600213,-0.0522014369230103,0.000698093864749061,0.0422669480623281,2.55650991747108E-05
8089263044896,0.0177795092661862,-3.24671034179947E-05,263.880931551386,0,-2.75182470878972,0.00076210104977909,-0.0522069717654749,0.000339781762093728,0.0422600343114854,-0.000291655914353798
8089273577472,0.0177761409325322,-0.00037054796324957,263.880931551386,0,-2.75182644582809,6.56510855084584E-05,-0.0521963709166707,0.000125994206547742,0.0422666232945145,-1.96482241416873E-05
8089284507616,0.0177761409325322,-0.000520364194494329,263.880931551386,0,-2.75182644582809,-0.000242971854428314,-0.0521963709166707,3.1256971571218E-05,0.0422797134854877,0.00057756622652306
8089294047904,0.0177710779123764,5.45602772557856E-05,263.880931551386,0,-2.7518249398495,-4.85492995750094E-05,-0.0521977752849996,-0.000329707069266278,0.042269420393882,6.38917813491488E-05
8089303338080,0.0177701999689365,0.000343403395633996,263.880931551386,0,-2.75182281813142,0.000106309370349637,-0.0522016080042879,-7.33834155617468E-05,0.0422640397811865,-0.000210968570544914
8089314295296,0.0177573022721425,-0.000330455189613761,263.880931551386,0,-2.75182105609209,3.66428497553642E-05,-0.0521988904970288,-6.88506714764401E-05,0.0422589312712537,-0.000502312370469322
8089323592832,0.0177674151296769,0.000271027952409244,263.880931551386,0,-2.75182195557147,0.000369422913834669,-0.0521949429700946,-0.000299739820466822,0.0422621643202089,-0.000375508460006043
8089334152256,0.0177674151296769,0.000537567553438518,263.880931551386,0,-2.75182195557147,0.000516890164889898,-0.0521949429700946,-0.000402055408975088,0.0422605960720279,-0.000432787193038043
8089344226272,0.0177660687558789,-0.000154757183116826,263.880931551386,0,-2.75182626003869,-8.71765497572876E-05,-0.0522047698830174,-0.000847712367090238,0.0422717230269388,0.000184189386512981
8089354094848,0.0177535097807358,-0.000587380788048166,263.880931551386,0,-2.75183235469123,-8.13755421975381E-05,-0.0522006105062523,-0.000374302433225189,0.0422650257879719,-0.000151628945954223
8089364147104,0.0177597855238365,0.000501857740712689,263.880931551386,0,-2.75182296733713,0.000277060085138877,-0.0521902867784192,-0.00031827954738311,0.0422692331403679,1.26732229798919E-05
8089373289184,0.0177686733584955,0.000688378141358256,263.880931551386,0,-2.75182477269852,0.000824649948571543,-0.0521900408879503,-0.00021584646277053,0.0422668690647518,-0.000135533199787503
8089383668896,0.0177686733584955,0.00077103228359187,263.880931551386,0,-2.75182477269852,0.00106730742893936,-0.0521900408879503,-0.000170454544697803,0.042267278681814,-0.000177712808166068
8089393658944,0.0177733797818134,0.000292128425115753,263.880931551386,0,-2.7518153610228,0.00095631430157441,-0.0521811872400261,-0.000127356743954441,0.0422680979159384,-3.46924768666281E-05
8089402890304,0.0177684393456863,-0.000494747177640633,263.880931551386,0,-2.75182492389029,0.000691895055715273,-0.0521709397821491,-0.000143036723855908,0.0422685309396898,8.70131530185144E-06
8089413263232,0.017772920413471,-9.7847169860025E-05,263.880931551386,0,-2.75182940393122,0.000519419630828514,-0.0521761156934406,0.000188315236166348,0.042269309212108,-1.64334702342834E-06
8089423683712,0.0177669084705279,0.000346169065650192,263.880931551386,0,-2.75182364012232,0.000854310066489552,-0.0521698771236573,0.00038010361815511,0.0422603268951013,-0.000389378802047178
8089433848864,0.0177669084705279,0.000542929210689947,263.880931551386,0,-2.75182364012232,0.00100271250185855,-0.0521698771236573,0.000465092199290406,0.0422667052179269,-5.56762048516968E-05
8089443490752,0.0177586588291511,-0.000304883024394551,263.880931551386,0,-2.7518225365518,0.00104034813790638,-0.0521715559962219,0.000179685849963157,0.0422636447933051,-0.000221082860417114
8089452805312,0.0177433745810261,-0.000584020173234676,263.880931551386,0,-2.7518251932078,0.000900163980504725,-0.0521747358335124,-0.000171135423566876,0.0422661756415822,-9.57071251573507E-05
8089467625376,0.0177482973369649,0.000453581711392651,263.880931551386,0,-2.75182414105888,0.000812182158891331,-0.0521700533910803,-8.60392735649167E-05,0.0422732269067243,0.00023879826690633
8089472843520,0.0177523276878696,0.000160587160309943,263.880931551386,0,-2.75181870179168,0.000821548215304169,-0.0521749033410199,0.000163082600735888,0.042273850109826,0.000196351717408596
8089485212992,0.0177523276878696,3.07503531025529E-05,263.880931551386,0,-2.75181870179168,0.000825698664028466,-0.0521749033410199,0.000273477789469643,0.0422672084617462,-0.000150599430213617
8089492834240,0.0177548366510817,0.000384137376885486,263.880931551386,0,-2.75181326499781,0.000635648882278729,-0.0521693795384051,-7.20340770606721E-06,0.042265894761311,-0.000193801232599238
8089503534464,0.0177706082023773,0.000217689104057394,263.880931551386,0,-2.75181667227959,0.000620287947669844,-0.052147441645138,0.00067316652339777,0.0422684285354243,-7.80843953856341E-05
8089513622400,0.017768445928178,-0.000340369382042751,263.880931551386,0,-2.75181696531392,0.000333220615944756,-0.0521431597934394,0.000324763264296599,0.0422628899275762,-0.000371181884072504
8089523780384,0.0177873201075423,-0.000182071274386579,263.880931551386,0,-2.75181787053958,0.000230616482277775,-0.0521432034733604,5.74393948563959E-05,0.042267869700718,-0.000103956124475569
8089533031680,0.0177873201075423,-0.000111923482186691,263.880931551386,0,-2.75181787053958,0.000185148765993043,-0.0521432034733604,-6.1021776418573E-05,0.0422728143638259,7.54799297563294E-05
8089544026656,0.0177830826466513,-0.000543509630355045,263.880931551386,0,-2.75180870346807,0.000863339584370551,-0.05214832608769,-0.000166617362191382,0.0422798275930979,0.000404495728870715
8089553740064,0.0178001722265499,2.40451035693475E-05,263.880931551386,0,-2.75180589966935,0.000475671543843645,-0.0521545146667734,-9.69931904238674E-05,0.042280474202889,0.000133215857546611
8089562703776,0.0178075941100278,0.000302453081285589,263.880931551386,0,-2.75180170858817,0.000452360839827353,-0.052154983963639,-0.000340736184037301,0.0422790815048775,0.000105467958878111
8089572769664,0.0178062267310038,0.000404859759466134,263.880931551386,0,-2.7518108501335,6.96968030333221E-05,-0.0521501359925022,0.000106570124529817,0.0422734902319785,-0.000151614332488371
8089583073152,0.0178062267310038,0.000450239975864504,263.880931551386,0,-2.7518108501335,-9.98758957995767E-05,-0.0521501359925022,0.000304788223581373,0.0422788357346402,0.000137493038565512
8089594384768,0.0178090323491793,0.000751134172580581,263.880931551386,0,-2.75180556674822,0.000382827984534647,-0.0521422673187114,0.000641653879188144,0.0422750526284872,-4.71638159908186E-05
8089603996928,0.0178261261271332,0.000146035469985673,263.880931551386,0,-2.75181295201008,0.000313415527207435,-0.0521446952770949,0.000284967502916924,0.0422749443725493,-6.58580732530991E-05
8089613987840,0.0178396743201047,0.000769104653435067,263.880931551386,0,-2.75181263836353,0.000165618475624819,-0.0521521572173286,0.00034818078725513,0.0422786250744368,0.000160376709262249
8089624352416,0.0178418380742211,0.000789787093932514,263.880931551386,0,-2.75180921556258,-0.000174604687177912,-0.0521500448090559,0.000315278656706033,0.0422745230521425,3.27394780163869E-06
8089634700736,0.0178418380742211,0.000798952254272603,263.880931551386,0,-2.75180921556258,-0.000325370252725366,-0.0521500448090559,0.000300698496204654,0.0422803425402618,0.000286712541299611
8089644099360,0.0178328288757412,0.000722573467656046,263.880931551386,0,-2.75181070659217,-0.000367894566875397,-0.0521481600896383,0.000248651391208869,0.0422753598412838,-4.47947801681103E-06
8089655501408,0.0178479791876615,0.000620391505633503,263.880931551386,0,-2.7518150425528,-0.000433847967424326,-0.0521474267253104,-0.000102567791863547,0.0422699294893736,-0.000216178375411341
8089665668800,0.0178464368417699,-0.000163470362896613,263.880931551386,0,-2.75180368749482,0.000505210785593941,-0.0521486701072622,0.000507616599249308,0.0422696544607747,-0.000221192523556452
8089674092736,0.0178326353925389,-0.000280697570141673,263.880931551386,0,-2.75181696806537,0.000212235363499353,-0.0521507304866268,0.000247460840191832,0.0422788562154933,0.000220968961387047
8089684504768,0.0178326353925389,-0.000332645315416435,263.880931551386,0,-2.75181696806537,8.24070330596474E-05,-0.0521507304866268,0.000132176125824898,0.042281287585341,0.000365697267044761
8089694935936,0.0178421264349353,0.000665631405662045,263.880931551386,0,-2.7518203755083,-0.000247074894679809,-0.0521553538545808,-0.000610782441462386,0.04227152407008,-0.000109771252413274
8089703926016,0.0178434473513652,0.000949691961333843,263.880931551386,0,-2.75182633600131,-2.19658774754421E-06,-0.0521591087834162,-0.000274561842195827,0.0422791107632391,0.000212889976293462
8089713973888,0.0178618289581293,0.000360819212886218,263.880931551386,0,-2.75182097457293,-3.7977409434931E-05,-0.0521584594844436,-0.00020179639472106,0.0422778468020186,0.000133085963564577
8089725524768,0.0178618289581293,9.98677473134064E-05,263.880931551386,0,-2.75182097457293,-5.38332252853625E-05,-0.0521584594844436,-0.000169551312550661,0.0422712461156449,-0.000235999134596948
8089735065024,0.0178642799236933,0.000268025909161495,263.880931551386,0,-2.75182439908171,-0.000181908364087017,-0.0521448352387069,0.000196977757450513,0.0422773025964931,1.1018241096825E-05
8089744914336,0.0178745048317228,0.00078030341165365,263.880931551386,0,-2.75182086596043,6.49956235227662E-05,-0.0521446378828529,0.00073002896399747,0.0422644464724125,-0.000572281992127772
8089753712480,0.01785918097644,-0.000126082092872672,263.880931551386,0,-2.75183001295041,-4.21030861396478E-05,-0.0521327161724986,0.000636944855196135,0.0422815596881038,0.000267579325752956
8089763290272,0.017867108652155,-0.000455255636597724,263.880931551386,0,-2.75181994992424,0.000956828301095019,-0.0521186776681728,0.000669095064064919,0.0422781393856345,0.000118897443984357
8089773460608,0.0178663039665255,-0.000594501176383182,263.880931551386,0,-2.75181989029872,0.00068943794110724,-0.0521178778138657,-0.000134244417069569,0.0422708452760912,-0.000176882670730369
8089783409312,0.0178663039665255,-0.000656206065558783,263.880931551386,0,-2.75181989029872,0.000570947305392148,-0.0521178778138657,-0.000490234086326935,0.0422671821292207,-0.000354091421471851
8089793320704,0.0178602974890319,9.06343730628392E-05,263.880931551386,0,-2.75182414641905,8.20057362662572E-05,-0.0521263189857017,-0.000493314634419623,0.0422773025964931,0.000176872887465714
8089803934880,0.0178486350065398,-5.9848250221637E-05,263.880931551386,0,-2.75182649841251,0.00015679855100132,-0.0521235048183842,-0.000675518397148074,0.0422784729309565,0.000118979744555363
8089813890080,0.0178350242072485,-1.88289520710981E-05,263.880931551386,0,-2.75182717575239,-5.14492877471201E-05,-0.0521101220671673,-0.000233913293652166,0.0422669860981981,-0.000442448018307336
8089823416448,0.0178058572471817,9.5736755984263E-06,263.880931551386,0,-2.75182975185542,0.000167072565645036,-0.0521056895096457,-0.000305215609896741,0.0422631122911242,-0.000508411040217682
8089834768544,0.0178058572471817,2.21599386510465E-05,263.880931551386,0,-2.75182975185542,0.000263907744472201,-0.0521056895096457,-0.000336812324079572,0.0422735838587356,3.98943360449427E-05
8089843926464,0.0177901344007415,0.000261372453957251,263.880931551386,0,-2.75182965708253,0.000136315195269271,-0.0521144670615699,0.000495396235906546,0.0422756933866059,0.000190324395632165
8089853080992,0.0177933525786915,0.000301224763134092,263.880931551386,0,-2.7518337552051,0.0000469459058716001,-0.0521169638141357,0.000522084408431752,0.0422715328475885,-3.60548732587635E-05
8089864241856,0.0177901719513767,0.000498198963930503,263.880931551386,0,-2.75183610657664,0.000546492161503274,-0.0521189407686398,0.000363888589697794,0.0422745991238826,1.32564493271818E-05
8089874144576,0.0177929174425235,0.000240210343380348,263.880931551386,0,-2.7518395232076,0.000402533479548265,-0.0521186193548599,1.15569369865681E-05,0.0422826276183016,0.000388275504661842
8089884225984,0.0177929174425235,0.000125885968867951,263.880931551386,0,-2.7518395232076,0.000338740021390928,-0.0521186193548599,-0.000144574351793664,0.0422767408359507,0.000166153320952741
8089893006176,0.0178153784930595,-3.14571013704135E-05,263.880931551386,0,-2.75184512152592,0.000231452576258128,-0.0521169054439198,-0.000228559988463725,0.0422699060826843,-0.000212177423755645
8089903240832,0.0178021536256109,-8.41307448115212E-05,263.880931551386,0,-2.75185004700366,0.000707624944792808,-0.0520974339792148,0.000190032717647236,0.0422704766207352,-0.000157619742637809
8089913511392,0.0177889871456695,0.000147174429202543,263.880931551386,0,-2.75184624156483,0.000321803721089916,-0.0520977464372554,3.79708828497609E-05,0.0422747571190352,0.000109392079476343
8089923366688,0.0177768583852189,0.000387152023033995,263.880931551386,0,-2.75184986274414,0.00037148604327162,-0.052100171657434,0.000423551474747423,0.0422748741524815,0.000114389796222734
8089934507616,0.0177768583852189,0.0004934950402309,263.880931551386,0,-2.75184986274414,0.000393502132181412,-0.052100171657434,0.000594416607863829,0.0422729255455999,3.66288114513072E-07
8089944256640,0.0177827619493176,-0.000417409900667818,263.880931551386,0,-2.75185236045229,0.000101287971737155,-0.0521091023996058,0.00016822166735794,0.0422818376425388,0.000398155693354216
8089953085856,0.017780373273485,-0.000597735679681813,263.880931551386,0,-2.75184785157374,0.000395811245606579,-0.0521268212587992,0.000388472138464347,0.0422738647390068,3.03214001508807E-05
8089963174240,0.0177650598506026,-0.000636502603949663,263.880931551386,0,-2.75185177752228,-0.000126420728816784,-0.0521160931377125,0.000111830661934664,0.0422760971519958,0.00017559096549709
8089972897056,0.0177543923530963,-0.000713707959602575,263.880931551386,0,-2.75186017722727,-0.000516879685381981,-0.0521253314378988,-0.0011926984699376,0.0422748244132668,0.000109743191422993
8089984968096,0.0177543923530963,-0.000747920530588086,263.880931551386,0,-2.75186017722727,-0.000689906603727789,-0.0521253314378988,-0.00177078395571004,0.0422742772819052,9.96618536376659E-05
8089993345632,0.0177548037649289,-0.000457036334085834,263.880931551386,0,-2.75185209967451,-5.67955799055271E-05,-0.0521310709254161,-0.000494870571513049,0.0422705000274245,-7.69708861463619E-05
8090004135936,0.017758502607644,5.09024279406249E-05,263.880931551386,0,-2.75185797135695,-6.56285277208968E-05,-0.052137862501962,-0.00027321237700039,0.0422738149997921,0.000103147222210114
8090013606976,0.0177631530106575,-0.000746212472783585,263.880931551386,0,-2.75185028670777,0.000420255553154983,-0.0521389163245936,-0.000214628322611747,0.0422753773963008,0.000139385553467782
8090023433376,0.0177633785378769,-0.000418324591306675,263.880931551386,0,-2.75185329414597,0.000563497121635612,-0.0521433543687045,-0.000542377900841399,0.0422563243512364,-0.000824037467325266
8090035266144,0.0177633785378769,-0.000273025248722861,263.880931551386,0,-2.75185329414597,0.000626972800081434,-0.0521433543687045,-0.000687615956100982,0.0422605843686832,-0.000390900373998186
8090043743904,0.0177624538924843,-0.000102513928553351,263.880931551386,0,-2.75185147895643,0.000284315623777633,-0.0521530240976338,-0.000132944753350116,0.0422660937181698,-0.000150120561695393
8090053814560,0.0177657518191779,0.000466237412728571,263.880931551386,0,-2.75186285744655,-9.46603232240888E-05,-0.0521538585224711,0.00040111171723355,0.0422755617239788,0.00032390333187389
8090063803552,0.0177717548134187,0.000381447758156926,263.880931551386,0,-2.75186791502568,-0.000633892610350955,-0.0521460537553858,0.000169688055064966,0.0422798188155895,0.000485083985873664
8090074066880,0.0177726487920178,-8.29285501600203E-05,263.880931551386,0,-2.75187132815416,-0.000458428403702679,-0.0521363079621311,-3.68452990451123E-05,0.0422653651849663,-0.00020254968843611
8090083355616,0.0177726487920178,-0.000288711002399575,263.880931551386,0,-2.75187132815416,-0.000380673673158358,-0.0521363079621311,-0.000128367926958818,0.0422710061970799,6.26901998698857E-05
8090100564736,0.0177673812136615,-0.000848547167138962,263.880931551386,0,-2.75187418040621,-5.5836788784858E-05,-0.052128756359025,2.69575424881614E-05,0.0422608593972821,-0.000401235890228208
8090103376000,0.0177589643346511,-0.00137327933346024,263.880931551386,0,-2.75187830975751,0.00025007320234367,-0.0521242773010843,-0.000259488116086698,0.0422657221369776,-0.000171063994073416
8090114986592,0.017774080818156,-0.000178258167043463,263.880931551386,0,-2.75188097923862,0.000249272240567605,-0.0521190778913174,-2.84792174140324E-05,0.0422677292605824,0.000103172766131264
8090123850752,0.0177881059612311,0.000292333592861967,263.880931551386,0,-2.751879232888,-5.68011840162662E-05,-0.0521330833079704,-0.000358156283870706,0.0422649380128871,5.36024041838608E-06
8090133498656,0.0177881059612311,0.000500870343386657,263.880931551386,0,-2.751879232888,-0.000192433727598225,-0.0521330833079704,-0.000504248481012455,0.0422608828039714,-0.000222083296375001
8090143086432,0.0178033791047524,0.000100689581667379,263.880931551386,0,-2.75187804737141,0.000477554993715307,-0.0521388652716828,-0.000861502788790004,0.0422685250880175,0.000190081109069732
8090153726496,0.0178045640486669,0.000309414420324435,263.880931551386,0,-2.75187280883507,0.000861307318146567,-0.0521426392557428,-0.000570624781659725,0.0422718049503512,0.000384444413652952
8090163080736,0.0177924006484945,0.000313634396767939,263.880931551386,0,-2.75187181373484,0.000626542219098432,-0.052138907600523,-0.000483563749832891,0.0422734638994531,0.000332461482640935
8090173577600,0.0177754985842084,-0.000817423760348332,263.880931551386,0,-2.75187512337029,0.000720338390716398,-0.0521443416974318,0.000116333276679228,0.0422678784782265,8.88746591291444E-05
8090184838176,0.0177754985842084,-0.00131863779092734,263.880931551386,0,-2.75187512337029,0.000761902970692889,-0.0521443416974318,0.000382170010801817,0.0422709593837014,0.000189634984772578
8090193691872,0.0177705943811608,-0.00116116246069714,263.880931551386,0,-2.75187839662411,8.12797743532032E-05,-0.0521384211168341,0.000585153892945032,0.0422665647777913,-8.97808968775842E-06
8090204129568,0.0177759960379878,-0.000391732476227773,263.880931551386,0,-2.75187575775129,0.000385517059343589,-0.052143910153965,-0.000220269290403164,0.042264917532034,-0.000155487522393706
8090213194048,0.0177720197513535,0.000278187117066512,263.880931551386,0,-2.7518855688057,0.000311297323554449,-0.0521397948923403,-0.000189777077264998,0.0422712022281026,0.00016855067795514
8090224973760,0.0177747087097345,0.000211945262833983,263.880931551386,0,-2.75188159463051,0.000208555299262698,-0.0521534789422092,-0.000271781560511859,0.0422658859838025,-6.73649987011641E-05
8090235051712,0.0177747087097345,0.000182591028001741,263.880931551386,0,-2.75188159463051,0.000163026478502139,-0.0521534789422092,-0.000308120803825838,0.0422650257879719,-0.000123317962402406
8090243820640,0.0177703367415016,0.000140060949806663,263.880931551386,0,-2.75188462772857,-0.000220619075234622,-0.0521539664440318,-0.000185432538631663,0.0422702103696448,7.37828333511664E-05
8090253653152,0.0177686685725118,2.48256512335972E-05,263.880931551386,0,-2.75188832529216,0.000306682123817019,-0.0521420770330036,-0.000444767728387358,0.0422691921786617,1.1018184665903E-05
8090263123488,0.0177471793505243,-0.000499258498642592,263.880931551386,0,-2.75188512321022,0.000780879515639606,-0.0521483299849839,-0.000503741418271006,0.0422708247952381,8.0493958610757E-05
8090273701024,0.0177274691155683,-0.000666708536731278,263.880931551386,0,-2.75188796130235,8.41810309468841E-05,-0.0521652334435389,-0.000523727928918552,0.0422690634418707,3.58017884310503E-05
8090284007008,0.0177274691155683,-0.000740911890451852,263.880931551386,0,-2.75188796130235,-0.000224552037652728,-0.0521652334435389,-0.000532584696800769,0.0422742772819052,0.000293950135631609
8090293692160,0.0177146072945627,-0.000425057799433858,263.880931551386,0,-2.75188688329558,-0.000194409729780219,-0.0521869990294273,-0.0010414422276564,0.0422753188795776,0.000413781407085056
8090304230336,0.0177024074820427,-0.000123561245079444,263.880931551386,0,-2.75188308491534,0.000234123495622702,-0.0521936407213701,-0.000969418187866676,0.0422630771810903,-0.000199755480617567
8090313823488,0.0176967534464384,0.000598843902503659,263.880931551386,0,-2.75189102380127,-0.000376581338302109,-0.0521979730206753,-0.000694390746095729,0.0422740724733741,0.000320352148238552
8090323741056,0.0177195236150166,0.000335033585519891,263.880931551386,0,-2.75188621879329,-5.82731563325639E-05,-0.0521887870305574,-1.86764050296121E-05,0.0422632527312598,-0.000236366828484303
8090334267264,0.0177195236150166,0.000218129400309043,263.880931551386,0,-2.75188621879329,8.27810643080395E-05,-0.0521887870305574,0.000280757807327139,0.0422827563550926,0.000622757436061187
8090343138464,0.017711131703208,-0.000124418936429855,263.880931551386,0,-2.75187890348585,0.000337466025975526,-0.0521931698712085,-0.000212267938122723,0.0422791400216007,0.00046034792426741
8090353498752,0.0176923518261219,-0.000447434733094915,263.880931551386,0,-2.75188256823608,-0.000259206035057819,-0.0521891400934889,-0.000404180649697765,0.0422714216658144,5.35158920088528E-05
8090363938688,0.017693109385919,0.000453621927109486,263.880931551386,0,-2.7518798096766,0.000325076150108453,-0.0521994220945634,-0.00074881275581427,0.0422695900923792,4.78607293057698E-06
8090373771968,0.0177066281643447,5.11386269529897E-05,263.880931551386,0,-2.75188669766458,-0.000102353511681638,-0.0522111415429078,-0.000380049319722206,0.0422589166420729,-0.000513591671011749
8090385780992,0.0177066281643447,-0.000127216726255821,263.880931551386,0,-2.75188669766458,-0.000291763527627274,-0.0522111415429078,-0.000216636495217135,0.0422719892780292,8.88453207642266E-05
8090393487296,0.0177125415043617,0.000527421567093593,263.880931551386,0,-2.7518904686018,-0.000127132545545568,-0.0522136030157715,0.000643811993707275,0.0422797632247024,0.000483674149826906
8090404040064,0.0177351302436746,0.000772288588842976,263.880931551386,0,-2.75189386817647,-0.00046102135701949,-0.0522081384614538,0.000397676800933504,0.04227248374434,0.000134418907658477
8090414082368,0.0177471665847844,0.00081401226059433,263.880931551386,0,-2.75189731104756,-0.000622366437590508,-0.0522144594034164,-6.55031770924299E-05,0.0422664828543789,-0.000111823155026112
8090423724736,0.0177471665847844,0.000832501574832928,263.880931551386,0,-2.75189731104756,-0.000693864457067487,-0.0522144594034164,-0.000270755490785802,0.0422654354050341,-0.0001973618009112
8090434869920,0.0177359829121344,-0.000348495707615778,263.880931551386,0,-2.75189600985947,0.000404080431402659,-0.0522173986417356,-0.000252196621692471,0.0422706697259217,6.16058232726764E-05
8090444776960,0.0177541604773492,-0.000643414444090283,263.880931551386,0,-2.75188943057001,0.000250054433444217,-0.0522174769736925,-0.000209395659254086,0.0422721589765264,0.000213434790415728
8090453543840,0.0177560038301946,-0.000596233130705767,263.880931551386,0,-2.75188743616984,0.000199545121551474,-0.0522293118325129,-0.000832028999990424,0.0422733234593175,0.000274021548383101
8090462991616,0.017735346493538,-0.000303661918612909,263.880931551386,0,-2.75188431489339,0.00058800949175687,-0.052238698948311,-0.000493542265524416,0.0422676239304807,2.51864862611061E-05
8090474253888,0.017753868702222,-0.00054922341535734,263.880931551386,0,-2.75189476286482,0.000280294620829309,-0.0522369284172496,-0.00077271226558162,0.0422660117947573,5.56417462735007E-07
8090484319296,0.017753868702222,-0.000658040868079746,263.880931551386,0,-2.75189476286482,0.000143934691186144,-0.0522369284172496,-0.000896422898907639,0.0422699997094414,0.000196918453158272
8090493567136,0.0177555971122399,-0.00011699184816962,263.880931551386,0,-2.75190114284162,-0.000313011346167604,-0.0522562315061363,-4.91546702342025E-05,0.0422680569542321,9.36327858956514E-05
8090503283936,0.0177526274990278,-0.00034214043645249,263.880931551386,0,-2.75190496115807,-0.000155164468369603,-0.0522862527642071,-0.000707479074281526,0.0422729109164191,0.000232867848452026
8090513507840,0.0177544871397121,-0.00027967271675696,263.880931551386,0,-2.75190291442504,-4.8617927816273E-05,-0.052286764403934,0.000271601503514167,0.04226960472156,6.98164852797058E-05
8090524113248,0.0177451022582011,-0.000571745998496809,263.880931551386,0,-2.7518996748027,5.63406825678686E-05,-0.0522841330861351,0.000623427157045021,0.0422751462552443,0.000299748828599018
8090534695168,0.0177451022582011,-0.000701174556917275,263.880931551386,0,-2.7518996748027,0.00010285175525111,-0.0522841330861351,0.000779334218726877,0.0422692331403679,-1.35168144581488E-05
8090544082656,0.0177351792635849,-0.000387897913596255,263.880931551386,0,-2.75190560223854,-2.85573435644698E-05,-0.0522957928361708,-0.000102349386412635,0.0422706258383793,8.09365036516772E-05
8090554838176,0.0177322211299978,-0.000436028317350923,263.880931551386,0,-2.75190033300998,0.000573424266510183,-0.0523173365642774,-0.000334353451120279,0.0422742275426905,0.000214725831157043
8090564340960,0.0177389408121728,-5.43134123875465E-05,263.880931551386,0,-2.75190508246162,0.000384986391733668,-0.0523330667089782,-0.000351358296274869,0.0422713338907297,4.26263084139863E-05
8090573092192,0.0177178240484526,0.000209106552391883,263.880931551386,0,-2.75190721071489,0.000205998672998591,-0.0523333289050164,-0.000446737660669416,0.0422683787962096,-0.000124073218147554
8090585544544,0.0177178240484526,0.000325837757990276,263.880931551386,0,-2.75190721071489,0.000126682542906681,-0.0523333289050164,-0.000489003812380075,0.0422770217162219,0.000265267783753667
8090593006880,0.0177122185957678,-0.000342082577363174,263.880931551386,0,-2.75190734312077,0.000335778503269889,-0.0523269463974046,0.000465462972686451,0.0422668105480286,-0.000210612187128686
8090604218304,0.0177171662866102,-0.00021475763557326,263.880931551386,0,-2.75190571158674,-0.000141460097850629,-0.0523315932377259,0.000384524499341677,0.0422797778538832,0.000479471900500639
8090613888896,0.0177198086757208,-0.000436645081565553,263.880931551386,0,-2.75190738400183,4.5534003077614E-05,-0.0523350164526275,0.0012283820075305,0.0422636272382881,-0.000517554312500244
8090624806592,0.0177306942527692,0.000255641400377545,263.880931551386,0,-2.75189855439536,-2.96047325089777E-05,-0.0523585458196818,0.000718516715443808,0.0422707077617918,-0.000138078871539235
8090634071680,0.0177306942527692,0.00056241934609762,263.880931551386,0,-2.75189855439536,-6.29015071080709E-05,-0.0523585458196818,0.000492576398855077,0.0422694730589329,-0.00019525703609644
8090642799872,0.0177394088990871,-0.000145740711521054,263.880931551386,0,-2.75189789806925,0.000108245555825821,-0.0523547476102112,0.000403359047405087,0.0422684402387689,-0.000266380467244258
8090654158944,0.0177452907111128,-0.000111571809398619,263.880931551386,0,-2.75190113451956,-0.00016309533099861,-0.0523574514262853,0.000358854577732454,0.042272890435566,3.8934196051258E-05
8090664375808,0.0177390579355344,0.000114011746291096,263.880931551386,0,-2.75190713506954,-9.74713992281829E-05,-0.0523519263915344,0.000527704365459722,0.0422747571190352,5.18846754907087E-05
8090674969408,0.0177390579355344,0.000213976228637307,263.880931551386,0,-2.75190713506954,-6.83909888724873E-05,-0.0523519263915344,0.000602528000422018,0.0422693267671249,-0.000212477433395108
8090684512192,0.017743963270595,0.000774571907408087,263.880931551386,0,-2.75190301321417,0.000544814357680046,-0.0523665114798871,-2.0032871781369E-05,0.0422675712654298,-0.000327444532771979
8090694109920,0.0177344051292571,0.000652449107944452,263.880931551386,0,-2.75190487821881,8.2302908029753E-05,-0.052355073110495,0.000401601223028935,0.0422753188795776,6.7837775715653E-05
8090703235616,0.0177322867495186,0.000905517754218738,263.880931551386,0,-2.7519092317126,0.000284999697534091,-0.0523649825459396,0.00032184839351583,0.0422795496386629,0.000369595732288629
8090714193152,0.0177433084062583,0.00115818316516136,263.880931551386,0,-2.75190875702605,0.000434574336626149,-0.0523569800592051,0.00040460610784972,0.0422816299081716,0.000458583216117375
8090724479840,0.0177494701045334,0.000411071053278128,263.880931551386,0,-2.75190076598955,0.000526739277599536,-0.0523623656599732,-0.000216111229266168,0.0422755002814195,5.64526536224761E-05
8090734085600,0.0177494701045334,7.99978272593009E-05,263.880931551386,0,-2.75190076598955,0.000567580998471896,-0.0523623656599732,-0.000491174219112182,0.0422762258887868,6.60329583949101E-05
8090742695328,0.0177504770293251,0.000412068959256818,263.880931551386,0,-2.75190582708111,0.000685838586088901,-0.052351654655089,-2.7126967356301E-05,0.042267702928057,-0.000353180848542834
8090754112832,0.0177533818237086,-0.00011936829126303,263.880931551386,0,-2.75191172285178,0.000722273467883749,-0.0523507507146464,0.000145114845248327,0.0422707721301873,-0.000158442688345372
8090763652224,0.0177376978187983,-0.000799716133592922,263.880931551386,0,-2.75190573132844,0.00145824511817275,-0.0523586942530469,-0.000139895179322862,0.0422756816832613,0.000106532013200245
8090775234752,0.017747708614044,0.000157266624505521,263.880931551386,0,-2.75190600733201,0.00106646971347533,-0.0523566861261793,0.000312889164161587,0.0422778087661485,0.000190827203004682
8090784934752,0.017747708614044,0.000581341356970256,263.880931551386,0,-2.75190600733201,0.000892859427890408,-0.0523566861261793,0.000513534784683453,0.0422804215378381,0.000315542800767068
8090793810144,0.0177419835694583,-7.04473089410494E-05,263.880931551386,0,-2.75191282429503,0.000646646995305001,-0.0523518590272198,0.000189167608358537,0.0422803805761319,0.00031604383878017
8090803436448,0.0177324983795392,-0.000241773302463128,263.880931551386,0,-2.75190983813614,0.000835500788757289,-0.052357253462918,-0.000124217598553895,0.042267407418605,-0.0002977435907871
8090813264448,0.0177331877871868,-0.000493706626042277,263.880931551386,0,-2.75191395345665,7.13883855382184E-05,-0.0523473629821648,-1.19955153536616E-05,0.0422742509493798,0.00010175740431862
8090825043488,0.0177331877871868,-0.000605347672750444,263.880931551386,0,-2.75191395345665,-0.000267218303271926,-0.0523473629821648,3.77342728865551E-05,0.0422775366633858,0.000273855098592656
8090833642144,0.0177319645832915,-0.000996717797444369,263.880931551386,0,-2.75191260256467,0.000122591412782496,-0.0523463769263065,0.00038471159980199,0.0422652422998476,-0.00045139570815739
8090842975904,0.0177353357981282,4.09972856102523E-05,263.880931551386,0,-2.7519087650046,0.000684794893766738,-0.0523398616219423,0.00041535129346563,0.042282727096731,0.000379170571119099
8090854062528,0.0177354202842851,-6.98203818755296E-05,263.880931551386,0,-2.75191120702494,0.000465959994262002,-0.0523232420609108,0.000646606446089991,0.042294723024981,0.000638915339102705
8090864155808,0.0177632384882649,0.000455448483643745,263.880931551386,0,-2.75191250122633,0.000420108596961631,-0.0523141341856296,0.000991318501549718,0.0422870719634265,0.000210313257534211
8090873361600,0.0177651405235724,-0.000270128128236428,263.880931551386,0,-2.75190958779964,0.000351514088589309,-0.052325956224359,-0.000437753117648398,0.042262462755497,-0.00082209739794216
8090884887072,0.0177651405235724,-0.000591658171449705,263.880931551386,0,-2.75190958779964,0.000321117305010529,-0.052325956224359,-0.00107102802198272,0.0423058236473665,0.00109553594204079
8090894647744,0.0177790195191237,-0.000503944293725341,263.880931551386,0,-2.75190514535651,0.000204549465697684,-0.0523217654925837,9.58694354187652E-05,0.0422816269823354,-0.000192168487445991
8090904608960,0.0177772784343314,0.000341238613610385,263.880931551386,0,-2.75190366352775,0.000490565558748913,-0.0523126132916111,0.000410230354783281,0.0422670563182659,-0.000542755024175324
8090913441408,0.0177748940213526,-6.90515302067461E-05,263.880931551386,0,-2.75189944951443,0.00055265446326955,-0.0523122508804635,0.000211361076999447,0.0422782827516062,0.000129869135285053
8090923260224,0.0177748940213526,-0.000250866386848363,263.880931551386,0,-2.75189944951443,0.000580168371279697,-0.0523122508804635,0.000123234686990904,0.0422812232169456,0.000289405849200981
8090940202240,0.017775048707113,-0.000253838114089121,263.880931551386,0,-2.75190505955105,0.000397830236689318,-0.0523121050549985,-5.11247289639946E-05,0.0422733585693514,-8.79100046616995E-05
8090944054816,0.0177868412746485,1.24152530368078E-05,263.880931551386,0,-2.75190170162961,0.000440792590620823,-0.0523065405570476,-0.000225574872190183,0.0422712753740065,-0.000200916753274949
8090955479648,0.0177881533194649,-0.00049085345511136,263.880931551386,0,-2.75191116438915,0.000497737467585411,-0.0523030506985562,2.64270976586883E-05,0.0422755353914534,5.4607383545285E-06
8090963999264,0.0177891699436401,7.78990185020397E-05,263.880931551386,0,-2.75190138417801,0.00103723391814987,-0.0523018031855335,-0.000562044630236987,0.0422773435581993,0.000122400922061138
8090974270080,0.0178105589890688,0.0010859276881021,263.880931551386,0,-2.75190326086138,0.000775112229850033,-0.0523060392923728,-0.000136316165999783,0.0422726797753626,-0.000104003949324809
8090983821024,0.0178105589890688,0.00153262276673324,263.880931551386,0,-2.75190326086138,0.000658956338954117,-0.0523060392923728,5.23399858965742E-05,0.0422738149997921,-1.40162066884112E-05
8090993852928,0.0178111090440819,0.00113569286430805,263.880931551386,0,-2.75188884868322,0.00119415489790255,-0.0522997478539477,0.000659954382243087,0.0422798714806403,0.000219756250872787
8091004111200,0.0178039694126375,7.17010724353456E-05,263.880931551386,0,-2.75188708205152,0.000940482447439039,-0.0523123511191362,0.000330350661973157,0.0422868671548954,0.000571414361701768
8091014724512,0.0178257752405549,0.000651839155296411,263.880931551386,0,-2.75188456102047,0.000768250308534516,-0.0523154699490877,0.000773221864684074,0.042285126282381,0.000458614234552275
8091024507552,0.0178257752405549,0.000908919964955683,263.880931551386,0,-2.75188456102047,0.000691927827685544,-0.0523154699490877,0.000969474603008381,0.0422850297297878,0.0004546186452628
8091034184672,0.0178090014144493,0.000799738613125538,263.880931551386,0,-2.75188408881819,0.000917681790527687,-0.0523119784334131,0.0005374312857461,0.0422761820012444,3.96949520255122E-05
8091043974272,0.0178096505232217,0.000121220067849717,263.880931551386,0,-2.75188716468703,0.000593834512615117,-0.0523053980430376,0.000415700080319708,0.0422773903715779,6.98146159161251E-05
8091053479264,0.0178170082539423,0.000744594251175126,263.880931551386,0,-2.7518868947923,0.000668801303272906,-0.0523121884892317,0.000491348026414525,0.0422786514069622,0.000166528125136269
8091064179968,0.0178198022356089,0.00031401651186765,263.880931551386,0,-2.75189341102837,0.000458707357198122,-0.0523036690962596,0.000624940125355873,0.0422776185867982,8.64626143720842E-05
8091074078752,0.0178198022356089,0.000123211465426777,263.880931551386,0,-2.75189341102837,0.000365606898260742,-0.0523036690962596,0.000684139764156604,0.042276857869397,5.4512482806574E-05
8091088896224,0.017807771443493,0.000282823854441971,263.880931551386,0,-2.75190122938548,0.000182483856429709,-0.0522980877400611,0.000589250876434369,0.0422668222513732,-0.000486622788363822
8091094801728,0.0178097453585084,-0.000130124387704074,263.880931551386,0,-2.75190435201312,-0.000533649766204226,-0.0523027612294621,0.000214750291360235,0.0422708247952381,-0.000268115868102098
8091104631456,0.0178111180654585,-0.000555458669319081,263.880931551386,0,-2.75190508498496,-1.32185196127679E-05,-0.0523051056619244,0.000290181441394939,0.042268109619283,-0.000363333557158185
8091114210752,0.0177946242954536,-0.000275566947054273,263.880931551386,0,-2.75189990229446,0.000653089931831897,-0.0523071569307006,-0.000282772080707138,0.0422612924210336,-0.000643166047590347
8091123854912,0.0178111149092608,-8.06103215876361E-05,263.880931551386,0,-2.75190198140516,0.000176847797210448,-0.0522983808611761,0.000316412797595577,0.0422623223153614,-0.00041972542896314
8091134716928,0.0178111149092608,5.78222633169308E-06,263.880931551386,0,-2.75190198140516,-3.41928449734626E-05,-0.0522983808611761,0.000581933952300644,0.0422656958044522,-0.000215408812641677
8091142869216,0.0177905754607036,-0.000135623185067936,263.880931551386,0,-2.75189881312136,0.000316557216187433,-0.0523008094924666,0.000189486296944171,0.0422482431917666,-0.00102131942491067
8091153572800,0.017789436050887,6.02526459153629E-06,263.880931551386,0,-2.75190378848233,0.000284847065114592,-0.0523055591788625,0.00051165841208827,0.0422583431781858,-5.60165626003918E-05
8091163305728,0.0177954894948339,0.000246513170016201,263.880931551386,0,-2.75191132255891,0.000140505516453292,-0.0522879293909876,0.000706724158298011,0.0422742538752159,0.00033309412042141
8091174347456,0.0177954894948339,0.00035308232530236,263.880931551386,0,-2.75191132255891,7.65423957867133E-05,-0.0522879293909876,0.000793165061686178,0.0422715152925715,0.000186507894516717
8091184929856,0.0177949590652271,0.000614026031727758,263.880931551386,0,-2.75190785087274,0.000228821131127578,-0.0522853623566926,0.00121665895220587,0.0422681973943678,2.19442369226928E-05
8091195274400,0.0178004497173838,0.000280111504704069,263.880931551386,0,-2.75191042790874,0.000476731065457789,-0.0522818557647933,0.000455135027353687,0.0422675858946106,-5.02452814890824E-05
8091204554400,0.017808600165429,0.000524884119751125,263.880931551386,0,-2.75191677816243,0.000336032894963117,-0.0522762438248596,0.000361401992565494,0.04226960472156,0.000133193708052567
8091213687232,0.0178236432243816,0.000250295738194844,263.880931551386,0,-2.75191558498765,0.00052647677583419,-0.0522801504396882,0.00103476854181066,0.0422661785674184,-3.88034106035191E-05
8091223811808,0.0178161711243035,2.61441402553685E-05,263.880931551386,0,-2.75190920635955,0.000669287877393254,-0.0522862580358425,0.000293321727879751,0.0422659474263618,-6.41502606872793E-05
8091234550208,0.0178161711243035,-7.31857882342603E-05,263.880931551386,0,-2.75190920635955,0.000732572799900107,-0.0522862580358425,-3.52409934375703E-05,0.0422584719149768,-0.000381124398218126
8091243020896,0.0178171180148485,0.000164758560079278,263.880931551386,0,-2.75191228320449,0.000636119500803899,-0.0522932110870423,-0.000294037892473817,0.0422753364345946,0.00039678600201536
8091253393984,0.017812418951574,0.000718232616274653,263.880931551386,0,-2.75190590558264,0.000971224057892865,-0.0523069804011717,-4.5280037916288E-05,0.042266781289667,-3.94872808751752E-05
8091263788544,0.0178021993347273,-0.00060782687207437,263.880931551386,0,-2.75190201273975,0.000902485761447074,-0.0523125821280022,-0.000218713818793588,0.0422708072402212,0.000190712033921713
8091275517696,0.0178051080864344,-0.000675497134681059,263.880931551386,0,-2.75189947216864,0.000746257598590972,-0.0523056456411874,0.000162908596294331,0.0422682559110909,4.69986205383363E-05
8091282864480,0.0178051080864344,-0.000705484350509036,263.880931551386,0,-2.75189947216864,0.000677027076090959,-0.0523056456411874,0.000332019713721911,0.0422609237656776,-0.000255201853038678
8091292828288,0.0177930987285662,-0.000394220903400275,263.880931551386,0,-2.7519020632162,0.000397468010104478,-0.0523092687294876,-0.000123026792182652,0.042258992713813,-0.000329481527085254
8091304381728,0.017789674883421,-0.000220188388426277,263.880931551386,0,-2.75189378468457,0.000872466824200985,-0.0523061220141977,0.000494703274302862,0.042258975158796,-0.000290286320161845
8091317602784,0.017789674883421,-0.000143068093830363,263.880931551386,0,-2.75189378468457,0.00108295650471446,-0.0523061220141977,0.000768442493179489,0.0422594959576323,-0.00026446398598655
8091326119104,0.01778576686319,0.000393972995118282,263.880931551386,0,-2.75189825769616,0.000231228570389448,-0.0523097225270822,8.93563736066457E-05,0.0422885641398673,0.000759900538621888
8091333725600,0.0177952000152283,0.000372244612302848,263.880931551386,0,-2.75189549344057,0.000274629393688842,-0.052313408881936,4.40227413180345E-05,0.0422597739120673,-0.000662375873470987
8091343792640,0.0178028756625494,-0.000104690084373731,263.880931551386,0,-2.75189432700077,0.000136093191479147,-0.0523042893338818,4.68967668263062E-05,0.0422840788330363,0.00051014747540432
8091354677856,0.0178242411217479,-2.32383591835942E-05,263.880931551386,0,-2.75189029796504,0.000571473632330072,-0.0523133031584528,0.000218653409257801,0.0422565291597675,-0.000757233359666036
8091364504672,0.0178185878047318,-0.000283126464128566,263.880931551386,0,-2.75188961293288,0.000531459183385052,-0.0523188399481308,-0.000297870519731982,0.0422661259023675,-0.000157241286873607
8091375459456,0.0178297786184787,0.000260501781778529,263.880931551386,0,-2.75189407073521,0.000689641897078628,-0.0523271423495341,0.00042860802716153,0.0422644172140509,-0.000300490265197114
8091383982560,0.0178297786184787,0.000501403721748079,263.880931551386,0,-2.75189407073521,0.000759738553912281,-0.0523271423495341,0.000750537751399618,0.0422651720797798,-0.000348530687344954
8091395071616,0.0178351704230908,-0.000259210832710252,263.880931551386,0,-2.75189805409043,0.000414552464740727,-0.0523248622179219,0.000375198286987677,0.0422625680855987,-0.000452800191659766
8091404193280,0.0178359219773865,-0.000579035703335472,263.880931551386,0,-2.7519008804422,0.000238417819452207,-0.052332335382487,0.00026174453609966,0.0422619361049885,-0.000553010080803882
8091413898048,0.0178414598037776,-0.000419548328364174,263.880931551386,0,-2.75190323360228,0.000199026042168876,-0.0523275494350977,-0.000116941300181062,0.0422685572722152,-0.000230610400134528
8091424124864,0.0178345033313904,6.28500262413348E-05,263.880931551386,0,-2.75190191921521,0.000269008824710953,-0.0523142657652253,-0.000405910386404368,0.0422737798897582,6.95840270254579E-05
8091433681952,0.0178345033313904,0.000276618718978551,263.880931551386,0,-2.75190191921521,0.000300020804323459,-0.0523142657652253,-0.00053396336007991,0.042262000473384,-0.000560204049032963
8091444535776,0.0178352847022517,1.85376746593542E-05,263.880931551386,0,-2.75190109336766,0.000655837933717698,-0.0523022124321344,-0.000446276045028855,0.042253825687157,-0.000757681587622244
8091455564928,0.0178303754349762,0.000213586117868336,263.880931551386,0,-2.75190350079473,0.000889591848936952,-0.0523004189298855,0.000148987514780109,0.0422751316260635,0.000316394739110863
8091463193696,0.0178329509753602,0.000296912502827576,263.880931551386,0,-2.75188770529168,0.000624338323188091,-0.0523043469961787,0.000107310235821979,0.0422791107632391,0.00041578534198556
8091474853408,0.0178122023121233,-0.000934127715135029,263.880931551386,0,-2.75188220841037,0.000856847512500679,-0.0523121657746153,-0.000678030940085897,0.0422706287642155,-4.2671286001769E-05
8091483938944,0.0178122023121233,-0.00147964752379194,263.880931551386,0,-2.75188220841037,0.000959881001264105,-0.0523121657746153,-0.00102604488939512,0.0422698007525826,-9.93154683164697E-05
8091494477984,0.0178138108186092,-0.000834076413069914,263.880931551386,0,-2.75187827501188,0.000943926909247945,-0.0523138500803474,-0.00075271840961145,0.0422737915931029,0.000100274079675052
8091504275456,0.0178223003458008,-0.000363977969156962,263.880931551386,0,-2.75188260699018,0.00039317336907504,-0.0523212333588896,-0.00135541196582089,0.0422711086013455,-0.00010012012469078
8091513809792,0.0178330182948538,0.000458941594328709,263.880931551386,0,-2.75188958232522,0.000124957805697452,-0.0523192892129641,-0.000665517157169861,0.0422671528708591,-0.000301114123683324
8091523307968,0.0178325652209661,0.000739913200940629,263.880931551386,0,-2.7518932277125,-0.000244749072152266,-0.0523328802406541,-0.000854251114874172,0.0422636038315989,-0.000449468676460214
8091534368960,0.0178325652209661,0.000864422193287469,263.880931551386,0,-2.7518932277125,-0.000408579970867752,-0.0523328802406541,-0.000937886166752749,0.0422753890996454,0.00017007167273925
8091543732000,0.0178376316592418,0.000335376029196606,263.880931551386,0,-2.75188832467149,0.000163207020910861,-0.052335433653048,-0.000141812762849105,0.0422661814932545,-0.000295154602945364
8091553735008,0.0178261565045193,-0.000598843034118382,263.880931551386,0,-2.75189042081344,0.000531191062859504,-0.0523360399144376,-0.000400825437876643,0.0422703478839443,-5.0121310610912E-05
8091563583360,0.01781559884122,-0.000561713779524458,263.880931551386,0,-2.75188262371576,0.000852589975870737,-0.0523259046403877,-0.000518295175979841,0.0422751140710465,0.000184481378675627
8091574555040,0.0178092055146456,8.23726408385488E-05,263.880931551386,0,-2.75188076306048,0.000209353696984354,-0.0523337438362135,-0.00103824765222357,0.0422715152925715,-4.01314116343783E-05
8091584735264,0.0178092055146456,0.00036779134257394,263.880931551386,0,-2.75188076306048,-7.56882753729941E-05,-0.0523337438362135,-0.00126865797612071,0.0422757636066737,0.000184121171885854
8091594260128,0.0178229190249792,0.000195892592282372,263.880931551386,0,-2.75186507413393,0.000870604129276607,-0.0523436144456171,-0.000901976247446321,0.042272539335227,3.44536751338631E-05
8091604041824,0.0178403508241355,0.00107114164151845,263.880931551386,0,-2.75187159618813,2.53756994175845E-05,-0.0523518878826435,-0.000334503432845832,0.042269955821899,-6.31028427724046E-05
8091613888864,0.0178398771926818,0.000851887038292749,263.880931551386,0,-2.7518710053081,0.000377533554605319,-0.0523546271872825,-0.000497088418072883,0.0422786718878153,0.000397965095415047
8091623837536,0.0178721203374512,0.0009283986095984,263.880931551386,0,-2.75186615667522,0.000533561282247965,-0.0523625904336885,-0.000667491427245441,0.042281433877149,0.000492378189527953
8091635115808,0.0178721203374512,0.000962303738878234,263.880931551386,0,-2.75186615667522,0.000602702984433501,-0.0523625904336885,-0.000743003352527804,0.0422493345286537,-0.000718998486315804
8091644578656,0.0178687025252339,6.56368908224913E-05,263.880931551386,0,-2.75185634846201,0.00103725063872653,-0.0523571437426536,-0.000347618881107044,0.0422869988175225,0.00107561799237824
8091653433792,0.0178666358751379,-0.000192420987810436,263.880931551386,0,-2.75186679322555,0.000224315511827578,-0.0523504926207971,-0.000181510363234297,0.0422770948621259,0.000367508959651887
8091663558976,0.0178682927855402,-0.000473959564263502,263.880931551386,0,-2.75186912725312,3.60401799879899E-06,-0.0523349282379727,0.000622861675782493,0.0422798451481149,0.000465604925742623
8091673759584,0.0178698295168786,-4.50275192853404E-05,263.880931551386,0,-2.75187209051633,-3.59530387469981E-05,-0.0523285505602626,0.000293671095200088,0.0422717990986789,7.90782053532369E-05
8091682696160,0.0178698295168786,0.000145048258653549,263.880931551386,0,-2.75187209051633,-5.34822451142047E-05,-0.0523285505602626,0.000147794478083405,0.0422798071122448,0.000418299633858766
8091693504576,0.0178651579645601,0.000387566729792025,263.880931551386,0,-2.75187178217102,5.06283641151792E-05,-0.0523421120677684,-0.000446174535428625,0.0422794326052165,0.000388227519805937
8091704857920,0.0178596584518795,0.000113846622755424,263.880931551386,0,-2.75188106325266,-0.000306312976728445,-0.0523489565412406,-0.000306255028489352,0.0422763487739054,0.000195899537144901
8091714231392,0.0178384817802508,-0.00060419911710042,263.880931551386,0,-2.75187913811964,0.000290989881133283,-0.0523376776576105,0.00026952163161182,0.0422790873565498,0.000283475286454953
8091725051840,0.0178384817802508,-0.000922391950200017,263.880931551386,0,-2.75187913811964,0.000555677042427026,-0.0523376776576105,0.000524669732270417,0.0422644523240848,-0.000400462715165221
8091733986528,0.0178437911763816,-0.0002415183551225,263.880931551386,0,-2.75187442340829,0.000429302477298054,-0.0523453254045686,0.000251087949777274,0.0422689200758989,-0.000205691652347233
8091742980320,0.0178393720776177,1.07811303618513E-05,263.880931551386,0,-2.75187702910193,0.000467212936209787,-0.0523309234531406,0.000182656061796091,0.0422643118839492,-0.000387164815540039
8091754323232,0.0178464977497391,-0.000412078367616417,263.880931551386,0,-2.75188440230918,0.000345961506428608,-0.0523309808167733,0.000379182282029685,0.0422724925218485,-4.76168405753966E-06
8091764388032,0.0178401869161981,9.65440958063321E-05,263.880931551386,0,-2.75188365821202,0.000320084408273208,-0.0523312605874746,-2.99930614294462E-05,0.0422684899779836,-0.000259832421634732
8091774691872,0.0178313068487667,0.000298716334355751,263.880931551386,0,-2.75188089925438,0.000485668704684547,-0.0523323232737706,0.00068886303045868,0.04227728211564,0.000197243548842669
8091784143296,0.0178313068487667,0.000388306389400214,263.880931551386,0,-2.75188089925438,0.00055904527872077,-0.0523323232737706,0.00100741496075035,0.0422796725237815,0.000267396003831148
8091793223968,0.0178321890208886,0.000115080339366312,263.880931551386,0,-2.75187975804629,0.000379634500696334,-0.0523232263444931,0.000630869177507314,0.0422865774971157,0.000651883785004817
8091803062272,0.0178492597141638,2.11466453742812E-05,263.880931551386,0,-2.75188504083724,0.000405702534794528,-0.0523444822661481,-0.000324951475443938,0.0422758660109393,0.000168371070473768
8091813448768,0.0178340473228768,-0.00010845774310061,263.880931551386,0,-2.7518691119098,0.00112093859398616,-0.0523420401633911,0.000598701971159009,0.0422767232809337,0.000186787371872357
8091823612384,0.0178210289473515,-0.000453349733222628,263.880931551386,0,-2.75187751937691,0.000405810252286783,-0.0523435982987713,0.000136937721165007,0.0422733790502045,-6.60908243766891E-05
8091833656448,0.0178210289473515,-0.000606184230189792,263.880931551386,0,-2.75187751937691,8.89102270588286E-05,-0.0523435982987713,-6.76872306649421E-05,0.042278408562561,0.000118114345650882
8091843811200,0.0178163875505607,-0.000688965589197456,263.880931551386,0,-2.7518699006239,0.000390443397510924,-0.0523401318173045,0.000824565205098566,0.0422707984627127,-0.00028359753011832
8091853674848,0.0178071751460206,-0.000343815239275809,263.880931551386,0,-2.75187428145068,0.00044025249589878,-0.0523354484719927,0.000362733086941441,0.0422795057511205,0.000165933417507166
8091863803008,0.0178105815916651,0.000387120606218136,263.880931551386,0,-2.75186801686612,0.000369242768720149,-0.0523329361566488,0.000668199932552457,0.0422764131423009,9.95527181988796E-06
8091872805376,0.0178156102382712,0.00010745488801278,263.880931551386,0,-2.75186839512333,0.00117273990714116,-0.0523341082656941,0.000398771993031777,0.0422778058403124,5.23049329961206E-05
8091884672288,0.0178156102382712,-1.64754165030028E-05,263.880931551386,0,-2.75186839512333,0.001528799440219,-0.0523341082656941,0.000279378429873135,0.0422559761767336,-0.000698525004941698
8091893609728,0.0178114434530042,-0.000645698850180227,263.880931551386,0,-2.75187166686997,0.000544443303447375,-0.0523302341538723,0.000390909535443871,0.0422753949513177,0.000265969621559458
8091903947872,0.0178201394640736,0.000419911292199213,263.880931551386,0,-2.75188121363972,0.000108440651408557,-0.0523324326893752,0.000361868803914327,0.0422735838587356,0.000178690088873732
8091913469088,0.0178252823545752,0.000578098938752367,263.880931551386,0,-2.75189881353723,-9.4662928314896E-05,-0.0523436538794495,-4.77646974917089E-05,0.0422856500070534,0.000335471076574031
8091923057792,0.0178113540090966,3.9991264832801E-05,263.880931551386,0,-2.75189735587426,-6.38867962172433E-05,-0.0523380712705474,-1.62370404698885E-05,0.0422830606420531,0.000254381498867634
8091936098048,0.0178113540090966,-0.000198464303905029,263.880931551386,0,-2.75189735587426,-5.02487448781106E-05,-0.0523380712705474,-2.26596042312229E-06,0.0422675361553959,-0.000574811474633729
8091942862016,0.0178108547727645,-0.000123874924336131,263.880931551386,0,-2.75188729642449,-6.32069468360268E-05,-0.0523371983948195,0.000567531821253993,0.0422976313061226,0.000813468567562498
8091954128576,0.0178001328232787,0.000267170277797056,263.880931551386,0,-2.75188717738511,0.000162877222238469,-0.0523473394251393,0.000276616206679302,0.0422803220594087,-0.00012310809081443
8091963960416,0.0177873715754485,0.000496791234176779,263.880931551386,0,-2.75188679586204,0.000317144638471443,-0.0523535461551209,-8.11487184905805E-06,0.042265359333294,-0.000657321931525448
8091974662304,0.017805431775423,0.000554422634265124,263.880931551386,0,-2.75188677822123,0.00052321346211219,-0.052354977455075,4.40918415972593E-05,0.0422785811868944,-2.22326203635921E-05
8091983223904,0.017805431775423,0.00057996125590403,263.880931551386,0,-2.75188677822123,0.000614530239259164,-0.052354977455075,6.7226582375246E-05,0.0422758864917924,-0.00013164608930232
8091993186144,0.0177929164067092,0.000574746267838283,263.880931551386,0,-2.75188350764934,0.000558748825152892,-0.0523559111102572,0.000389651132081211,0.0422805561263014,8.11682609838717E-05
8092004560992,0.0177929164067092,0.000572435312233208,263.880931551386,0,-2.75188350764934,0.000534030001262453,-0.0523559111102572,0.000532529468706952,0.0422766647642106,-9.3423705758053E-05
8092015633184,0.0178159074766573,-0.00014412362702302,263.880931551386,0,-2.75189304027689,-0.000397636338083219,-0.0523530929506756,0.000789495417952915,0.0422645810608758,-0.000673728566356215
8092023848960,0.0178159074766573,-0.000461657603355163,263.880931551386,0,-2.75189304027689,-0.000810492421707426,-0.0523530929506756,0.000903366608689476,0.0422777297685723,-4.13511338692766E-05
8092033701504,0.0178039073669318,-0.000192197394638853,263.880931551386,0,-2.75189559133417,-5.97751562370439E-05,-0.0523553355365046,0.000568351061810579,0.0422727441437581,-0.000325945394076835
8092044090784,0.0178001080275447,1.64995856032194E-05,263.880931551386,0,-2.75189803295398,-0.000126108078225777,-0.0523450616656805,0.00122135611935954,0.0422770334195665,-0.000131307798425433
8092053546304,0.0177900433294459,0.000544780921971163,263.880931551386,0,-2.75190443746964,-0.000132867312169492,-0.052346765211501,0.000973709135636029,0.0422734053827299,-0.000377692452406665
8092063584384,0.0177936404015424,0.00039928052678452,263.880931551386,0,-2.75189685051346,0.000564416811625326,-0.0523511315856138,0.000956410099902066,0.0422714977375546,-0.00045775247437079
8092073483040,0.0177956927324496,-0.000813545807651125,263.880931551386,0,-2.7518880864884,0.000973457770786444,-0.0523423185175539,0.000879525883142643,0.0422762200371145,-0.000268249724392036
8092084182016,0.0177956927324496,-0.00135099436557914,263.880931551386,0,-2.7518880864884,0.00115471906714255,-0.0523423185175539,0.000845455620771563,0.0422807609348325,-5.20962500179227E-05
8092093709344,0.0177984054507343,-0.00056295112936191,263.880931551386,0,-2.75188580835867,0.000510814357564418,-0.0523498755901527,0.000711957690583191,0.0422777824336231,-0.000147348731951844
8092105005568,0.0177873522295907,-0.000823854040787905,263.880931551386,0,-2.7518816551253,0.000802625247398868,-0.0523510633856502,0.000747105396365531,0.0422677994806502,-0.000434066092023605
8092114678752,0.0177943345987542,0.000462211299223182,263.880931551386,0,-2.751870325966,0.00109499474812591,-0.0523440582903579,0.000444829419251056,0.0422548906915187,-0.000648293975474841
8092124680640,0.0177898802357633,0.000442499110302202,263.880931551386,0,-2.7518758762137,0.000302435697089004,-0.0523524312332665,-0.000172886386386966,0.0422642036280114,-0.000272825081402592
8092133857088,0.0177898802357633,0.000433763904602603,263.880931551386,0,-2.7518758762137,-4.8776761742365E-05,-0.0523524312332665,-0.000446619285750484,0.0422706550967409,5.60919493119795E-05
8092144268800,0.0177821588068265,-0.000367907485731222,263.880931551386,0,-2.75186646991525,0.000553903308845702,-0.0523513081224403,-0.000136482961974405,0.0422697129774979,6.72010049058786E-05
8092153227360,0.0177868209834701,0.000446555961619453,263.880931551386,0,-2.75186464857083,0.000673059857930384,-0.0523504129445212,-0.000111627913823637,0.0422842046439911,0.000787863726258038
8092163340832,0.0177907336153607,0.000498817627129141,263.880931551386,0,-2.75186134604604,0.000528270612681476,-0.0523565967153564,-0.000144848724808693,0.0422881925586752,0.000553807856891601
8092173403872,0.0177953940770885,7.57085221092764E-05,263.880931551386,0,-2.75186061250764,2.19514232389731E-05,-0.0523417557757166,0.000294877032073062,0.0422801816192731,0.000159778152544245
8092183378016,0.0177953940770885,-0.000111786894079021,263.880931551386,0,-2.75186061250764,-0.000202417483084105,-0.0523417557757166,0.000489735906101282,0.0422498816600153,-0.00117561925497508
8092194436128,0.0177941806122569,0.00047846096598747,263.880931551386,0,-2.75186698971069,-0.000112127711018594,-0.0523256806632444,0.000519533124766201,0.0422701518529217,7.66605760778448E-05
8092203305504,0.017785793617562,0.000496728704561304,263.880931551386,0,-2.75187880541879,-0.000323077110735755,-0.0523314398109501,0.00035261278312409,0.0422686801573339,1.68473474739317E-05
8092214346432,0.0177902067569566,0.000425640305689071,263.880931551386,0,-2.75188862062437,-0.000408390492666083,-0.0523390808739902,0.000195315077783186,0.0422756056115212,0.000320657067368229
8092224376448,0.0177791716951585,-1.91919585393768E-05,263.880931551386,0,-2.7518914492482,0.000163617147048497,-0.0523474287582045,-0.000406168874420014,0.0422628372625253,-0.000228569955141804
8092234825408,0.0177791716951585,-0.000216313716322348,263.880931551386,0,-2.7518914492482,0.000417095054280334,-0.0523474287582045,-0.000672708834470334,0.0422647097976668,-9.5793675905394E-05
8092244862400,0.0177795805952618,-0.000584697757002222,263.880931551386,0,-2.75188883408775,0.000275186238490353,-0.052351033324861,-0.00075741041392939,0.0422586855010164,-0.000408799633859919
8092253460864,0.0177792335704246,-6.86099817078626E-05,263.880931551386,0,-2.75188328466022,0.000757879601927736,-0.052354796365145,-0.000368937885794401,0.0422641714438136,-0.00011232101576401
8092263461536,0.0177858180622932,0.000617587006703,263.880931551386,0,-2.75188200720592,0.000596090467645963,-0.0523554569736106,-0.000145028369118184,0.0422849682872285,0.000833247153802817
8092273548800,0.0177891970409474,-0.000164791235153246,263.880931551386,0,-2.75188494186329,0.000650311722386237,-0.0523627682878228,-0.000163669623341288,0.0422770509745835,0.000212099429078282
8092285045856,0.0177891970409474,-0.00051149219793829,263.880931551386,0,-2.75188494186329,0.000674339181505326,-0.0523627682878228,-0.00017193025795625,0.0422687474515656,-0.000190314607367302
8092293261184,0.0177783962407345,-0.000708645383375383,263.880931551386,0,-2.75188011946446,0.000755442272663148,-0.0523628162759175,-0.000367657704937885,0.0422627553391129,-0.000458703392551778
8092303951648,0.0177804371645867,-0.000127277748028554,263.880931551386,0,-2.75188324429041,0.000967094035473986,-0.0523597748708978,-6.53650338644984E-06,0.0422641480371243,-0.000406780772623388
8092314453888,0.0177811023628138,7.04026045646873E-05,263.880931551386,0,-2.7518949620594,7.08001833365314E-05,-0.0523597786728551,-0.00026738947920738,0.042271450924176,-5.35098374709427E-05
8092324042656,0.0177947976976216,-0.000152019411002956,263.880931551386,0,-2.75189116346995,0.000297615539969216,-0.0523666184477651,-0.000256560482345581,0.0422702835155488,-0.000125852967995565
8092334128928,0.0177947976976216,-0.000250582897071963,263.880931551386,0,-2.75189116346995,0.00039812587922969,-0.0523666184477651,-0.000251761750175993,0.0422727763279559,-9.9514630898105E-06
8092343809600,0.0177956513457997,0.000412473850468342,263.880931551386,0,-2.75189105713478,0.000148302952300888,-0.0523622143745214,0.000627124652081107,0.0422648297569493,-0.00042465036839235
8092353850016,0.0177851339848013,5.47237899939355E-05,263.880931551386,0,-2.75189389128187,0.000410596810074728,-0.0523538908265898,8.48022397277177E-05,0.0422750555543234,9.59199040204445E-05
8092363168640,0.0177828296012124,0.000260365405939138,263.880931551386,0,-2.75189199956947,0.00080984774960272,-0.0523471396521119,0.000279701256517476,0.0422514879440664,-0.000809233253527481
8092374322688,0.0177908386219082,0.000248475332262756,263.880931551386,0,-2.75188724844893,0.000947531497311915,-0.0523535484156464,-8.3891900251249E-05,0.0422592970007735,-0.000308502004632505
8092383535776,0.0177908386219082,0.000243206397404079,263.880931551386,0,-2.75188724844893,0.00100854429820139,-0.0523535484156464,-0.000245013581261561,0.0422755441689618,0.00036194064199482
8092393880032,0.0178005137518373,-0.000456347214176728,263.880931551386,0,-2.75188774616443,0.00072815107569883,-0.0523513269863211,-0.000364909720132381,0.0422605404811409,-0.000386371260342422
8092403336032,0.0178188967410242,0.00031557143419428,263.880931551386,0,-2.7518859783501,0.000654460112753544,-0.0523460907533026,9.52576607194715E-05,0.0422704385848652,0.000184258257953182
8092413651040,0.0178158635398531,0.00042097757388212,263.880931551386,0,-2.75188539865027,0.000875674156929683,-0.0523557909749891,-0.000444288930754301,0.042275067257668,0.000429201953698433
8092424048992,0.0178183332282455,0.00012849000699288,263.880931551386,0,-2.75188108269734,0.001301358852555,-0.0523486367316514,-0.000672688735924868,0.0422635687215649,-0.000135897714256708
8092435283648,0.0178183332282455,-1.1221366201155E-06,263.880931551386,0,-2.75188108269734,0.00148999560894791,-0.0523486367316514,-0.000773901203394154,0.0422624832363501,-0.000237524842434518
8092443980352,0.0178174562278475,-6.99815571275991E-05,263.880931551386,0,-2.75187461350367,0.000561887409143316,-0.0523336367408638,0.000468081956527634,0.0422581559246717,-0.000487948993962751
8092453379744,0.0178138709534328,-0.000571221647105428,263.880931551386,0,-2.75187440431662,0.000844872057604956,-0.0523427690198326,0.000117754460501949,0.0422630654777457,-0.000277877614718028
8092462960448,0.0178065605306074,-0.00088844995102846,263.880931551386,0,-2.75187572643816,0.000980607827214836,-0.0523385299749587,9.46286886538064E-05,0.0422762434438037,0.000476112186269342
8092474694432,0.0178020870507391,-0.000467375907409048,263.880931551386,0,-2.75187664236588,0.00091786271989523,-0.0523401030793153,0.000204212506490219,0.0422684373129327,5.67429214275811E-05
8092484412768,0.0178020870507391,-0.000280782302785946,263.880931551386,0,-2.75187664236588,0.000890058023964339,-0.0523401030793153,0.000252773181004127,0.0422718780962552,0.000272002204269313
8092493396576,0.0178151780371129,-0.0003101422661423,263.880931551386,0,-2.75186937596176,0.000597166504820448,-0.0523560966571377,-0.000582212793990465,0.0422782622707531,0.000610075263512081
8092503122400,0.0178145850035847,0.000113230187559367,263.880931551386,0,-2.75187141937519,0.000187791716819011,-0.0523475761429719,-0.000438841798180429,0.0422796666721092,0.000674483930677313
8092513577120,0.0178066257414818,0.000411228158301287,263.880931551386,0,-2.75187787692154,-0.000167771153035251,-0.0523450957724102,-0.000586595825693993,0.0422779170220864,0.000541155395580087
8092523625632,0.0178066257414818,0.000543282167266425,263.880931551386,0,-2.75187787692154,-0.000325334314577947,-0.0523450957724102,-0.00065207114294308,0.0422706258383793,0.000157448431216286
8092534954976,0.0177790531406571,0.000125353997090882,263.880931551386,0,-2.75188255384808,-0.000368945643854749,-0.0523493951072274,-5.47031945163209E-05,0.0422754095804985,0.000367121166355883
8092542976800,0.0177813191728969,-0.000207584013584845,263.880931551386,0,-2.75187696020437,0.00011776933523723,-0.0523530297938859,-0.000339567559033904,0.042275307176233,0.00030679590785244
8092553112064,0.0177678163497108,0.000177496481622798,263.880931551386,0,-2.75187633637996,0.000302918820209044,-0.0523478117903963,-7.45082274513744E-05,0.0422844943017708,0.000759040577086753
8092563224064,0.0177535499492715,0.000340472639502116,263.880931551386,0,-2.75187556871924,4.71382448483414E-05,-0.0523558355952168,-9.04599182414498E-05,0.0422708950153059,7.22322087614282E-06
8092573213568,0.0177400887898328,0.000200115531736285,263.880931551386,0,-2.75188286436768,0.000445645008058307,-0.0523528556360489,-7.21573554587989E-05,0.0422874084345847,0.000850648598642843
8092585382528,0.0177400887898328,0.000137918065353932,263.880931551386,0,-2.75188286436768,0.000622238209517293,-0.0523528556360489,-6.40468076461149E-05,0.0422712987806958,-0.000129499222733853
8092593693568,0.0177237296502012,0.00020297612811332,263.880931551386,0,-2.75187859945457,0.00081517758029327,-0.0523399377878997,0.000332906108989114,0.0422697539392041,-0.000208513268271719
8092604266144,0.0177289958992533,-0.00020109197205658,263.880931551386,0,-2.75189045171294,0.000199386839090028,-0.052312914908778,0.000128895031125695,0.0422800470308098,0.000309601147559077
8092613755584,0.0177194095072156,5.6467635847155E-05,263.880931551386,0,-2.75189798138668,-0.000441934743108432,-0.0523116581965742,0.000602249850542328,0.0422797427438493,0.000262769482546537
8092623555712,0.017711846357116,8.70722318947064E-05,263.880931551386,0,-2.75190793274193,-0.000737062367045076,-0.0523308268914051,-0.000645923485754711,0.0422684899779836,-0.000257992815007732
8092634355072,0.017711846357116,0.000100634269215886,263.880931551386,0,-2.75190793274193,-0.000867844418346161,-0.0523308268914051,-0.00119903561779725,0.0422652510773561,-0.000353567098917426
8092643742720,0.0177162393936185,9.29315798595262E-05,263.880931551386,0,-2.75191199816753,-0.000499629235212,-0.0523262186182294,-0.000788780767353979,0.0422778614311994,0.000132759947841856
8092653824256,0.0177101613789543,0.000445325824478743,263.880931551386,0,-2.75192126279599,-0.000519898164312475,-0.0523432829667858,-0.000542607178408037,0.0422688644850119,-0.000375942425225294
8092663393600,0.0177147184121949,-0.000149860663755489,263.880931551386,0,-2.75191332250221,0.00049400749347412,-0.0523629942682378,-0.000508173599984088,0.0422875137646864,0.000556351539989069
8092673617504,0.0177406058418099,9.0132946454575E-05,263.880931551386,0,-2.75190921499157,0.00126649861744854,-0.0523773651759259,-0.000524048425962173,0.0422739905499616,-5.3584723447387E-05
8092684225536,0.0177406058418099,0.000196483061105867,263.880931551386,0,-2.75190921499157,0.00160881822974937,-0.0523773651759259,-0.000531083153100787,0.0422829728669684,0.000443545932611302
8092693634400,0.0177557039786479,0.000418668915496096,263.880931551386,0,-2.7519178833649,0.000680916046168785,-0.0523746354981821,-0.000362529373628285,0.0422699236377013,-0.000216043619083914
8092703005216,0.0177578204792777,-0.000210505629851485,263.880931551386,0,-2.75192084274937,0.000652795520562441,-0.0523821993000892,6.96613564129888E-05,0.0422734638994531,-5.97406384373842E-06
8092712726336,0.0177570031397412,0.000185276122995029,263.880931551386,0,-2.751916699431,0.000957905588954084,-0.0523817401623165,-0.000204777690849035,0.0422746634922781,6.52773590640222E-05
8092723910208,0.0177653064287356,0.000253160145795015,263.880931551386,0,-2.75191462526648,0.000795021448547526,-0.0523628540947706,0.000477490590612503,0.0422728641030406,-6.36356221076597E-06
8092735190624,0.0177653064287356,0.000283242086732735,263.880931551386,0,-2.75191462526648,0.000722841414287647,-0.0523628540947706,0.000779829098262203,0.0422769163861202,0.000240670287740655
8092743056928,0.0177816401299311,0.000601682197222208,263.880931551386,0,-2.75191547433357,0.000243016517942146,-0.052364000930219,-1.01207540380237E-05,0.0422833971132113,0.000553352580784666
8092752990624,0.0177606592429027,0.000248129888490795,263.880931551386,0,-2.75192749440963,0.000309828383961272,-0.0523547869831331,0.000684457959476,0.0422744791646001,6.15213511826462E-05
8092763147136,0.0177597122135443,0.000503354491889765,263.880931551386,0,-2.75192345084215,0.000364484856832678,-0.0523526622216682,0.000140999165079583,0.042267574191266,-0.000279382480258861
8092773948960,0.0177597122135443,0.000616454027371367,263.880931551386,0,-2.75192345084215,0.0003887051773288,-0.0523526622216682,-9.98276846091352E-05,0.0422675303037236,-0.000289626561251667
8092783375328,0.0177559999036205,0.000670468349979163,263.880931551386,0,-2.7519191171532,0.00059757473551228,-0.0523405626235852,-0.000264716687626927,0.0422832361922226,0.000518147457207102
8092794772864,0.0177398143619225,-3.74951312997477E-05,263.880931551386,0,-2.7519116820989,0.0010407569812593,-0.0523419396820811,-0.000243938643660086,0.0422776712518491,0.000256393011226626
8092803459232,0.0177379717031753,-3.56226582174004E-05,263.880931551386,0,-2.75191085173512,0.000537496220799245,-0.052354040142464,0.000156195990072088,0.042276266850493,0.000175842924563625
8092813389952,0.0177325353527517,-6.21595389219444E-06,263.880931551386,0,-2.75191344468477,0.00028316042119262,-0.0523472882557465,0.000444009384898285,0.0422797134854877,0.00036021266716059
8092824619200,0.0177397878642396,-0.000149620987442567,263.880931551386,0,-2.75192048030105,0.000440275160177719,-0.0523494458812158,-0.00034110253994947,0.0422799651073974,0.000328094312159327
8092834353568,0.0177397878642396,-0.000213169103354091,263.880931551386,0,-2.75192048030105,0.000509898557608374,-0.0523494458812158,-0.000689014899568425,0.042280696566437,0.000186222382624001
8092844463328,0.0177475729774904,0.000161053093280653,263.880931551386,0,-2.75192021696404,0.000533959614328071,-0.0523422734109928,-0.000109280577717639,0.0422757431258206,-9.243607176199E-05
8092854442528,0.0177341808388,0.000296692878425767,263.880931551386,0,-2.75190869086166,0.000527642986414885,-0.0523504205325192,-0.000357609370577814,0.0422789235097249,0.000133612219413817
8092864130304,0.0177488198910104,-7.21365049363504E-05,263.880931551386,0,-2.7519118959841,0.00077478252814565,-0.0523473023928819,-0.000241508047342996,0.042271708397758,-0.000202173175609982
8092874820544,0.0177298222584286,-0.000331407998622137,263.880931551386,0,-2.7519131514243,0.000599333650460366,-0.0523388936831987,3.22059925136397E-05,0.0422721940865603,-0.000160002730470246
8092884988384,0.0177298222584286,-0.000446300862041127,263.880931551386,0,-2.7519131514243,0.000521585712750948,-0.0523388936831987,0.000153498886499201,0.0422763897356117,3.6710400564107E-05
8092897172064,0.0177430117612484,-0.000132938314575217,263.880931551386,0,-2.75191197142629,5.74786871307929E-05,-0.052342754062118,-0.000152689577414136,0.0422835258500023,0.000433715301697494
8092905250944,0.0177517399048803,0.000218259324480269,263.880931551386,0,-2.7519152544583,6.96735133517469E-05,-0.0523417067226503,0.000210010905668502,0.0422664389668365,-0.000430214671596485
8092915775520,0.0177338945740674,0.000118930494197926,263.880931551386,0,-2.75191814687534,0.00011197904923077,-0.052341108957457,-3.68191084800969E-05,0.0422722584549558,-0.000168666855651551
8092924715808,0.0177485883386246,1.59522451171003E-06,263.880931551386,0,-2.75192315936216,0.000135389511713487,-0.0523218744002494,0.000530672847335026,0.0422764014389563,3.14567045837244E-05
8092935540832,0.0177485883386246,-5.04004072588482E-05,263.880931551386,0,-2.75192315936216,0.000145763560284603,-0.0523218744002494,0.000782149686705032,0.0422813343987196,0.000220443780939745
8092943987680,0.017768059179554,0.00075528879989669,263.880931551386,0,-2.75192938014683,0.000473389729931517,-0.0523139234766105,0.00037173363529503,0.0422522574389761,-0.00100163050478812
8092953616736,0.0177539948644264,0.000438012704272669,263.880931551386,0,-2.75193563485217,0.000309254428494248,-0.052312025600149,6.26581034954784E-05,0.0422905566342913,0.00103269058142212
8092963685536,0.0177537661938146,-0.000100284910399971,263.880931551386,0,-2.75193634703417,0.000268879194508067,-0.0523108586699334,5.8494922591107E-05,0.0422755412431257,-0.000124885417693211
8092974170912,0.0177652484519261,-0.000298144877449848,263.880931551386,0,-2.75194572976495,-0.000235230516809845,-0.0523061765506753,0.00013087780278919,0.0422887133575114,0.000482955231309635
8092985027488,0.0177652484519261,-0.000385824004249253,263.880931551386,0,-2.75194572976495,-0.00045862032101573,-0.0523061765506753,0.000162953355138767,0.0422720653497693,-0.000294355346795994
8092993502080,0.0177711243774522,-0.00028712718630528,263.880931551386,0,-2.751941218172,0.000113540994357125,-0.0523116873230592,0.00035935335401791,0.042272261380792,-0.000218272649074817
8093003994848,0.0177636487653317,0.000249034754926819,263.880931551386,0,-2.7519473906402,-0.000217233260377572,-0.0523214818311719,0.000368391012709755,0.0422803630211149,0.000158584202811446
8093014363744,0.0177641037391745,-4.63223249660374E-05,263.880931551386,0,-2.75194857045192,0.000549440283726786,-0.0523129658016222,0.000326044573074696,0.0422790288398267,8.77167880420232E-05
8093024867104,0.0177641037391745,-0.000177206056754488,263.880931551386,0,-2.75194857045192,0.00088918190953192,-0.0523129658016222,0.000307279287172623,0.0422884675872741,0.000569474040879618
8093034323232,0.0177530710630707,0.000564589949013929,263.880931551386,0,-2.75194538445973,0.000972394034794852,-0.0523131552280748,0.000554526178699483,0.0422790961340583,2.37946254273727E-05
8093044020768,0.0177485927513028,0.000922224069708776,263.880931551386,0,-2.75194518519814,0.000723185022548541,-0.0523158492703364,0.000254212712499334,0.0422721443473456,-0.000304849966796185
8093053870848,0.0177474351215305,0.000497014095901752,263.880931551386,0,-2.75195168844749,0.000140068150800407,-0.0523250890487707,0.000471900366879801,0.0422697539392041,-0.000390154548645852
8093063436512,0.0177681920966888,0.000267008337576028,263.880931551386,0,-2.75196349190786,-0.000849828755425188,-0.0523254051446019,-2.4556306878441E-05,0.0422699763027521,-0.000340541519206891
8093073822720,0.0177780512935775,0.000479128998257284,263.880931551386,0,-2.75196754489787,-0.00035799343400754,-0.0523106185845557,0.000459322193280497,0.0422736043395887,-0.00012336949883482
8093084529632,0.0177780512935775,0.000573127569984313,263.880931551386,0,-2.75196754489787,-0.000140042869504851,-0.0523106185845557,0.00067374679368613,0.0422690371093452,-0.000367345836428579
8093093890336,0.0177630344171097,1.76816401082831E-05,263.880931551386,0,-2.7519711782181,-0.000274180756191013,-0.0523064659815842,0.000740521956760599,0.0422750906643573,-0.000100385232876458
8093103230464,0.0177636509153121,-0.000175868006791563,263.880931551386,0,-2.75197343401014,4.32679736954843E-05,-0.0523134386412307,0.000132155840064659,0.0422672494234524,-0.00048034711981418
8093113856896,0.0177509897370382,-0.000350048237146932,263.880931551386,0,-2.7519813937049,-0.000224466729784582,-0.0523069617160471,0.00053813065559098,0.0422635277598587,-0.000681595274036166
8093123281216,0.0177288373326304,4.03810518019639E-05,263.880931551386,0,-2.75197501588406,0.000343758179224576,-0.0523101497059902,0.000546065612216223,0.0422718634670744,-3.76516926298427E-05
8093134739680,0.0177288373326304,0.000213394823321103,263.880931551386,0,-2.75197501588406,0.000595559817476317,-0.0523101497059902,0.000549581887279167,0.0422690166284921,-0.00019847026779758
8093143345696,0.017731170160468,0.000527228601418839,263.880931551386,0,-2.75197693359911,0.000152548678031802,-0.0523238037171152,-0.000164581678510281,0.0422742304685266,-2.11792236282469E-05
8093153795104,0.0177359001399663,0.000728415634602551,263.880931551386,0,-2.75196895869463,0.000599808900814148,-0.0523395983593549,-0.00016769949473801,0.0422722174932496,-9.20192026120023E-05
8093163301536,0.0177442453069706,0.00109627657834894,263.880931551386,0,-2.75196893351378,0.00084911775766337,-0.05236085198559,-0.000578855852424984,0.0422786601844707,0.000185176363338814
8093175143072,0.0177774741646184,0.000229568562176162,263.880931551386,0,-2.75197399428773,0.00037451956741589,-0.0523560678347584,-0.000557168872021252,0.0422731362058034,-5.85439557336034E-05
8093184879488,0.0177774741646184,-0.000154502067073045,263.880931551386,0,-2.75197399428773,0.000164207418263518,-0.0523560678347584,-0.000547558562603604,0.0422808604132619,0.000301547852106996
8093194104192,0.017760333448384,-0.000177285249638505,263.880931551386,0,-2.75197999543967,-0.000170483602756658,-0.0523602792004281,-1.91653625480643E-06,0.0422746313080804,-2.93477938819859E-06
8093203956288,0.0177566770290669,-0.000111343041813716,263.880931551386,0,-2.75197869418025,0.000501318439694145,-0.0523648704058447,0.000262883424290229,0.0422652832615538,-0.000427857647702693
8093214545184,0.0177617047629914,0.00020838032564619,263.880931551386,0,-2.75197883351111,0.000316250091603178,-0.0523752663514276,0.000720035973560776,0.0422706902067748,-5.37328239020797E-05
8093223352032,0.017757050353477,-0.000286659100289951,263.880931551386,0,-2.75197739076783,0.000339132786428901,-0.0523909415318269,-0.000229663871670553,0.0422768637210693,0.00030140151458288
8093233564864,0.017757050353477,-0.000506029522940522,263.880931551386,0,-2.75197739076783,0.000349272961478212,-0.0523909415318269,-0.000650511273967059,0.0422796900787985,0.000419010987775226
8093243924160,0.0177615822776723,-0.000304326274388065,263.880931551386,0,-2.75198064055416,0.000224267290634396,-0.0523775626056477,-0.000294685711478436,0.0422782739740977,0.000343094702700089
8093254116224,0.0177427527593816,-0.000178249879323946,263.880931551386,0,-2.7519802578979,0.00053489989380983,-0.0523999418627025,-0.0010630610573236,0.0422749472983855,0.000138693948588235
8093264554400,0.0177463489231079,0.000886809313330405,263.880931551386,0,-2.75197729913053,0.000441142653397937,-0.052411874497109,-0.000360353555473883,0.0422687357482209,-0.000196237511222878
8093273984032,0.0177444838137689,0.000483045910330098,263.880931551386,0,-2.751980508626,0.000359674223303697,-0.052407522475762,-0.000520954378809388,0.0422665238160851,-0.000295213091095916
8093283627328,0.0177444838137689,0.000304123295834265,263.880931551386,0,-2.751980508626,0.000323572525123485,-0.052407522475762,-0.000592122590162486,0.0422699470443906,-5.84068625231209E-05
8093292960864,0.0177441983315817,-0.000341616197042801,263.880931551386,0,-2.75196792620089,0.00107206251864117,-0.0524030482348969,0.000243065498919165,0.0422720243880631,8.01004165038629E-05
8093303827584,0.0177437183891747,-0.000458572263141531,263.880931551386,0,-2.75197088496471,0.000587890807118358,-0.0523997842209565,5.24291768789754E-05,0.0422684373129328,-0.000106891615321974
8093313979360,0.0177428696962866,-0.000775730439188688,263.880931551386,0,-2.75197598030901,5.74624028863402E-05,-0.0523993676034321,-0.000269536728738396,0.0422620297317456,-0.000390238769296837
8093323932160,0.0177364454745037,-0.000844022336766196,263.880931551386,0,-2.75198268927768,0.000188257432586125,-0.05239959602347,-0.000701450080223268,0.0422649555679041,-0.000248489310577198
8093334553952,0.0177364454745037,-0.000874285022221718,263.880931551386,0,-2.75198268927768,0.000246217585742768,-0.05239959602347,-0.000892846986206033,0.0422708716086167,-2.13877480284109E-05
8093345263328,0.017748787719117,0.000266388283204206,263.880931551386,0,-2.75199283419174,5.36166796723511E-05,-0.0523987168006407,-0.000195972276036106,0.042275307176233,0.000156713396313418
8093353692576,0.0177490103438923,0.000748818755473882,263.880931551386,0,-2.75200104334289,-0.000305545273836928,-0.0524033422139169,-0.000222026938198629,0.0422675244520513,-0.000161921164666445
8093363581856,0.0177411427100193,9.15234030438278E-05,263.880931551386,0,-2.752005721957,-0.000430407498194446,-0.0524086841879932,-0.000147534029054732,0.0422704649173906,6.41501006806144E-06
8093374143936,0.0177411427100193,-0.000199748668864719,263.880931551386,0,-2.752005721957,-0.000485738604153535,-0.0524086841879932,-0.000114523444226131,0.0422816094273185,0.000536035265163246
8093384199296,0.0177380533078603,-0.000697935775146174,263.880931551386,0,-2.75201139123288,-0.000141236042801541,-0.0524088459659559,-1.49984076397261E-05,0.042294500661433,0.000902377422641711
8093393587296,0.0177356618816605,-0.00026873713197197,263.880931551386,0,-2.752013935066,9.05346618847829E-05,-0.0524106346187242,8.5650974818597E-05,0.0422636681999943,-0.000704012742099406
8093403830304,0.0177433288193869,-0.000244188845468657,263.880931551386,0,-2.75201967542347,8.13129013699077E-05,-0.0524058779004046,-0.0003006232808775,0.0422616552247173,-0.000550360670445306
8093413167264,0.0177473527318308,0.000114525985798911,263.880931551386,0,-2.75202079816182,0.000376515377866791,-0.0524012271067804,-8.60145275809865E-05,0.0422679399207858,-0.000250138784998714
8093424021536,0.0177478271366632,0.000147830260008704,263.880931551386,0,-2.75202476477874,0.000242326372732094,-0.0524068238097251,0.000290696163226172,0.0422739817724532,-5.93753875089312E-06
8093433402944,0.0177478271366632,0.000162588625356387,263.880931551386,0,-2.75202476477874,0.000182862222546901,-0.0524068238097251,0.000457630712536221,0.0422844006750137,0.000593377918000619
8093443808352,0.0177316742598404,-0.000638936770988754,263.880931551386,0,-2.75203080669636,0.000494571538243184,-0.0524141675252834,-0.00039220252832747,0.0422587235368864,-0.000753285755946782
8093453569856,0.0177339853810653,0.000109978993214432,263.880931551386,0,-2.75202791808941,0.000730876451055784,-0.0524238962665089,0.000498037159507839,0.0422683085761418,-0.000248030400033161
8093464011520,0.0177348435332207,0.000281746540217264,263.880931551386,0,-2.752030742171,-8.89625719965291E-05,-0.0524266583698189,0.000257301634121441,0.0422655729193335,-0.000384540794810471
8093472884672,0.0177252622356544,0.000318474209152326,263.880931551386,0,-2.75203267900141,0.000169747688956899,-0.0524258003680869,-4.93813531039068E-05,0.0422834000390475,0.000562413449634795
8093483689664,0.0177252622356544,0.000334749608312744,263.880931551386,0,-2.75203267900141,0.000284391849231751,-0.0524258003680869,-0.000185284016614274,0.0422667110695992,-0.0003000736649869
8093493881056,0.0177116119357477,0.00024861603292328,263.880931551386,0,-2.75205308003131,-0.000420201388487886,-0.052432458877144,-8.04988925720491E-05,0.0422630011093502,-0.000368960692265235
8093503763744,0.0177000386151166,-0.000337803572052436,263.880931551386,0,-2.75205471488963,-0.000382413877054636,-0.0524239581051824,0.000210709190507743,0.0422669978015427,-0.000166938999393688
8093513622592,0.0177028020439144,0.000191388970295352,263.880931551386,0,-2.75206573083499,-0.000367252201702567,-0.0524283335441878,0.000343909569805003,0.0422775571442389,0.00041214247024533
8093523999584,0.0176876705434078,0.000602453638637211,263.880931551386,0,-2.75206928707,-0.000381279293897023,-0.0524307073265538,-0.000339834295009096,0.0422801231025499,0.000519899204460121
8093533271840,0.0176876705434078,0.0007846117159668,263.880931551386,0,-2.75206928707,-0.000387495221320253,-0.0524307073265538,-0.000642826688645947,0.0422694906139498,8.23992536882304E-06
8093543357728,0.0176976702420493,-4.0467909399819E-05,263.880931551386,0,-2.75207140984407,-0.000316319969637159,-0.052429444734906,0.000172364520995943,0.0422781393856345,0.000444127368259002
8093554060928,0.0177081530033865,-5.80750211237704E-05,263.880931551386,0,-2.75207686981726,-7.34165737818493E-05,-0.0524382738199776,0.000492786390661723,0.042278426117578,0.000474292740482122
8093564977952,0.017711003401443,-0.00055021247662503,263.880931551386,0,-2.75208353911037,0.000217092650910662,-0.052442651199126,0.000563492977827502,0.042278961545595,0.000487890571172065
8093576024160,0.017711003401443,-0.000768296928002474,263.880931551386,0,-2.75208353911037,0.000345828117351889,-0.052442651199126,0.000594825702249208,0.0422746751956227,0.000282582799279279
8093585909536,0.0177156068297429,-0.000166849933146181,263.880931551386,0,-2.7520879273485,0.000667874640318469,-0.0524478741718562,0.000222639590529238,0.0422834117423921,0.000694326577203188
